(COIN-BOTTOM)
(T2  D=3.175 CR=0. TAPER=20DEG - ZMIN=-1.999 - CHAMFER MILL)
(T22  D=2. CR=0. - ZMIN=-4. - FLAT END MILL)
(T31  D=3.175 CR=0. - ZMIN=-4.5 - FLAT END MILL)
(T33  D=3.175 CR=1.587 - ZMIN=-1.965 - BALL END MILL)
(T34  D=2.5 CR=1.25 - ZMIN=-3.923 - BALL END MILL)
G0 G90 G94 G17
G21
G53 G0 Z0.

(CLEAR)
M5
M9
T31 M6
S16400 M3
G4 P4.
G55
G0 X92.733 Y5.259
Z15.
Z5.
Z2.5
G2 X95.454 Y6.562 Z2.335 I1.36 J0.651 F220.
X92.733 Y5.259 Z2.169 I-1.36 J-0.651
X95.454 Y6.562 Z2.004 I1.36 J0.651
X92.733 Y5.259 Z1.838 I-1.36 J-0.651
X95.454 Y6.562 Z1.673 I1.36 J0.651
X92.733 Y5.259 Z1.507 I-1.36 J-0.651
X95.454 Y6.562 Z1.342 I1.36 J0.651
X92.733 Y5.259 Z1.176 I-1.36 J-0.651
X95.454 Y6.562 Z1.011 I1.36 J0.651
X92.733 Y5.259 Z0.845 I-1.36 J-0.651
X95.454 Y6.562 Z0.68 I1.36 J0.651
X92.733 Y5.259 Z0.515 I-1.36 J-0.651
X95.454 Y6.562 Z0.349 I1.36 J0.651
X92.733 Y5.259 Z0.184 I-1.36 J-0.651
X95.454 Y6.562 Z0.018 I1.36 J0.651
X92.733 Y5.259 Z-0.147 I-1.36 J-0.651
X95.454 Y6.562 Z-0.313 I1.36 J0.651
X92.733 Y5.259 Z-0.478 I-1.36 J-0.651
X95.454 Y6.562 Z-0.644 I1.36 J0.651
X92.733 Y5.259 Z-0.809 I-1.36 J-0.651
X95.454 Y6.562 Z-0.974 I1.36 J0.651
X95.602 Y5.911 Z-0.998 I-1.36 J-0.651
X92.586 I-1.508 J0.
X95.602 I1.508 J0.
G1 X95.62 Y5.219 F330.
X95.646 Y5.137
X95.67 Y4.989
X95.665 Y4.839
X95.636 Y4.691
X95.587 Y4.55
X95.521 Y4.415
X95.44 Y4.289
X95.346 Y4.172
X95.241 Y4.065
X95.126 Y3.968
X95.004 Y3.882
X94.874 Y3.807
X94.738 Y3.743
X94.594 Y3.688
X94.442 Y3.644
X94.284 Y3.612
X94.12 Y3.592
X93.952 Y3.585
X93.781 Y3.592
X93.609 Y3.612
X93.437 Y3.647
X93.267 Y3.696
X93.099 Y3.76
X92.935 Y3.837
X92.776 Y3.928
X92.625 Y4.033
X92.481 Y4.149
X92.346 Y4.278
X92.221 Y4.418
X92.108 Y4.568
X92.007 Y4.727
X91.918 Y4.895
X91.843 Y5.069
X91.782 Y5.25
X91.735 Y5.435
X91.704 Y5.623
X91.688 Y5.814
X91.687 Y6.006
X91.701 Y6.198
X91.731 Y6.388
X91.776 Y6.575
X91.836 Y6.759
X91.911 Y6.936
X92. Y7.108
X92.102 Y7.272
X92.217 Y7.427
X92.344 Y7.573
X92.483 Y7.708
X92.632 Y7.831
X92.79 Y7.942
X92.957 Y8.04
X93.132 Y8.125
X93.312 Y8.195
X93.498 Y8.25
X93.687 Y8.291
X93.879 Y8.316
X94.073 Y8.325
X94.267 Y8.319
X94.459 Y8.297
X94.65 Y8.26
X94.837 Y8.208
X95.019 Y8.141
X95.195 Y8.06
X95.363 Y7.965
X95.524 Y7.856
X95.676 Y7.735
X95.817 Y7.602
X95.947 Y7.459
X96.065 Y7.305
X96.171 Y7.142
X96.28 Y6.941
X96.427 Y6.606
X96.555 Y6.239
X96.63 Y5.95
X96.675 Y5.69
X96.698 Y5.45
X96.701 Y5.224
X96.686 Y5.009
X96.655 Y4.801
X96.608 Y4.597
X96.544 Y4.398
X96.465 Y4.205
X96.371 Y4.019
X96.262 Y3.841
X96.138 Y3.67
X95.999 Y3.509
X95.846 Y3.358
X95.68 Y3.217
X95.5 Y3.089
X95.307 Y2.974
X95.103 Y2.873
X94.889 Y2.788
X94.665 Y2.719
X94.433 Y2.668
X94.195 Y2.635
X93.952 Y2.621
X93.706 Y2.626
X93.458 Y2.652
X93.212 Y2.698
X92.967 Y2.764
X92.727 Y2.85
X92.493 Y2.956
X92.266 Y3.081
X92.049 Y3.225
X91.844 Y3.387
X91.65 Y3.566
X91.471 Y3.76
X91.307 Y3.969
X91.16 Y4.192
X91.031 Y4.427
X90.921 Y4.672
X90.83 Y4.925
X90.76 Y5.186
X90.711 Y5.452
X90.684 Y5.722
X90.678 Y5.994
X90.694 Y6.266
X90.732 Y6.535
X90.792 Y6.802
X90.872 Y7.063
X90.974 Y7.317
X91.096 Y7.562
X91.237 Y7.797
X91.396 Y8.019
X91.573 Y8.229
X91.767 Y8.423
X91.975 Y8.602
X92.198 Y8.763
X92.432 Y8.906
X92.677 Y9.03
X92.932 Y9.134
X93.194 Y9.217
X93.462 Y9.278
X93.734 Y9.318
X94.008 Y9.336
X94.283 Y9.332
X94.557 Y9.306
X94.828 Y9.258
X95.094 Y9.188
X95.354 Y9.097
X95.606 Y8.986
X95.848 Y8.855
X96.078 Y8.705
X96.296 Y8.536
X96.505 Y8.347
X96.72 Y8.117
X96.93 Y7.853
X97.124 Y7.564
X97.299 Y7.253
X97.447 Y6.93
X97.541 Y6.675
X97.566 Y6.592
X97.581 Y6.507
X97.586 Y6.421
Y4.995
X97.577 Y4.838
X97.565 Y4.681
X97.516 Y4.412
X97.505 Y4.367
X97.404 Y4.053
X97.333 Y3.896
X97.252 Y3.739
X97.154 Y3.582
X97.042 Y3.425
X96.888 Y3.242
X96.757 Y3.111
X96.569 Y2.954
X96.416 Y2.846
X96.259 Y2.748
X96.102 Y2.668
X95.945 Y2.597
X95.631 Y2.497
X95.568 Y2.482
X95.317 Y2.437
X95.16 Y2.426
X95.003 Y2.417
X92.403
X92.251 Y2.425
X92.099 Y2.445
X91.944 Y2.478
X91.773 Y2.529
X91.594 Y2.599
X91.413 Y2.687
X91.22 Y2.8
X91.027 Y2.936
X90.84 Y3.092
X90.652 Y3.275
X90.469 Y3.484
X90.296 Y3.718
X90.138 Y3.972
X89.998 Y4.243
X89.877 Y4.534
X89.776 Y4.841
X89.699 Y5.163
X89.647 Y5.496
X89.622 Y5.836
X89.624 Y6.182
X89.629 Y6.247
X89.666 Y6.42
X89.742 Y6.581
X89.855 Y6.718
X89.997 Y6.825
X90.133 Y6.903
X90.605 Y7.197
X90.683 Y7.254
X90.742 Y7.302
X90.753 Y7.313
X91.076 Y7.691
X91.171 Y7.823
X91.39 Y8.151
X91.483 Y8.294
X91.563 Y8.451
X91.725 Y8.765
X91.861 Y9.008
X91.95 Y9.166
X92.049 Y9.339
X92.068 Y9.366
X92.092 Y9.393
X92.175 Y9.479
X92.332 Y9.609
X92.452 Y9.707
X92.6 Y9.817
X92.775 Y9.926
X92.965 Y10.025
X93.177 Y10.114
X93.415 Y10.192
X93.673 Y10.254
X93.941 Y10.297
X94.226 Y10.318
X94.526 Y10.317
X94.837 Y10.291
X95.154 Y10.238
X95.473 Y10.158
X95.79 Y10.051
X96.102 Y9.917
X96.409 Y9.755
X96.709 Y9.564
X97.006 Y9.339
X97.296 Y9.082
X97.38 Y8.994
X97.492 Y8.842
X97.562 Y8.668
X97.586 Y8.481
Y6.421
G2 X97.094 Y6.167 I-0.317 J0.011
G1 X97. Y6.229
X92.657 Y9.093
X92.487 Y9.204
G2 X92.452 Y9.707 I0.175 J0.265
G1 X92.647 Y9.868
X92.827 Y10.022
X92.961 Y10.139
X92.999 Y10.179
X93.145 Y10.336
X93.368 Y10.576
X93.476 Y10.681
X93.593 Y10.775
X93.718 Y10.857
X93.854 Y10.931
X94.011 Y11.
X94.188 Y11.061
X94.391 Y11.114
X94.607 Y11.152
X94.857 Y11.175
X95.12 Y11.179
X95.402 Y11.16
X95.71 Y11.114
X96.034 Y11.039
X96.359 Y10.935
X96.698 Y10.797
X97.047 Y10.619
X97.232 Y10.506
X97.379 Y10.388
X97.491 Y10.237
X97.562 Y10.062
X97.586 Y9.875
Y8.481
G2 X97.124 Y8.21 I-0.317 J0.011
G1 X96.992 Y8.277
X93.65 Y9.99
X93.463 Y10.085
G2 X93.368 Y10.576 I0.145 J0.283
G1 X93.437 Y10.65
X93.566 Y10.807
X93.589 Y10.837
X93.683 Y10.964
X93.776 Y11.168
X93.845 Y11.302
X93.935 Y11.422
X94.039 Y11.53
X94.155 Y11.625
X94.279 Y11.71
X94.414 Y11.785
X94.571 Y11.857
X94.745 Y11.92
X94.949 Y11.976
X95.164 Y12.017
X95.414 Y12.044
X95.678 Y12.052
X95.966 Y12.036
X96.288 Y11.993
X96.6 Y11.926
X96.876 Y11.842
X97.1 Y11.754
X97.17 Y11.72
X97.341 Y11.604
X97.473 Y11.447
X97.557 Y11.258
X97.586 Y11.054
Y9.875
G2 X97.16 Y9.587 I-0.317 J0.011
G1 X96.984 Y9.651
X94.218 Y10.656
X93.962 Y10.749
G2 X93.776 Y11.168 I0.108 J0.298
G1 X93.826 Y11.278
X93.89 Y11.435
X94.022 Y11.836
X94.075 Y11.976
X94.145 Y12.109
X94.231 Y12.231
X94.332 Y12.343
X94.442 Y12.444
X94.565 Y12.536
X94.698 Y12.621
X94.859 Y12.706
X95.033 Y12.781
X95.237 Y12.849
X95.464 Y12.906
X95.705 Y12.946
X95.97 Y12.969
X96.247 Y12.97
X96.492 Y12.951
X96.729 Y12.914
X96.93 Y12.865
X97.106 Y12.808
X97.132 Y12.797
X97.317 Y12.685
X97.462 Y12.524
X97.554 Y12.328
X97.586 Y12.114
Y11.054
G2 X97.197 Y10.756 I-0.317 J0.011
G1 X96.977 Y10.807
X94.518 Y11.377
X94.255 Y11.438
G2 X94.022 Y11.836 I0.072 J0.309
G1 X94.094 Y12.063
X94.293 Y12.692
X94.345 Y12.832
X94.413 Y12.966
X94.497 Y13.09
X94.594 Y13.205
X94.701 Y13.31
X94.824 Y13.41
X94.959 Y13.504
X95.12 Y13.596
X95.299 Y13.682
X95.492 Y13.755
X95.705 Y13.817
X95.933 Y13.864
X96.168 Y13.893
X96.379 Y13.902
X96.584 Y13.894
X96.78 Y13.871
X96.943 Y13.838
X97.049 Y13.808
X97.224 Y13.732
X97.374 Y13.614
X97.489 Y13.462
X97.561 Y13.285
X97.586 Y13.096
Y12.114
G2 X97.212 Y11.812 I-0.317 J0.011
G1 X96.975 Y11.855
X94.796 Y12.248
X94.543 Y12.294
G2 X94.293 Y12.692 I0.056 J0.312
G1 X94.374 Y12.952
X94.48 Y13.32
X94.52 Y13.477
X94.526 Y13.511
X94.561 Y13.657
X94.618 Y13.796
X94.693 Y13.925
X94.782 Y14.046
X94.883 Y14.158
X94.995 Y14.261
X95.118 Y14.359
X95.262 Y14.455
X95.424 Y14.544
X95.597 Y14.623
X95.784 Y14.691
X95.983 Y14.745
X96.177 Y14.781
X96.375 Y14.802
X96.557 Y14.806
X96.722 Y14.797
X96.896 Y14.773
X97.046 Y14.74
X97.061 Y14.736
X97.272 Y14.632
X97.44 Y14.468
X97.548 Y14.259
X97.586 Y14.027
Y13.096
G2 X97.222 Y12.793 I-0.317 J0.011
G1 X96.974 Y12.829
X95.078 Y13.109
X94.794 Y13.151
G2 X94.526 Y13.511 I0.046 J0.314
G1 X94.689 Y14.404
X94.723 Y14.55
X94.781 Y14.689
X94.855 Y14.819
X94.944 Y14.94
X95.043 Y15.052
X95.152 Y15.155
X95.276 Y15.255
X95.417 Y15.35
X95.569 Y15.436
X95.733 Y15.512
X95.91 Y15.578
X96.097 Y15.631
X96.263 Y15.663
X96.438 Y15.683
X96.614 Y15.689
X96.765 Y15.682
X96.914 Y15.663
X96.999 Y15.645
X97.188 Y15.577
X97.352 Y15.46
X97.479 Y15.304
X97.558 Y15.12
X97.586 Y14.92
Y14.027
G2 X97.224 Y13.724 I-0.317 J0.011
G1 X96.973 Y13.759
X95.241 Y14.004
X94.958 Y14.044
G2 X94.689 Y14.404 I0.044 J0.314
G1 X94.777 Y14.891
X94.804 Y15.048
X94.839 Y15.256
X94.871 Y15.402
X94.922 Y15.543
X94.992 Y15.676
X95.076 Y15.8
X95.172 Y15.915
X95.279 Y16.021
X95.394 Y16.117
X95.525 Y16.209
X95.668 Y16.294
X95.822 Y16.369
X95.984 Y16.432
X96.14 Y16.48
X96.312 Y16.517
X96.472 Y16.538
X96.621 Y16.546
X96.782 Y16.541
X96.931 Y16.524
X96.987 Y16.513
X97.18 Y16.447
X97.347 Y16.331
X97.476 Y16.174
X97.558 Y15.988
X97.586 Y15.786
Y14.92
G2 X97.226 Y14.617 I-0.317 J0.011
G1 X96.973 Y14.651
X95.397 Y14.862
X95.111 Y14.9
G2 X94.839 Y15.256 I0.042 J0.315
G1 X94.882 Y15.519
X94.954 Y15.99
X94.964 Y16.076
X94.988 Y16.224
X95.032 Y16.368
X95.096 Y16.503
X95.175 Y16.631
X95.268 Y16.749
X95.372 Y16.857
X95.485 Y16.956
X95.606 Y17.044
X95.74 Y17.127
X95.888 Y17.202
X96.036 Y17.263
X96.181 Y17.31
X96.343 Y17.348
X96.491 Y17.37
X96.641 Y17.38
X96.796 Y17.378
X96.945 Y17.363
X96.982 Y17.356
X97.176 Y17.291
X97.344 Y17.175
X97.475 Y17.017
X97.557 Y16.83
X97.586 Y16.628
Y15.786
G2 X97.228 Y15.482 I-0.317 J0.011
G1 X96.973 Y15.515
X95.539 Y15.698
X95.24 Y15.736
G2 X94.964 Y16.076 I0.04 J0.315
G1 X95.009 Y16.499
X94.988 Y16.705
X94.98 Y16.854
X94.997 Y17.003
X95.037 Y17.148
X95.096 Y17.286
X95.171 Y17.416
X95.26 Y17.537
X95.36 Y17.649
X95.469 Y17.751
X95.587 Y17.844
X95.718 Y17.93
X95.86 Y18.008
X96.005 Y18.074
X96.147 Y18.125
X96.304 Y18.167
X96.452 Y18.194
X96.601 Y18.209
X96.753 Y18.211
X96.903 Y18.201
X96.959 Y18.192
X97.159 Y18.131
X97.334 Y18.017
X97.47 Y17.858
X97.556 Y17.667
X97.586 Y17.46
Y16.628
G2 X97.251 Y16.322 I-0.317 J0.011
G1 X96.971 Y16.337
X95.632 Y16.412
X95.285 Y16.431
G2 X94.988 Y16.705 I0.018 J0.317
G1 X94.964 Y16.932
X94.927 Y17.089
X94.863 Y17.328
X94.832 Y17.474
X94.834 Y17.624
X94.858 Y17.772
X94.902 Y17.916
X94.962 Y18.053
X95.036 Y18.184
X95.122 Y18.306
X95.219 Y18.421
X95.327 Y18.528
X95.448 Y18.63
X95.579 Y18.724
X95.722 Y18.81
X95.877 Y18.887
X96.027 Y18.947
X96.184 Y18.996
X96.346 Y19.033
X96.494 Y19.053
X96.644 Y19.062
X96.798 Y19.058
X96.947 Y19.043
X96.987 Y19.035
X97.18 Y18.969
X97.347 Y18.853
X97.476 Y18.696
X97.558 Y18.509
X97.586 Y18.308
Y17.46
G2 X97.276 Y17.154 I-0.317 J0.011
G1 X96.971 Y17.146
X95.548 Y17.112
X95.175 Y17.103
G2 X94.863 Y17.328 I-0.008 J0.317
G1 X94.843 Y17.404
X94.793 Y17.561
X94.74 Y17.718
X94.689 Y17.849
X94.677 Y17.875
X94.622 Y18.014
X94.597 Y18.162
Y18.312
X94.617 Y18.461
X94.654 Y18.606
X94.707 Y18.746
X94.774 Y18.881
X94.852 Y19.009
X94.941 Y19.13
X95.044 Y19.249
X95.164 Y19.367
X95.298 Y19.479
X95.443 Y19.582
X95.6 Y19.675
X95.768 Y19.757
X95.944 Y19.827
X96.105 Y19.876
X96.283 Y19.914
X96.447 Y19.937
X96.597 Y19.945
X96.761 Y19.94
X96.91 Y19.924
X96.983 Y19.911
X97.177 Y19.845
X97.345 Y19.729
X97.475 Y19.572
X97.558 Y19.385
X97.586 Y19.183
Y18.308
G2 X97.31 Y18.004 I-0.317 J0.011
G1 X96.973 Y17.96
X95.391 Y17.752
X95.003 Y17.701
G2 X94.677 Y17.875 I-0.041 J0.315
G1 X94.531 Y18.194
X94.459 Y18.346
X94.386 Y18.503
X94.333 Y18.644
X94.3 Y18.79
X94.289 Y18.939
X94.298 Y19.089
X94.324 Y19.237
X94.365 Y19.381
X94.419 Y19.521
X94.485 Y19.656
X94.567 Y19.793
X94.666 Y19.932
X94.779 Y20.066
X94.907 Y20.195
X95.053 Y20.321
X95.213 Y20.438
X95.386 Y20.544
X95.571 Y20.638
X95.765 Y20.718
X95.958 Y20.78
X96.141 Y20.822
X96.337 Y20.852
X96.504 Y20.863
X96.672 Y20.861
X96.84 Y20.845
X96.988 Y20.82
X97.031 Y20.808
X97.212 Y20.735
X97.366 Y20.618
X97.485 Y20.464
X97.56 Y20.284
X97.586 Y20.091
Y19.183
G2 X97.334 Y18.883 I-0.317 J0.011
G1 X96.978 Y18.808
X95.097 Y18.413
X94.734 Y18.336
G2 X94.386 Y18.503 I-0.065 J0.311
G1 X94.318 Y18.66
X94.263 Y18.817
X94.217 Y19.006
X94.204 Y19.069
X94.2 Y19.131
X94.192 Y19.602
X94.184 Y19.846
X94.186 Y19.996
X94.206 Y20.144
X94.244 Y20.29
X94.297 Y20.43
X94.362 Y20.565
X94.438 Y20.695
X94.534 Y20.831
X94.647 Y20.967
X94.774 Y21.097
X94.919 Y21.224
X95.083 Y21.345
X95.262 Y21.456
X95.451 Y21.554
X95.652 Y21.637
X95.861 Y21.706
X96.066 Y21.755
X96.257 Y21.784
X96.454 Y21.799
X96.621 Y21.798
X96.796 Y21.783
X96.958 Y21.755
X97.026 Y21.738
X97.208 Y21.666
X97.364 Y21.548
X97.484 Y21.394
X97.56 Y21.214
X97.586 Y21.02
Y20.091
G2 X97.295 Y19.786 I-0.317 J0.011
G1 X96.972 Y19.759
X94.809 Y19.576
X94.527 Y19.552
G2 X94.184 Y19.846 I-0.027 J0.316
G1 X94.175 Y20.074
X94.159 Y20.231
X94.111 Y20.545
X94.097 Y20.631
X94.079 Y20.78
X94.081 Y20.93
X94.104 Y21.079
X94.142 Y21.224
X94.196 Y21.364
X94.262 Y21.498
X94.34 Y21.628
X94.437 Y21.764
X94.553 Y21.902
X94.683 Y22.034
X94.833 Y22.163
X95.002 Y22.286
X95.188 Y22.4
X95.385 Y22.5
X95.593 Y22.585
X95.81 Y22.654
X96.026 Y22.704
X96.226 Y22.734
X96.433 Y22.748
X96.607 Y22.746
X96.787 Y22.729
X96.953 Y22.7
X97.031 Y22.68
X97.211 Y22.606
X97.366 Y22.489
X97.485 Y22.335
X97.56 Y22.155
X97.586 Y21.963
Y21.02
G2 X97.305 Y20.716 I-0.317 J0.011
G1 X96.973 Y20.676
X94.756 Y20.416
X94.445 Y20.379
G2 X94.097 Y20.631 I-0.037 J0.315
G1 X94.085 Y20.702
X94.012 Y21.095
X94.008 Y21.114
X93.942 Y21.26
X93.887 Y21.399
X93.859 Y21.547
X93.855 Y21.697
X93.87 Y21.846
X93.901 Y21.993
X93.946 Y22.135
X94.005 Y22.274
X94.077 Y22.412
X94.166 Y22.555
X94.277 Y22.703
X94.402 Y22.846
X94.548 Y22.988
X94.716 Y23.127
X94.902 Y23.256
X95.103 Y23.373
X95.317 Y23.476
X95.54 Y23.563
X95.773 Y23.632
X96.007 Y23.681
X96.219 Y23.708
X96.436 Y23.718
X96.616 Y23.712
X96.802 Y23.691
X96.971 Y23.658
X97.046 Y23.637
X97.222 Y23.561
X97.373 Y23.443
X97.488 Y23.291
X97.561 Y23.114
X97.586 Y22.924
Y21.963
G2 X97.327 Y21.662 I-0.317 J0.011
G1 X96.976 Y21.596
X94.652 Y21.158
X94.285 Y21.089
G2 X93.942 Y21.26 I-0.059 J0.312
G1 X93.838 Y21.487
X93.756 Y21.644
X93.655 Y21.801
X93.578 Y21.93
X93.527 Y22.071
X93.498 Y22.218
X93.489 Y22.368
X93.496 Y22.518
X93.519 Y22.666
X93.555 Y22.812
X93.604 Y22.956
X93.671 Y23.112
X93.756 Y23.273
X93.857 Y23.432
X93.981 Y23.597
X94.128 Y23.762
X94.291 Y23.918
X94.477 Y24.069
X94.686 Y24.213
X94.911 Y24.343
X95.152 Y24.457
X95.401 Y24.551
X95.656 Y24.625
X95.914 Y24.678
X96.151 Y24.706
X96.385 Y24.716
X96.585 Y24.708
X96.772 Y24.685
X96.955 Y24.648
X97.05 Y24.621
X97.225 Y24.545
X97.375 Y24.427
X97.489 Y24.274
X97.561 Y24.098
X97.586 Y23.909
Y22.924
G2 X97.355 Y22.629 I-0.317 J0.011
G1 X96.984 Y22.525
X94.382 Y21.79
X93.999 Y21.682
G2 X93.655 Y21.801 I-0.086 J0.306
G1 X93.234 Y22.43
X93.156 Y22.558
X93.101 Y22.697
X93.065 Y22.843
X93.047 Y22.992
X93.044 Y23.142
X93.057 Y23.291
X93.081 Y23.439
X93.121 Y23.599
X93.179 Y23.768
X93.252 Y23.938
X93.348 Y24.12
X93.466 Y24.305
X93.603 Y24.486
X93.766 Y24.669
X93.957 Y24.851
X94.169 Y25.023
X94.401 Y25.182
X94.654 Y25.327
X94.922 Y25.454
X95.204 Y25.56
X95.49 Y25.643
X95.777 Y25.701
X96.053 Y25.734
X96.3 Y25.744
X96.531 Y25.734
X96.724 Y25.71
X96.923 Y25.67
X97.087 Y25.622
X97.108 Y25.614
X97.302 Y25.505
X97.455 Y25.342
X97.552 Y25.142
X97.586 Y24.922
Y23.909
G2 X97.372 Y23.62 I-0.317 J0.011
G1 X96.991 Y23.488
X93.954 Y22.44
X93.595 Y22.316
G2 X93.234 Y22.43 I-0.104 J0.3
G1 X92.749 Y23.15
X92.672 Y23.278
X92.618 Y23.418
X92.582 Y23.564
X92.563 Y23.712
X92.558 Y23.862
X92.567 Y24.012
X92.589 Y24.176
X92.626 Y24.343
X92.683 Y24.527
X92.759 Y24.717
X92.855 Y24.911
X92.978 Y25.116
X93.125 Y25.323
X93.294 Y25.523
X93.494 Y25.725
X93.724 Y25.923
X93.981 Y26.109
X94.258 Y26.279
X94.554 Y26.429
X94.867 Y26.557
X95.187 Y26.658
X95.506 Y26.732
X95.818 Y26.778
X96.121 Y26.799
X96.365 Y26.795
X96.611 Y26.772
X96.814 Y26.736
X96.992 Y26.69
X97.088 Y26.656
X97.29 Y26.549
X97.449 Y26.386
X97.551 Y26.182
X97.586 Y25.957
Y24.922
G2 X97.38 Y24.635 I-0.317 J0.011
G1 X96.994 Y24.491
X93.467 Y23.171
X93.117 Y23.04
G2 X92.749 Y23.15 I-0.111 J0.297
G1 X92.705 Y23.215
X92.647 Y23.296
X92.449 Y23.529
X92.314 Y23.686
X92.222 Y23.804
X92.146 Y23.934
X92.089 Y24.072
X92.049 Y24.217
X92.024 Y24.365
X92.013 Y24.514
X92.015 Y24.674
X92.029 Y24.84
X92.062 Y25.027
X92.11 Y25.216
X92.18 Y25.42
X92.275 Y25.638
X92.39 Y25.854
X92.537 Y26.081
X92.716 Y26.315
X92.919 Y26.542
X93.152 Y26.762
X93.419 Y26.977
X93.717 Y27.179
X94.04 Y27.363
X94.384 Y27.523
X94.741 Y27.657
X95.098 Y27.758
X95.453 Y27.828
X95.798 Y27.868
X96.121 Y27.879
X96.384 Y27.867
X96.645 Y27.834
X96.845 Y27.792
X97.039 Y27.735
X97.111 Y27.708
X97.304 Y27.598
X97.455 Y27.436
X97.552 Y27.236
X97.586 Y27.016
Y25.957
G2 X97.396 Y25.677 I-0.317 J0.011
G1 X97.003 Y25.505
X93.035 Y23.771
X92.673 Y23.612
G2 X92.314 Y23.686 I-0.127 J0.291
G1 X91.732 Y24.353
X91.639 Y24.471
X91.564 Y24.601
X91.506 Y24.739
X91.464 Y24.883
X91.435 Y25.03
X91.419 Y25.183
X91.416 Y25.349
X91.426 Y25.527
X91.454 Y25.726
X91.499 Y25.928
X91.568 Y26.152
X91.661 Y26.386
X91.777 Y26.621
X91.928 Y26.872
X92.113 Y27.13
X92.322 Y27.379
X92.571 Y27.63
X92.858 Y27.876
X93.182 Y28.112
X93.535 Y28.327
X93.91 Y28.517
X94.304 Y28.678
X94.708 Y28.807
X95.106 Y28.899
X95.495 Y28.956
X95.864 Y28.981
X96.204 Y28.976
X96.474 Y28.951
X96.731 Y28.905
X96.927 Y28.854
X97.128 Y28.784
X97.139 Y28.779
X97.313 Y28.671
X97.452 Y28.52
X97.543 Y28.337
X97.58 Y28.135
X97.583 Y28.084
X97.586 Y27.927
Y27.016
G2 X97.402 Y26.739 I-0.317 J0.011
G1 X97.007 Y26.556
X92.449 Y24.445
X92.097 Y24.282
G2 X91.732 Y24.353 I-0.133 J0.288
G1 X91.491 Y24.629
X91.349 Y24.786
X91.134 Y25.021
X91.039 Y25.137
X90.96 Y25.264
X90.898 Y25.401
X90.851 Y25.543
X90.818 Y25.69
X90.795 Y25.849
X90.785 Y26.014
X90.789 Y26.205
X90.809 Y26.404
X90.849 Y26.622
X90.912 Y26.86
X90.997 Y27.098
X91.114 Y27.359
X91.265 Y27.634
X91.442 Y27.902
X91.662 Y28.183
X91.925 Y28.47
X92.229 Y28.752
X92.561 Y29.013
X92.932 Y29.259
X93.338 Y29.485
X93.771 Y29.681
X94.22 Y29.843
X94.676 Y29.967
X95.129 Y30.051
X95.549 Y30.095
X95.934 Y30.105
X96.288 Y30.085
X96.56 Y30.047
X96.641 Y30.029
X96.789 Y29.98
X96.922 Y29.901
X97.037 Y29.796
X97.045 Y29.788
X97.135 Y29.655
X97.239 Y29.498
X97.318 Y29.341
X97.394 Y29.183
X97.448 Y29.026
X97.499 Y28.869
X97.532 Y28.712
X97.561 Y28.555
X97.58 Y28.135
G2 X97.402 Y27.847 I-0.317 J-0.003
G1 X97.018 Y27.659
X91.85 Y25.129
X91.501 Y24.958
G2 X91.134 Y25.021 I-0.14 J0.285
G1 X91.062 Y25.1
X90.915 Y25.257
X90.605 Y25.585
X90.526 Y25.658
X90.417 Y25.761
X90.332 Y25.885
X90.264 Y26.018
X90.209 Y26.158
X90.168 Y26.303
X90.138 Y26.457
X90.119 Y26.629
X90.112 Y26.821
X90.122 Y27.024
X90.151 Y27.254
X90.201 Y27.487
X90.277 Y27.746
X90.385 Y28.025
X90.519 Y28.303
X90.696 Y28.605
X90.916 Y28.919
X91.168 Y29.225
X91.462 Y29.528
X91.807 Y29.83
X92.199 Y30.122
X92.632 Y30.393
X93.099 Y30.635
X93.334 Y30.734
X93.427 Y30.767
X93.523 Y30.786
X93.622 Y30.793
X95.003 Y30.792
X95.16 Y30.784
X95.317 Y30.773
X95.474 Y30.744
X95.631 Y30.713
X95.788 Y30.665
X95.945 Y30.611
X96.102 Y30.541
X96.259 Y30.462
X96.416 Y30.369
X96.573 Y30.256
X96.731 Y30.124
X96.888 Y29.965
X97.037 Y29.796
G2 X96.956 Y29.323 I-0.245 J-0.202
G1 X96.75 Y29.199
X91.231 Y25.871
X90.866 Y25.651
G2 X90.526 Y25.658 I-0.164 J0.272
G1 X90.428 Y25.728
X90.15 Y25.918
X90.133 Y25.927
X90.086 Y25.948
X89.952 Y26.015
X89.833 Y26.107
X89.73 Y26.216
X89.641 Y26.337
X89.566 Y26.467
X89.504 Y26.603
X89.453 Y26.747
X89.411 Y26.907
X89.378 Y27.09
X89.359 Y27.283
X89.354 Y27.505
X89.369 Y27.734
X89.405 Y27.99
X89.468 Y28.27
X89.557 Y28.553
X89.682 Y28.864
X89.847 Y29.195
X90.043 Y29.519
X90.287 Y29.857
X90.584 Y30.207
X90.936 Y30.558
X91.003 Y30.616
X91.147 Y30.712
X91.31 Y30.772
X91.483 Y30.793
X93.622
G2 X93.858 Y30.276 I-0.011 J-0.317
G1 X93.806 Y30.212
X90.69 Y26.339
X90.452 Y26.043
G2 X90.086 Y25.948 I-0.247 J0.199
G1 X89.662 Y26.136
X89.441 Y26.213
X89.301 Y26.268
X89.174 Y26.347
X89.059 Y26.444
X88.957 Y26.554
X88.867 Y26.674
X88.789 Y26.802
X88.718 Y26.945
X88.656 Y27.097
X88.6 Y27.278
X88.557 Y27.471
X88.526 Y27.686
X88.511 Y27.928
X88.516 Y28.178
X88.544 Y28.463
X88.599 Y28.768
X88.682 Y29.078
X88.803 Y29.419
X88.967 Y29.785
X89.165 Y30.147
X89.397 Y30.501
X89.402 Y30.507
X89.564 Y30.661
X89.765 Y30.759
X89.986 Y30.793
X91.483
G2 X91.757 Y30.335 I-0.011 J-0.317
G1 X91.69 Y30.198
X89.966 Y26.682
X89.817 Y26.377
G2 X89.441 Y26.213 I-0.285 J0.14
G1 X89.191 Y26.298
X89.034 Y26.338
X88.79 Y26.397
X88.646 Y26.439
X88.509 Y26.5
X88.382 Y26.579
X88.266 Y26.674
X88.16 Y26.78
X88.065 Y26.896
X87.977 Y27.025
X87.895 Y27.167
X87.815 Y27.337
X87.748 Y27.518
X87.687 Y27.729
X87.641 Y27.959
X87.612 Y28.208
X87.601 Y28.492
X87.614 Y28.788
X87.653 Y29.111
X87.727 Y29.466
X87.835 Y29.839
X87.95 Y30.139
X88.074 Y30.4
X88.087 Y30.423
X88.205 Y30.576
X88.358 Y30.693
X88.537 Y30.767
X88.728 Y30.793
X89.986
G2 X90.28 Y30.385 I-0.011 J-0.317
G1 X90.221 Y30.187
X89.248 Y26.919
X89.158 Y26.618
G2 X88.79 Y26.397 I-0.304 J0.091
G1 X88.72 Y26.414
X88.563 Y26.457
X88.248 Y26.553
X88.091 Y26.602
X87.97 Y26.67
X87.934 Y26.693
X87.757 Y26.827
X87.556 Y26.985
X87.463 Y27.056
X87.347 Y27.151
X87.242 Y27.259
X87.149 Y27.376
X87.063 Y27.502
X86.976 Y27.656
X86.899 Y27.822
X86.825 Y28.021
X86.765 Y28.235
X86.717 Y28.48
X86.685 Y28.758
X86.676 Y29.047
X86.691 Y29.359
X86.732 Y29.679
X86.785 Y29.932
X86.856 Y30.17
X86.928 Y30.357
X86.936 Y30.373
X87.051 Y30.545
X87.209 Y30.679
X87.398 Y30.764
X87.603 Y30.793
X88.728
G2 X89.018 Y30.373 I-0.011 J-0.317
G1 X88.956 Y30.19
X88.008 Y27.402
X87.944 Y27.215
G2 X87.463 Y27.056 I-0.301 J0.102
G1 X87.306 Y27.173
X87.149 Y27.284
X86.992 Y27.39
X86.678 Y27.568
X86.551 Y27.649
X86.433 Y27.741
X86.327 Y27.847
X86.231 Y27.963
X86.146 Y28.086
X86.06 Y28.237
X85.984 Y28.398
X85.911 Y28.592
X85.851 Y28.801
X85.806 Y29.024
X85.777 Y29.266
X85.768 Y29.516
X85.777 Y29.726
X85.803 Y29.942
X85.841 Y30.126
X85.889 Y30.292
X85.898 Y30.315
X86.008 Y30.509
X86.17 Y30.662
X86.37 Y30.759
X86.591 Y30.793
X87.603
G2 X87.897 Y30.386 I-0.011 J-0.317
G1 X87.839 Y30.187
X87.192 Y27.975
X87.129 Y27.76
G2 X86.678 Y27.568 I-0.305 J0.089
G1 X86.521 Y27.657
X86.363 Y27.738
X86.03 Y27.867
X86.01 Y27.87
X85.863 Y27.901
X85.73 Y27.969
X85.607 Y28.055
X85.494 Y28.154
X85.392 Y28.264
X85.298 Y28.385
X85.211 Y28.517
X85.129 Y28.669
X85.053 Y28.839
X84.99 Y29.02
X84.939 Y29.212
X84.902 Y29.414
X84.885 Y29.591
X84.882 Y29.781
X84.893 Y29.956
X84.915 Y30.107
X84.953 Y30.274
X85.057 Y30.483
X85.222 Y30.649
X85.429 Y30.756
X85.66 Y30.793
X86.591
G2 X86.889 Y30.403 I-0.011 J-0.317
G1 X86.838 Y30.184
X86.43 Y28.426
X86.358 Y28.114
G2 X86.01 Y27.87 I-0.309 J0.072
G1 X85.578 Y27.938
X85.421 Y27.953
X85.335 Y27.96
X85.186 Y27.98
X85.044 Y28.028
X84.91 Y28.095
X84.784 Y28.177
X84.668 Y28.272
X84.562 Y28.378
X84.464 Y28.493
X84.37 Y28.623
X84.285 Y28.764
X84.206 Y28.922
X84.138 Y29.091
X84.082 Y29.272
X84.044 Y29.44
X84.021 Y29.602
X84.01 Y29.78
X84.013 Y29.936
X84.028 Y30.085
X84.058 Y30.246
X84.132 Y30.424
X84.25 Y30.577
X84.403 Y30.694
X84.582 Y30.767
X84.773 Y30.793
X85.66
G2 X85.964 Y30.432 I-0.011 J-0.317
G1 X85.929 Y30.18
X85.707 Y28.546
X85.664 Y28.234
G2 X85.335 Y27.96 I-0.315 J0.043
G1 X84.549 Y28.024
X84.4 Y28.044
X84.256 Y28.084
X84.118 Y28.143
X83.988 Y28.218
X83.867 Y28.307
X83.755 Y28.406
X83.652 Y28.515
X83.554 Y28.638
X83.465 Y28.771
X83.383 Y28.917
X83.31 Y29.075
X83.248 Y29.245
X83.204 Y29.401
X83.172 Y29.566
X83.154 Y29.727
X83.15 Y29.877
X83.158 Y30.034
X83.178 Y30.183
X83.185 Y30.211
X83.254 Y30.399
X83.37 Y30.561
X83.526 Y30.687
X83.71 Y30.766
X83.908 Y30.793
X84.773
G2 X85.078 Y30.446 I-0.011 J-0.317
G1 X85.053 Y30.179
X84.908 Y28.612
X84.88 Y28.312
G2 X84.549 Y28.024 I-0.316 J0.029
G1 X84.007 Y28.069
X83.693 Y28.081
X83.544 Y28.094
X83.399 Y28.135
X83.262 Y28.194
X83.132 Y28.27
X83.011 Y28.358
X82.898 Y28.457
X82.795 Y28.566
X82.7 Y28.684
X82.611 Y28.816
X82.528 Y28.962
X82.455 Y29.119
X82.397 Y29.275
X82.355 Y29.425
X82.322 Y29.591
X82.305 Y29.74
X82.3 Y29.89
X82.308 Y30.045
X82.328 Y30.194
X82.332 Y30.212
X82.401 Y30.4
X82.518 Y30.562
X82.673 Y30.687
X82.857 Y30.766
X83.055 Y30.793
X83.908
G2 X84.213 Y30.444 I-0.011 J-0.317
G1 X84.187 Y30.179
X84.041 Y28.683
X84.01 Y28.367
G2 X83.693 Y28.081 I-0.316 J0.031
G1 X83.536 Y28.087
X83.379 Y28.083
X82.978 Y28.065
X82.828 Y28.066
X82.681 Y28.091
X82.538 Y28.137
X82.402 Y28.2
X82.273 Y28.277
X82.153 Y28.367
X82.042 Y28.468
X81.939 Y28.577
X81.844 Y28.698
X81.754 Y28.831
X81.672 Y28.979
X81.599 Y29.138
X81.543 Y29.292
X81.501 Y29.443
X81.47 Y29.608
X81.453 Y29.757
X81.45 Y29.907
X81.458 Y30.06
X81.479 Y30.209
X81.481 Y30.218
X81.551 Y30.404
X81.668 Y30.564
X81.823 Y30.688
X82.006 Y30.766
X82.203 Y30.793
X83.055
G2 X83.361 Y30.461 I-0.011 J-0.317
G1 X83.349 Y30.178
X83.284 Y28.693
X83.27 Y28.368
G2 X82.978 Y28.065 I-0.317 J0.014
G1 X82.193 Y28.03
X82.043
X81.894 Y28.049
X81.75 Y28.089
X81.611 Y28.147
X81.48 Y28.22
X81.357 Y28.305
X81.242 Y28.402
X81.136 Y28.508
X81.034 Y28.627
X80.939 Y28.759
X80.853 Y28.901
X80.776 Y29.055
X80.71 Y29.219
X80.663 Y29.369
X80.626 Y29.532
X80.603 Y29.688
X80.594 Y29.838
X80.598 Y29.994
X80.613 Y30.143
X80.622 Y30.19
X80.687 Y30.383
X80.803 Y30.552
X80.961 Y30.682
X81.148 Y30.764
X81.35 Y30.793
X82.203
G2 X82.509 Y30.472 I-0.011 J-0.317
G1 X82.506 Y30.177
X82.489 Y28.658
X82.485 Y28.343
G2 X82.193 Y28.03 I-0.317 J0.004
G1 X81.965 Y28.019
X81.494 Y27.99
X81.337 Y27.979
X81.187 Y27.976
X81.039 Y27.999
X80.895 Y28.042
X80.758 Y28.102
X80.627 Y28.177
X80.505 Y28.263
X80.39 Y28.36
X80.284 Y28.466
X80.181 Y28.587
X80.084 Y28.722
X79.995 Y28.87
X79.916 Y29.028
X79.85 Y29.19
X79.802 Y29.343
X79.764 Y29.515
X79.741 Y29.67
X79.732 Y29.82
X79.735 Y29.981
X79.751 Y30.13
X79.762 Y30.188
X79.827 Y30.382
X79.942 Y30.551
X80.1 Y30.682
X80.287 Y30.764
X80.49 Y30.793
X81.35
G2 X81.656 Y30.47 I-0.011 J-0.317
G1 X81.651 Y30.177
X81.625 Y28.616
X81.62 Y28.29
G2 X81.337 Y27.979 I-0.317 J0.005
G1 X81.023 Y27.956
X80.866 Y27.942
X80.552 Y27.902
X80.402 Y27.891
X80.253 Y27.909
X80.108 Y27.947
X79.968 Y28.002
X79.835 Y28.071
X79.709 Y28.153
X79.591 Y28.245
X79.477 Y28.351
X79.368 Y28.471
X79.266 Y28.602
X79.172 Y28.746
X79.086 Y28.903
X79.01 Y29.073
X78.951 Y29.238
X78.908 Y29.403
X78.876 Y29.577
X78.861 Y29.728
X78.859 Y29.884
X78.868 Y30.042
X78.89 Y30.19
X78.897 Y30.22
X78.967 Y30.405
X79.084 Y30.565
X79.239 Y30.688
X79.422 Y30.766
X79.618 Y30.793
X80.49
G2 X80.796 Y30.478 I-0.011 J-0.317
G1 X80.799 Y30.177
X80.815 Y28.554
X80.818 Y28.219
G2 X80.552 Y27.902 I-0.317 J-0.003
G1 X80.434 Y27.888
X80.08 Y27.759
X80.054 Y27.749
X79.913 Y27.698
X79.764 Y27.677
X79.615 Y27.68
X79.466 Y27.704
X79.322 Y27.744
X79.182 Y27.799
X79.049 Y27.867
X78.922 Y27.947
X78.795 Y28.041
X78.67 Y28.151
X78.551 Y28.274
X78.437 Y28.413
X78.331 Y28.565
X78.234 Y28.731
X78.149 Y28.909
X78.077 Y29.096
X78.024 Y29.276
X77.987 Y29.45
X77.964 Y29.631
X77.957 Y29.788
X77.963 Y29.952
X77.981 Y30.11
X77.998 Y30.195
X78.064 Y30.387
X78.181 Y30.554
X78.337 Y30.683
X78.524 Y30.765
X78.725 Y30.793
X79.618
G2 X79.922 Y30.516 I-0.011 J-0.317
G1 X79.965 Y30.18
X80.187 Y28.457
X80.236 Y28.078
G2 X80.054 Y27.749 I-0.315 J-0.041
G1 X79.923 Y27.694
X79.484 Y27.456
X79.352 Y27.384
X79.206 Y27.35
X79.056 Y27.338
X78.907 Y27.344
X78.758 Y27.368
X78.613 Y27.405
X78.472 Y27.456
X78.331 Y27.522
X78.191 Y27.6
X78.05 Y27.696
X77.905 Y27.811
X77.765 Y27.943
X77.633 Y28.09
X77.508 Y28.251
X77.393 Y28.429
X77.29 Y28.619
X77.202 Y28.82
X77.129 Y29.029
X77.077 Y29.231
X77.042 Y29.433
X77.024 Y29.624
X77.022 Y29.79
X77.034 Y29.97
X77.058 Y30.13
X77.092 Y30.277
X77.196 Y30.485
X77.36 Y30.65
X77.568 Y30.756
X77.797 Y30.793
X78.725
G2 X79.024 Y30.542 I-0.011 J-0.317
G1 X79.101 Y30.185
X79.529 Y28.186
X79.615 Y27.784
G2 X79.484 Y27.456 I-0.31 J-0.066
G1 X79.452 Y27.435
X79.249 Y27.299
X79.138 Y27.223
X79.033 Y27.142
X78.911 Y27.056
X78.776 Y26.99
X78.632 Y26.946
X78.484 Y26.923
X78.334 Y26.918
X78.185 Y26.928
X78.037 Y26.952
X77.891 Y26.99
X77.737 Y27.043
X77.581 Y27.111
X77.423 Y27.196
X77.259 Y27.301
X77.095 Y27.427
X76.938 Y27.568
X76.784 Y27.731
X76.638 Y27.913
X76.502 Y28.114
X76.38 Y28.328
X76.276 Y28.552
X76.19 Y28.785
X76.123 Y29.023
X76.076 Y29.262
X76.052 Y29.465
X76.045 Y29.672
X76.054 Y29.867
X76.075 Y30.031
X76.111 Y30.2
X76.129 Y30.262
X76.232 Y30.475
X76.396 Y30.645
X76.606 Y30.755
X76.84 Y30.793
X77.797
G2 X78.087 Y30.577 I-0.011 J-0.317
G1 X78.215 Y30.197
X79.001 Y27.87
X79.131 Y27.487
G2 X79.033 Y27.142 I-0.301 J-0.102
G1 X78.824 Y26.98
X78.667 Y26.858
X78.458 Y26.7
X78.407 Y26.67
X78.195 Y26.568
X78.158 Y26.55
X78.127 Y26.535
X77.969 Y26.493
X77.821 Y26.467
X77.671 Y26.456
X77.521 Y26.461
X77.372 Y26.479
X77.217 Y26.51
X77.056 Y26.557
X76.881 Y26.623
X76.707 Y26.705
X76.528 Y26.808
X76.343 Y26.935
X76.16 Y27.084
X75.984 Y27.252
X75.814 Y27.443
X75.652 Y27.657
X75.502 Y27.893
X75.371 Y28.141
X75.26 Y28.4
X75.17 Y28.666
X75.103 Y28.933
X75.058 Y29.2
X75.039 Y29.429
X75.038 Y29.662
X75.053 Y29.868
X75.08 Y30.039
X75.125 Y30.224
X75.144 Y30.283
X75.25 Y30.488
X75.413 Y30.652
X75.62 Y30.756
X75.848 Y30.793
X76.84
G2 X77.131 Y30.571 I-0.011 J-0.317
G1 X77.25 Y30.194
X78.18 Y27.239
X78.283 Y26.911
G2 X78.127 Y26.535 I-0.303 J-0.095
G1 X78.059 Y26.513
X77.881 Y26.466
X77.724 Y26.429
X77.567 Y26.394
X77.41 Y26.353
X77.253 Y26.308
X77.009 Y26.225
X76.865 Y26.184
X76.716 Y26.167
X76.566
X76.417 Y26.183
X76.27 Y26.211
X76.111 Y26.255
X75.947 Y26.315
X75.775 Y26.394
X75.591 Y26.498
X75.412 Y26.619
X75.227 Y26.767
X75.039 Y26.943
X74.859 Y27.142
X74.69 Y27.362
X74.53 Y27.607
X74.385 Y27.875
X74.262 Y28.156
X74.16 Y28.447
X74.084 Y28.742
X74.033 Y29.033
X74.006 Y29.315
X74.003 Y29.548
X74.019 Y29.791
X74.048 Y29.985
X74.089 Y30.163
X74.125 Y30.276
X74.23 Y30.484
X74.394 Y30.65
X74.601 Y30.756
X74.831 Y30.793
X75.848
G2 X76.144 Y30.557 I-0.011 J-0.317
G1 X76.242 Y30.19
X77.121 Y26.912
X77.204 Y26.604
G2 X77.009 Y26.225 I-0.307 J-0.082
G1 X76.932 Y26.199
X76.782 Y26.146
X76.33 Y25.965
X76.31 Y25.955
X76.278 Y25.934
X76.148 Y25.859
X76.003 Y25.822
X75.854 Y25.804
X75.704 Y25.803
X75.554 Y25.816
X75.404 Y25.843
X75.239 Y25.885
X75.071 Y25.944
X74.887 Y26.025
X74.702 Y26.124
X74.51 Y26.248
X74.31 Y26.403
X74.115 Y26.578
X73.925 Y26.781
X73.737 Y27.016
X73.559 Y27.279
X73.398 Y27.565
X73.257 Y27.869
X73.141 Y28.185
X73.051 Y28.506
X72.989 Y28.825
X72.954 Y29.134
X72.945 Y29.414
X72.958 Y29.674
X72.987 Y29.901
X73.026 Y30.085
X73.085 Y30.282
X73.1 Y30.32
X73.21 Y30.512
X73.372 Y30.663
X73.571 Y30.759
X73.79 Y30.793
X74.831
G2 X75.124 Y30.566 I-0.011 J-0.317
G1 X75.236 Y30.192
X76.289 Y26.657
X76.4 Y26.285
G2 X76.278 Y25.934 I-0.304 J-0.091
G1 X75.87 Y25.669
X75.854 Y25.656
X75.8 Y25.602
X75.688 Y25.503
X75.557 Y25.43
X75.417 Y25.377
X75.271 Y25.343
X75.122 Y25.325
X74.972 Y25.321
X74.817 Y25.33
X74.653 Y25.354
X74.479 Y25.393
X74.288 Y25.453
X74.097 Y25.53
X73.891 Y25.633
X73.676 Y25.763
X73.465 Y25.914
X73.246 Y26.1
X73.026 Y26.321
X72.817 Y26.566
X72.621 Y26.838
X72.437 Y27.141
X72.272 Y27.47
X72.132 Y27.817
X72.02 Y28.173
X71.939 Y28.531
X71.888 Y28.883
X71.867 Y29.217
X71.872 Y29.505
X71.897 Y29.761
X71.938 Y29.988
X71.987 Y30.173
X72.031 Y30.298
X72.139 Y30.498
X72.302 Y30.656
X72.505 Y30.758
X72.73 Y30.793
X73.79
G2 X74.076 Y30.589 I-0.011 J-0.317
G1 X74.224 Y30.202
X75.712 Y26.334
X75.866 Y25.935
G2 X75.8 Y25.602 I-0.296 J-0.114
G1 X75.61 Y25.414
X75.314 Y25.1
X75.206 Y24.996
X75.083 Y24.91
X74.949 Y24.843
X74.807 Y24.793
X74.661 Y24.758
X74.513 Y24.736
X74.354 Y24.727
X74.189 Y24.731
X74.006 Y24.75
X73.81 Y24.786
X73.607 Y24.841
X73.382 Y24.921
X73.158 Y25.023
X72.923 Y25.152
X72.676 Y25.316
X72.43 Y25.509
X72.192 Y25.729
X71.952 Y25.989
X71.719 Y26.286
X71.5 Y26.617
X71.303 Y26.975
X71.132 Y27.354
X70.991 Y27.749
X70.883 Y28.149
X70.811 Y28.539
X70.773 Y28.915
X70.765 Y29.269
X70.782 Y29.559
X70.821 Y29.837
X70.868 Y30.049
X70.93 Y30.248
X70.961 Y30.326
X71.072 Y30.516
X71.234 Y30.665
X71.432 Y30.76
X71.649 Y30.793
X72.73
G2 X73.008 Y30.607 I-0.011 J-0.317
G1 X73.188 Y30.212
X75.19 Y25.824
X75.364 Y25.441
G2 X75.314 Y25.1 I-0.289 J-0.132
G1 X74.74 Y24.489
X74.632 Y24.385
X74.51 Y24.297
X74.378 Y24.226
X74.238 Y24.171
X74.094 Y24.129
X73.944 Y24.099
X73.786 Y24.082
X73.607 Y24.076
X73.416 Y24.085
X73.21 Y24.112
X72.982 Y24.16
X72.753 Y24.229
X72.505 Y24.325
X72.24 Y24.453
X71.98 Y24.606
X71.708 Y24.796
X71.427 Y25.029
X71.148 Y25.3
X70.885 Y25.6
X70.633 Y25.94
X70.396 Y26.319
X70.184 Y26.73
X70.002 Y27.164
X69.856 Y27.609
X69.747 Y28.059
X69.679 Y28.494
X69.647 Y28.908
X69.649 Y29.281
X69.675 Y29.586
X69.722 Y29.869
X69.75 Y29.983
X69.825 Y30.169
X69.947 Y30.329
X70.107 Y30.449
X70.184 Y30.493
X70.342 Y30.57
X70.499 Y30.633
X70.656 Y30.685
X70.813 Y30.726
X70.957 Y30.754
X71.127 Y30.778
X71.284 Y30.788
X71.441 Y30.792
X71.649 Y30.793
G2 X71.923 Y30.616 I-0.011 J-0.317
G1 X72.12 Y30.219
X74.603 Y25.207
X74.785 Y24.839
G2 X74.74 Y24.489 I-0.284 J-0.141
G1 X74.426 Y24.155
X74.296 Y24.
X74.22 Y23.897
X74.126 Y23.78
X74.013 Y23.682
X73.888 Y23.599
X73.754 Y23.53
X73.615 Y23.476
X73.471 Y23.434
X73.309 Y23.402
X73.134 Y23.381
X72.942 Y23.373
X72.727 Y23.382
X72.508 Y23.409
X72.26 Y23.459
X72.001 Y23.535
X71.732 Y23.637
X71.439 Y23.776
X71.137 Y23.95
X70.841 Y24.154
X70.534 Y24.404
X70.223 Y24.702
X69.917 Y25.047
X69.631 Y25.427
X69.368 Y25.84
X69.13 Y26.294
X68.922 Y26.777
X68.835 Y27.038
X68.813 Y27.115
X68.8 Y27.194
X68.796 Y27.274
Y27.927
X68.799 Y28.084
X68.821 Y28.555
X68.85 Y28.712
X68.883 Y28.869
X68.934 Y29.026
X68.988 Y29.183
X69.085 Y29.393
X69.144 Y29.498
X69.243 Y29.655
X69.357 Y29.812
X69.49 Y29.969
X69.652 Y30.126
X69.713 Y30.179
X69.87 Y30.298
X70.027 Y30.405
X70.107 Y30.449
G2 X70.523 Y30.332 I0.146 J-0.282
G1 X70.684 Y30.068
X74.01 Y24.601
X74.229 Y24.24
G2 X74.22 Y23.897 I-0.271 J-0.165
G1 X73.838 Y23.372
X73.723 Y23.215
X73.629 Y23.098
X73.521 Y22.994
X73.4 Y22.905
X73.271 Y22.83
X73.134 Y22.768
X72.989 Y22.716
X72.83 Y22.673
X72.646 Y22.64
X72.455 Y22.62
X72.232 Y22.616
X72.001 Y22.63
X71.745 Y22.666
X71.464 Y22.729
X71.183 Y22.816
X70.876 Y22.939
X70.545 Y23.104
X70.216 Y23.302
X69.879 Y23.544
X69.532 Y23.838
X69.185 Y24.183
X68.974 Y24.43
X68.877 Y24.575
X68.816 Y24.739
X68.796 Y24.912
Y27.274
G2 X69.324 Y27.5 I0.317 J-0.011
G1 X69.374 Y27.456
X73.426 Y23.849
X73.671 Y23.63
G2 X73.723 Y23.215 I-0.211 J-0.237
G1 X73.267 Y22.587
X73.169 Y22.444
X73.078 Y22.325
X72.968 Y22.223
X72.847 Y22.134
X72.718 Y22.058
X72.582 Y21.994
X72.426 Y21.936
X72.26 Y21.889
X72.069 Y21.851
X71.858 Y21.826
X71.631 Y21.818
X71.37 Y21.83
X71.104 Y21.863
X70.807 Y21.925
X70.483 Y22.021
X70.16 Y22.144
X69.807 Y22.313
X69.43 Y22.533
X69.076 Y22.779
X69.067 Y22.787
X68.921 Y22.948
X68.828 Y23.144
X68.796 Y23.359
Y24.912
G2 X69.277 Y25.173 I0.317 J-0.011
G1 X69.385 Y25.108
X72.827 Y23.031
X73.066 Y22.887
G2 X73.169 Y22.444 I-0.164 J-0.272
G1 X72.834 Y21.958
X72.729 Y21.801
X72.658 Y21.694
X72.57 Y21.573
X72.466 Y21.465
X72.349 Y21.37
X72.224 Y21.287
X72.091 Y21.217
X71.946 Y21.154
X71.776 Y21.096
X71.589 Y21.049
X71.378 Y21.013
X71.141 Y20.992
X70.892 Y20.99
X70.604 Y21.011
X70.307 Y21.058
X69.978 Y21.136
X69.62 Y21.252
X69.354 Y21.363
X69.198 Y21.443
X69.032 Y21.56
X68.904 Y21.716
X68.824 Y21.902
X68.796 Y22.102
Y23.359
G2 X69.245 Y23.637 I0.317 J-0.011
G1 X69.392 Y23.57
X72.291 Y22.251
X72.518 Y22.147
G2 X72.658 Y21.694 I-0.132 J-0.289
G1 X72.626 Y21.644
X72.541 Y21.486
X72.37 Y21.107
X72.364 Y21.077
X72.325 Y20.932
X72.241 Y20.807
X72.143 Y20.694
X72.033 Y20.592
X71.913 Y20.502
X71.784 Y20.422
X71.635 Y20.344
X71.465 Y20.273
X71.278 Y20.211
X71.059 Y20.158
X70.83 Y20.122
X70.561 Y20.101
X70.278 Y20.102
X69.993 Y20.126
X69.74 Y20.168
X69.499 Y20.228
X69.31 Y20.292
X69.245 Y20.32
X69.062 Y20.432
X68.918 Y20.593
X68.827 Y20.788
X68.796 Y21.001
Y22.102
G2 X69.212 Y22.393 I0.317 J-0.011
G1 X69.4 Y22.332
X71.835 Y21.537
X72.15 Y21.434
G2 X72.364 Y21.077 I-0.098 J-0.302
G1 X72.317 Y20.859
X72.284 Y20.702
X72.259 Y20.545
X72.247 Y20.458
X72.219 Y20.311
X72.162 Y20.172
X72.087 Y20.043
X71.997 Y19.923
X71.894 Y19.813
X71.783 Y19.713
X71.655 Y19.617
X71.507 Y19.522
X71.342 Y19.435
X71.148 Y19.352
X70.942 Y19.282
X70.718 Y19.226
X70.473 Y19.186
X70.221 Y19.164
X69.992 Y19.163
X69.771 Y19.18
X69.569 Y19.212
X69.4 Y19.253
X69.306 Y19.284
X69.1 Y19.389
X68.937 Y19.553
X68.832 Y19.759
X68.796 Y19.987
Y21.001
G2 X69.169 Y21.302 I0.317 J-0.011
G1 X69.407 Y21.26
X71.682 Y20.857
X71.987 Y20.803
G2 X72.247 Y20.458 I-0.055 J-0.313
G1 X72.216 Y20.231
X72.201 Y20.074
X72.195 Y19.76
X72.184 Y19.61
X72.144 Y19.465
X72.084 Y19.328
X72.009 Y19.198
X71.921 Y19.076
X71.823 Y18.963
X71.707 Y18.851
X71.578 Y18.745
X71.424 Y18.637
X71.254 Y18.537
X71.069 Y18.448
X70.864 Y18.369
X70.643 Y18.303
X70.415 Y18.255
X70.194 Y18.227
X69.991 Y18.217
X69.777 Y18.224
X69.601 Y18.244
X69.437 Y18.276
X69.336 Y18.304
X69.16 Y18.38
X69.009 Y18.498
X68.893 Y18.65
X68.821 Y18.828
X68.796 Y19.018
Y19.987
G2 X69.139 Y20.293 I0.317 J-0.011
G1 X69.41 Y20.271
X71.587 Y20.097
X71.902 Y20.072
G2 X72.195 Y19.76 I-0.025 J-0.316
G1 X72.179 Y19.131
X72.173 Y19.053
X72.121 Y18.817
X72.101 Y18.743
X71.997 Y18.503
X71.916 Y18.347
X71.836 Y18.22
X71.744 Y18.101
X71.639 Y17.986
X71.521 Y17.877
X71.381 Y17.766
X71.224 Y17.662
X71.055 Y17.568
X70.867 Y17.483
X70.666 Y17.41
X70.455 Y17.353
X70.248 Y17.314
X70.045 Y17.293
X69.852 Y17.288
X69.684 Y17.297
X69.504 Y17.322
X69.349 Y17.356
X69.32 Y17.365
X69.109 Y17.468
X68.941 Y17.633
X68.833 Y17.841
X68.796 Y18.073
Y19.018
G2 X69.16 Y19.32 I0.317 J-0.011
G1 X69.408 Y19.283
X71.537 Y18.966
X71.749 Y18.934
G2 X71.997 Y18.503 I-0.047 J-0.314
G1 X71.912 Y18.319
X71.755 Y17.982
X71.715 Y17.875
X71.598 Y17.54
X71.544 Y17.4
X71.473 Y17.268
X71.387 Y17.145
X71.288 Y17.032
X71.179 Y16.929
X71.062 Y16.835
X70.928 Y16.745
X70.779 Y16.661
X70.618 Y16.587
X70.447 Y16.524
X70.266 Y16.473
X70.103 Y16.442
X69.928 Y16.422
X69.756 Y16.417
X69.606 Y16.424
X69.457 Y16.444
X69.381 Y16.46
X69.192 Y16.528
X69.029 Y16.645
X68.903 Y16.801
X68.823 Y16.985
X68.796 Y17.184
Y18.073
G2 X69.175 Y18.374 I0.317 J-0.011
G1 X69.406 Y18.328
X71.102 Y17.991
X71.355 Y17.941
G2 X71.611 Y17.63 I-0.062 J-0.311
G1 X71.608 Y17.584
X71.598 Y17.54
X71.553 Y17.404
X71.424 Y16.968
X71.421 Y16.956
X71.409 Y16.846
X71.387 Y16.698
X71.341 Y16.555
X71.276 Y16.42
X71.194 Y16.294
X71.098 Y16.178
X70.992 Y16.073
X70.877 Y15.977
X70.753 Y15.892
X70.618 Y15.813
X70.469 Y15.742
X70.317 Y15.684
X70.169 Y15.641
X70.005 Y15.607
X69.856 Y15.588
X69.706 Y15.582
X69.551 Y15.588
X69.403 Y15.607
X69.382 Y15.611
X69.193 Y15.679
X69.029 Y15.796
X68.903 Y15.952
X68.823 Y16.137
X68.796 Y16.336
Y17.184
G2 X69.162 Y17.487 I0.317 J-0.011
G1 X69.408 Y17.449
X70.831 Y17.229
X71.141 Y17.181
G2 X71.409 Y16.846 I-0.048 J-0.314
G1 X71.374 Y16.5
X71.377 Y16.461
X71.402 Y16.218
X71.41 Y16.068
X71.388 Y15.92
X71.342 Y15.777
X71.279 Y15.641
X71.2 Y15.513
X71.108 Y15.395
X71.005 Y15.285
X70.893 Y15.185
X70.772 Y15.095
X70.638 Y15.01
X70.494 Y14.935
X70.345 Y14.871
X70.202 Y14.824
X70.044 Y14.785
X69.896 Y14.761
X69.747 Y14.749
X69.594 Y14.751
X69.445 Y14.764
X69.407 Y14.771
X69.211 Y14.835
X69.04 Y14.95
X68.908 Y15.108
X68.825 Y15.296
X68.796 Y15.5
Y16.336
G2 X69.137 Y16.641 I0.317 J-0.011
G1 X69.41 Y16.62
X70.758 Y16.518
X71.112 Y16.491
G2 X71.402 Y16.218 I-0.024 J-0.317
G1 X71.427 Y15.99
X71.495 Y15.519
X71.508 Y15.369
X71.494 Y15.22
X71.458 Y15.074
X71.404 Y14.935
X71.335 Y14.802
X71.252 Y14.677
X71.158 Y14.56
X71.054 Y14.452
X70.94 Y14.352
X70.815 Y14.259
X70.675 Y14.171
X70.523 Y14.092
X70.372 Y14.028
X70.226 Y13.979
X70.062 Y13.939
X69.914 Y13.916
X69.765 Y13.904
X69.609 Y13.905
X69.459 Y13.918
X69.408 Y13.927
X69.212 Y13.991
X69.041 Y14.106
X68.909 Y14.264
X68.825 Y14.452
X68.796 Y14.657
Y15.5
G2 X69.117 Y15.806 I0.317 J-0.011
G1 X69.411 Y15.803
X70.839 Y15.785
X71.186 Y15.78
G2 X71.495 Y15.519 I-0.004 J-0.317
G1 X71.607 Y14.733
X71.621 Y14.584
X71.607 Y14.435
X71.572 Y14.289
X71.52 Y14.148
X71.453 Y14.014
X71.373 Y13.887
X71.282 Y13.768
X71.181 Y13.657
X71.065 Y13.549
X70.937 Y13.447
X70.798 Y13.354
X70.647 Y13.27
X70.484 Y13.195
X70.329 Y13.138
X70.165 Y13.093
X70.001 Y13.062
X69.851 Y13.045
X69.696 Y13.041
X69.543 Y13.05
X69.395 Y13.07
X69.372 Y13.075
X69.186 Y13.145
X69.025 Y13.262
X68.901 Y13.417
X68.823 Y13.6
X68.796 Y13.797
Y14.657
G2 X69.109 Y14.963 I0.317 J-0.011
G1 X69.411 Y14.967
X70.952 Y14.99
X71.29 Y14.995
G2 X71.607 Y14.733 I0.005 J-0.317
G1 X71.63 Y14.576
X71.656 Y14.419
X71.742 Y14.033
X71.767 Y13.885
Y13.735
X71.745 Y13.587
X71.704 Y13.442
X71.648 Y13.303
X71.578 Y13.17
X71.497 Y13.045
X71.405 Y12.926
X71.299 Y12.81
X71.177 Y12.696
X71.04 Y12.588
X70.892 Y12.489
X70.733 Y12.4
X70.563 Y12.323
X70.385 Y12.258
X70.223 Y12.213
X70.046 Y12.18
X69.884 Y12.162
X69.734 Y12.158
X69.571 Y12.167
X69.422 Y12.187
X69.378 Y12.197
X69.19 Y12.266
X69.027 Y12.383
X68.902 Y12.539
X68.823 Y12.722
X68.796 Y12.921
Y13.797
G2 X69.091 Y14.103 I0.317 J-0.011
G1 X69.41 Y14.126
X71.068 Y14.245
X71.412 Y14.27
G2 X71.742 Y14.033 I0.023 J-0.317
G1 X71.761 Y13.948
X71.935 Y13.32
X71.968 Y13.173
X71.976 Y13.024
X71.963 Y12.874
X71.931 Y12.728
X71.884 Y12.585
X71.824 Y12.448
X71.751 Y12.317
X71.666 Y12.19
X71.565 Y12.062
X71.447 Y11.936
X71.313 Y11.814
X71.166 Y11.7
X71.006 Y11.595
X70.834 Y11.502
X70.65 Y11.419
X70.457 Y11.351
X70.278 Y11.304
X70.09 Y11.27
X69.915 Y11.253
X69.759 Y11.251
X69.588 Y11.262
X69.436 Y11.284
X69.372 Y11.298
X69.186 Y11.368
X69.025 Y11.485
X68.901 Y11.64
X68.823 Y11.823
X68.796 Y12.02
Y12.921
G2 X69.074 Y13.225 I0.317 J-0.011
G1 X69.409 Y13.266
X71.251 Y13.497
X71.593 Y13.54
G2 X71.935 Y13.32 I0.039 J-0.315
G1 X72.152 Y12.535
X72.185 Y12.388
X72.196 Y12.239
X72.186 Y12.089
X72.158 Y11.942
X72.115 Y11.798
X72.059 Y11.659
X71.991 Y11.525
X71.906 Y11.387
X71.807 Y11.253
X71.689 Y11.117
X71.553 Y10.984
X71.401 Y10.856
X71.235 Y10.739
X71.056 Y10.632
X70.865 Y10.539
X70.662 Y10.459
X70.452 Y10.396
X70.26 Y10.354
X70.057 Y10.327
X69.877 Y10.317
X69.711 Y10.321
X69.535 Y10.34
X69.384 Y10.369
X69.341 Y10.381
X69.163 Y10.456
X69.011 Y10.573
X68.894 Y10.727
X68.821 Y10.905
X68.796 Y11.095
Y12.02
G2 X69.064 Y12.323 I0.317 J-0.011
G1 X69.407 Y12.377
X71.469 Y12.7
X71.8 Y12.752
G2 X72.152 Y12.535 I0.049 J-0.314
G1 X72.196 Y12.377
X72.34 Y11.906
X72.384 Y11.767
X72.421 Y11.622
X72.439 Y11.473
X72.436 Y11.323
X72.416 Y11.175
X72.381 Y11.029
X72.331 Y10.887
X72.268 Y10.746
X72.191 Y10.606
X72.096 Y10.462
X71.981 Y10.313
X71.85 Y10.171
X71.7 Y10.032
X71.531 Y9.899
X71.343 Y9.774
X71.142 Y9.662
X70.931 Y9.566
X70.71 Y9.486
X70.483 Y9.425
X70.269 Y9.384
X70.062 Y9.363
X69.865 Y9.358
X69.694 Y9.367
X69.512 Y9.392
X69.355 Y9.427
X69.32 Y9.437
X69.109 Y9.541
X68.941 Y9.705
X68.833 Y9.914
X68.796 Y10.146
Y11.095
G2 X69.053 Y11.396 I0.317 J-0.011
G1 X69.405 Y11.464
X71.696 Y11.91
X72.024 Y11.974
G2 X72.384 Y11.767 I0.061 J-0.312
G1 X72.488 Y11.435
X72.541 Y11.307
X72.631 Y11.121
X72.69 Y10.983
X72.729 Y10.838
X72.747 Y10.689
X72.746 Y10.539
X72.728 Y10.39
X72.696 Y10.244
X72.651 Y10.101
X72.589 Y9.95
X72.513 Y9.8
X72.417 Y9.643
X72.3 Y9.482
X72.167 Y9.327
X72.012 Y9.173
X71.833 Y9.023
X71.635 Y8.881
X71.422 Y8.753
X71.196 Y8.641
X70.958 Y8.547
X70.715 Y8.471
X70.465 Y8.416
X70.233 Y8.384
X70.026 Y8.372
X69.808 Y8.376
X69.629 Y8.395
X69.463 Y8.426
X69.344 Y8.458
X69.166 Y8.532
X69.013 Y8.65
X68.895 Y8.803
X68.821 Y8.981
X68.796 Y9.173
Y10.146
G2 X69.034 Y10.442 I0.317 J-0.011
G1 X69.4 Y10.537
X71.922 Y11.189
X72.271 Y11.28
G2 X72.631 Y11.121 I0.08 J-0.307
G1 X72.707 Y10.964
X72.749 Y10.885
X72.813 Y10.807
X72.944 Y10.65
X73.035 Y10.53
X73.104 Y10.397
X73.151 Y10.255
X73.179 Y10.108
X73.19 Y9.958
X73.185 Y9.808
X73.167 Y9.659
X73.135 Y9.508
X73.086 Y9.345
X73.023 Y9.182
X72.939 Y9.007
X72.834 Y8.828
X72.711 Y8.652
X72.563 Y8.473
X72.389 Y8.294
X72.194 Y8.123
X71.981 Y7.965
X71.746 Y7.818
X71.492 Y7.686
X71.229 Y7.575
X70.954 Y7.485
X70.679 Y7.418
X70.407 Y7.375
X70.164 Y7.357
X69.924
X69.731 Y7.374
X69.53 Y7.407
X69.358 Y7.45
X69.3 Y7.469
X69.097 Y7.576
X68.935 Y7.739
X68.832 Y7.944
X68.796 Y8.171
Y9.173
G2 X69.007 Y9.461 I0.317 J-0.011
G1 X69.39 Y9.597
X72.215 Y10.599
X72.602 Y10.737
G2 X72.944 Y10.65 I0.106 J-0.299
G1 X73.076 Y10.493
X73.169 Y10.386
X73.215 Y10.336
X73.326 Y10.231
X73.386 Y10.179
X73.493 Y10.074
X73.577 Y9.95
X73.642 Y9.814
X73.688 Y9.672
X73.718 Y9.525
X73.734 Y9.376
X73.736 Y9.226
X73.725 Y9.07
X73.7 Y8.904
X73.657 Y8.722
X73.598 Y8.539
X73.518 Y8.344
X73.413 Y8.139
X73.29 Y7.939
X73.14 Y7.734
X72.961 Y7.527
X72.755 Y7.324
X72.528 Y7.134
X72.277 Y6.956
X72.002 Y6.792
X71.707 Y6.648
X71.402 Y6.527
X71.088 Y6.431
X70.778 Y6.363
X70.472 Y6.322
X70.196 Y6.307
X69.955 Y6.313
X69.721 Y6.338
X69.535 Y6.373
X69.347 Y6.424
X69.285 Y6.446
X69.087 Y6.555
X68.93 Y6.718
X68.83 Y6.92
X68.796 Y7.143
Y8.171
G2 X68.987 Y8.451 I0.317 J-0.011
G1 X69.379 Y8.622
X72.657 Y10.05
X73.057 Y10.224
G2 X73.386 Y10.179 I0.127 J-0.291
G1 X73.743 Y9.864
X73.924 Y9.707
X74.033 Y9.604
X74.127 Y9.487
X74.203 Y9.358
X74.262 Y9.22
X74.306 Y9.077
X74.336 Y8.93
X74.353 Y8.781
X74.359 Y8.614
X74.351 Y8.443
X74.326 Y8.254
X74.283 Y8.051
X74.223 Y7.846
X74.136 Y7.623
X74.025 Y7.392
X73.892 Y7.164
X73.728 Y6.93
X73.531 Y6.691
X73.304 Y6.457
X73.052 Y6.237
X72.773 Y6.029
X72.464 Y5.836
X72.132 Y5.663
X71.783 Y5.516
X71.426 Y5.399
X71.072 Y5.313
X70.724 Y5.258
X70.396 Y5.232
X70.112 Y5.233
X69.853 Y5.255
X69.627 Y5.292
X69.442 Y5.339
X69.245 Y5.405
X69.062 Y5.517
X68.918 Y5.678
X68.827 Y5.873
X68.796 Y6.086
Y7.143
G2 X68.97 Y7.416 I0.317 J-0.011
G1 X69.369 Y7.617
X73.206 Y9.553
X73.582 Y9.743
G2 X73.924 Y9.707 I0.143 J-0.283
G1 X74.268 Y9.41
X74.286 Y9.393
X74.407 Y9.236
X74.426 Y9.211
X74.507 Y9.079
X74.583 Y8.922
X74.656 Y8.765
X74.782 Y8.519
X74.844 Y8.382
X74.887 Y8.238
X74.914 Y8.091
X74.93 Y7.94
X74.933 Y7.774
X74.922 Y7.59
X74.895 Y7.4
X74.847 Y7.185
X74.779 Y6.967
X74.685 Y6.733
X74.56 Y6.482
X74.412 Y6.236
X74.23 Y5.983
X74.01 Y5.723
X73.753 Y5.465
X73.468 Y5.221
X73.152 Y4.992
X72.803 Y4.78
X72.427 Y4.59
X72.032 Y4.43
X71.627 Y4.302
X71.227 Y4.211
X70.84 Y4.154
X70.483 Y4.131
X70.145 Y4.137
X69.887 Y4.161
X69.634 Y4.207
X69.439 Y4.258
X69.246 Y4.326
X69.237 Y4.329
X69.065 Y4.436
X68.928 Y4.585
X68.837 Y4.765
X68.798 Y4.964
X68.796 Y4.995
Y6.086
G2 X68.989 Y6.367 I0.317 J-0.011
G1 X69.381 Y6.533
X74.086 Y8.531
X74.381 Y8.656
G2 X74.782 Y8.519 I0.124 J-0.292
G1 X74.899 Y8.294
X75.249 Y7.775
X75.327 Y7.647
X75.388 Y7.51
X75.432 Y7.366
X75.461 Y7.219
X75.477 Y7.07
X75.482 Y6.9
X75.472 Y6.724
X75.445 Y6.524
X75.4 Y6.313
X75.331 Y6.088
X75.233 Y5.839
X75.113 Y5.593
X74.956 Y5.328
X74.759 Y5.05
X74.534 Y4.782
X74.27 Y4.512
X73.959 Y4.243
X73.608 Y3.985
X73.22 Y3.746
X72.805 Y3.533
X72.371 Y3.354
X71.926 Y3.21
X71.481 Y3.105
X71.057 Y3.04
X70.649 Y3.011
X70.27 Y3.015
X69.969 Y3.042
X69.878 Y3.057
X69.712 Y3.106
X69.562 Y3.192
X69.436 Y3.31
X69.34 Y3.425
X69.242 Y3.559
X69.13 Y3.739
X69.085 Y3.817
X69.049 Y3.896
X68.98 Y4.053
X68.925 Y4.21
X68.876 Y4.367
X68.845 Y4.524
X68.816 Y4.681
X68.805 Y4.838
X68.798 Y4.964
G2 X68.986 Y5.261 I0.317 J0.007
G1 X69.363 Y5.429
X74.54 Y7.733
X74.864 Y7.877
G2 X75.249 Y7.775 I0.129 J-0.29
G1 X75.368 Y7.601
X75.45 Y7.508
X75.626 Y7.315
X75.662 Y7.286
X75.776 Y7.189
X75.869 Y7.071
X75.945 Y6.942
X76.005 Y6.804
X76.05 Y6.661
X76.081 Y6.514
X76.103 Y6.351
X76.111 Y6.18
X76.105 Y5.985
X76.081 Y5.778
X76.037 Y5.552
X75.968 Y5.304
X75.876 Y5.055
X75.75 Y4.782
X75.587 Y4.493
X75.396 Y4.21
X75.156 Y3.91
X74.867 Y3.603
X74.536 Y3.304
X74.173 Y3.025
X73.763 Y2.759
X73.315 Y2.517
X73.229 Y2.48
X73.133 Y2.445
X73.033 Y2.424
X72.931 Y2.417
X71.441 Y2.418
X71.284 Y2.422
X71.127 Y2.432
X70.97 Y2.454
X70.813 Y2.483
X70.656 Y2.522
X70.499 Y2.575
X70.338 Y2.639
X70.184 Y2.716
X70.027 Y2.804
X69.87 Y2.913
X69.713 Y3.031
X69.623 Y3.111
X69.556 Y3.174
X69.472 Y3.268
X69.436 Y3.31
G2 X69.521 Y3.777 I0.25 J0.196
G1 X69.734 Y3.907
X74.958 Y7.084
X75.312 Y7.3
G2 X75.662 Y7.286 I0.165 J-0.271
G1 X75.781 Y7.194
X75.839 Y7.151
X76.225 Y6.916
X76.349 Y6.832
X76.458 Y6.728
X76.551 Y6.61
X76.629 Y6.482
X76.694 Y6.347
X76.746 Y6.207
X76.788 Y6.058
X76.821 Y5.886
X76.842 Y5.701
X76.849 Y5.497
X76.838 Y5.268
X76.807 Y5.034
X76.752 Y4.771
X76.669 Y4.493
X76.558 Y4.208
X76.407 Y3.894
X76.215 Y3.567
X75.991 Y3.247
X75.716 Y2.914
X75.451 Y2.642
X75.296 Y2.52
X75.115 Y2.443
X74.92 Y2.417
X72.931
G2 X72.695 Y2.933 I0.011 J0.317
G1 X72.747 Y2.998
X75.61 Y6.574
X75.822 Y6.838
G2 X76.225 Y6.916 I0.248 J-0.198
G1 X76.31 Y6.864
X76.939 Y6.495
X77.064 Y6.413
X77.176 Y6.313
X77.274 Y6.199
X77.359 Y6.075
X77.431 Y5.944
X77.493 Y5.803
X77.546 Y5.649
X77.593 Y5.469
X77.626 Y5.28
X77.647 Y5.063
X77.65 Y4.831
X77.633 Y4.578
X77.591 Y4.293
X77.524 Y4.006
X77.424 Y3.692
X77.284 Y3.35
X77.112 Y3.009
X76.966 Y2.771
X76.848 Y2.624
X76.697 Y2.512
X76.522 Y2.441
X76.334 Y2.417
X74.92
G2 X74.651 Y2.884 I0.011 J0.317
G1 X74.718 Y3.009
X76.374 Y6.114
X76.508 Y6.365
G2 X76.939 Y6.495 I0.28 J-0.149
G1 X77.354 Y6.252
X77.41 Y6.221
X77.651 Y6.095
X77.78 Y6.019
X77.9 Y5.929
X78.007 Y5.824
X78.102 Y5.708
X78.185 Y5.583
X78.257 Y5.451
X78.325 Y5.296
X78.384 Y5.127
X78.433 Y4.937
X78.471 Y4.721
X78.493 Y4.492
X78.497 Y4.226
X78.479 Y3.951
X78.434 Y3.649
X78.364 Y3.346
X78.278 Y3.075
X78.193 Y2.866
X78.171 Y2.824
X78.055 Y2.657
X77.898 Y2.527
X77.712 Y2.445
X77.51 Y2.417
X76.334
G2 X76.049 Y2.847 I0.011 J0.317
G1 X76.113 Y3.018
X77.124 Y5.679
X77.216 Y5.922
G2 X77.651 Y6.095 I0.297 J-0.113
G1 X77.881 Y5.974
X78.439 Y5.736
X78.574 Y5.67
X78.696 Y5.584
X78.807 Y5.483
X78.907 Y5.371
X78.996 Y5.25
X79.078 Y5.116
X79.155 Y4.964
X79.228 Y4.787
X79.288 Y4.597
X79.34 Y4.375
X79.375 Y4.14
X79.391 Y3.889
X79.388 Y3.631
X79.368 Y3.413
X79.328 Y3.19
X79.282 Y3.01
X79.249 Y2.915
X79.141 Y2.714
X78.978 Y2.554
X78.774 Y2.452
X78.549 Y2.417
X77.51
G2 X77.217 Y2.825 I0.011 J0.317
G1 X77.276 Y3.023
X77.946 Y5.28
X78.02 Y5.53
G2 X78.439 Y5.736 I0.304 J-0.09
G1 X79.295 Y5.37
X79.43 Y5.305
X79.554 Y5.22
X79.667 Y5.122
X79.769 Y5.012
X79.862 Y4.894
X79.951 Y4.756
X80.032 Y4.608
X80.106 Y4.44
X80.172 Y4.252
X80.224 Y4.055
X80.26 Y3.851
X80.278 Y3.663
X80.282 Y3.461
X80.27 Y3.28
X80.247 Y3.124
X80.209 Y2.956
X80.202 Y2.935
X80.098 Y2.726
X79.933 Y2.561
X79.726 Y2.454
X79.495 Y2.417
X78.549
G2 X78.253 Y2.816 I0.011 J0.317
G1 X78.308 Y3.024
X78.809 Y4.912
X78.874 Y5.155
G2 X79.295 Y5.37 I0.307 J-0.081
G1 X79.452 Y5.304
X79.923 Y5.118
X80.167 Y5.024
X80.304 Y4.963
X80.429 Y4.881
X80.544 Y4.784
X80.648 Y4.676
X80.742 Y4.559
X80.825 Y4.434
X80.902 Y4.294
X80.972 Y4.141
X81.031 Y3.977
X81.076 Y3.812
X81.104 Y3.661
X81.122 Y3.49
X81.126 Y3.33
X81.118 Y3.18
X81.097 Y3.032
X81.088 Y2.994
X81.019 Y2.808
X80.902 Y2.647
X80.746 Y2.522
X80.563 Y2.444
X80.366 Y2.417
X79.495
G2 X79.201 Y2.82 I0.011 J0.317
G1 X79.258 Y3.023
X79.685 Y4.552
X79.757 Y4.809
G2 X80.167 Y5.024 I0.306 J-0.086
G1 X80.394 Y4.936
X80.552 Y4.891
X80.866 Y4.817
X81.01 Y4.775
X81.146 Y4.713
X81.273 Y4.632
X81.389 Y4.537
X81.493 Y4.429
X81.587 Y4.312
X81.67 Y4.187
X81.741 Y4.055
X81.802 Y3.918
X81.851 Y3.776
X81.889 Y3.627
X81.914 Y3.479
X81.926 Y3.329
X81.925 Y3.179
X81.911 Y3.03
X81.909 Y3.022
X81.844 Y2.828
X81.728 Y2.659
X81.571 Y2.528
X81.384 Y2.446
X81.181 Y2.417
X80.366
G2 X80.068 Y2.809 I0.011 J0.317
G1 X80.12 Y3.025
X80.425 Y4.289
X80.495 Y4.58
G2 X80.866 Y4.817 I0.309 J-0.074
G1 X80.905 Y4.807
X80.925 Y4.805
X81.337 Y4.806
X81.384 Y4.808
X81.534
X81.682 Y4.781
X81.823 Y4.731
X81.957 Y4.662
X82.08 Y4.577
X82.194 Y4.48
X82.298 Y4.371
X82.391 Y4.254
X82.474 Y4.128
X82.545 Y3.996
X82.606 Y3.859
X82.654 Y3.717
X82.69 Y3.572
X82.713 Y3.423
X82.723 Y3.274
X82.719 Y3.124
X82.713 Y3.074
X82.658 Y2.866
X82.545 Y2.683
X82.385 Y2.539
X82.19 Y2.448
X81.977 Y2.417
X81.181
G2 X80.877 Y2.774 I0.011 J0.317
G1 X80.909 Y3.03
X81.052 Y4.182
X81.095 Y4.531
G2 X81.384 Y4.808 I0.315 J-0.039
G1 X81.494 Y4.813
X81.846 Y4.838
X81.965 Y4.855
X82.013 Y4.864
X82.162 Y4.883
X82.311 Y4.873
X82.457 Y4.839
X82.597 Y4.786
X82.73 Y4.715
X82.854 Y4.631
X82.969 Y4.534
X83.074 Y4.427
X83.169 Y4.311
X83.253 Y4.187
X83.328 Y4.057
X83.391 Y3.921
X83.444 Y3.776
X83.484 Y3.631
X83.511 Y3.484
X83.525 Y3.335
X83.526 Y3.185
X83.513 Y3.035
X83.511 Y3.025
X83.447 Y2.83
X83.331 Y2.66
X83.174 Y2.529
X82.986 Y2.446
X82.783 Y2.417
X81.977
G2 X81.671 Y2.75 I0.011 J0.317
G1 X81.685 Y3.032
X81.744 Y4.2
X81.762 Y4.569
G2 X82.013 Y4.864 I0.317 J-0.016
G1 X82.279 Y4.911
X82.436 Y4.941
X82.594 Y4.975
X82.686 Y4.995
X82.833 Y5.023
X82.983 Y5.021
X83.131 Y4.996
X83.274 Y4.951
X83.411 Y4.89
X83.541 Y4.814
X83.662 Y4.726
X83.775 Y4.627
X83.879 Y4.519
X83.973 Y4.402
X84.063 Y4.271
X84.143 Y4.13
X84.21 Y3.988
X84.262 Y3.847
X84.305 Y3.694
X84.334 Y3.547
X84.351 Y3.398
X84.354 Y3.248
X84.345 Y3.098
X84.337 Y3.048
X84.277 Y2.847
X84.163 Y2.671
X84.004 Y2.534
X83.813 Y2.447
X83.605 Y2.417
X82.783
G2 X82.476 Y2.731 I0.011 J0.317
G1 X82.472 Y3.032
X82.456 Y4.318
X82.452 Y4.685
G2 X82.686 Y4.995 I0.317 J0.004
G1 X82.908 Y5.048
X83.065 Y5.062
X83.222 Y5.073
X83.379 Y5.059
X83.536 Y5.036
X83.707 Y4.995
X83.85 Y4.961
X83.937 Y4.943
X84.082 Y4.904
X84.222 Y4.852
X84.355 Y4.782
X84.479 Y4.698
X84.594 Y4.601
X84.699 Y4.495
X84.795 Y4.379
X84.88 Y4.256
X84.959 Y4.12
X85.023 Y3.984
X85.076 Y3.844
X85.12 Y3.692
X85.15 Y3.545
X85.167 Y3.396
X85.17 Y3.246
X85.162 Y3.096
X85.155 Y3.049
X85.095 Y2.848
X84.98 Y2.671
X84.821 Y2.534
X84.63 Y2.447
X84.422 Y2.417
X83.605
G2 X83.301 Y2.779 I0.011 J0.317
G1 X83.337 Y3.03
X83.529 Y4.401
X83.568 Y4.674
G2 X83.937 Y4.943 I0.314 J-0.044
G1 X84.007 Y4.928
X84.164 Y4.9
X84.562 Y4.838
X84.636 Y4.832
X84.722 Y4.826
X84.871 Y4.809
X85.015 Y4.767
X85.151 Y4.704
X85.279 Y4.625
X85.396 Y4.532
X85.504 Y4.427
X85.601 Y4.313
X85.688 Y4.191
X85.763 Y4.061
X85.828 Y3.926
X85.881 Y3.785
X85.922 Y3.641
X85.951 Y3.494
X85.966 Y3.345
X85.968 Y3.195
X85.957 Y3.045
X85.954 Y3.032
X85.891 Y2.835
X85.776 Y2.664
X85.618 Y2.53
X85.429 Y2.446
X85.224 Y2.417
X84.422
G2 X84.12 Y2.784 I0.011 J0.317
G1 X84.158 Y3.029
X84.348 Y4.236
X84.398 Y4.558
G2 X84.722 Y4.826 I0.314 J-0.049
G1 X84.95 Y4.811
X85.107 Y4.804
X85.421 Y4.812
X85.571 Y4.808
X85.718 Y4.779
X85.859 Y4.728
X85.992 Y4.659
X86.116 Y4.574
X86.23 Y4.477
X86.334 Y4.369
X86.428 Y4.252
X86.511 Y4.127
X86.583 Y3.996
X86.645 Y3.859
X86.693 Y3.717
X86.73 Y3.571
X86.754 Y3.423
X86.763 Y3.273
X86.76 Y3.124
X86.754 Y3.074
X86.699 Y2.866
X86.587 Y2.683
X86.426 Y2.54
X86.231 Y2.449
X86.018 Y2.417
X85.224
G2 X84.92 Y2.771 I0.011 J0.317
G1 X84.95 Y3.031
X85.085 Y4.191
X85.125 Y4.532
G2 X85.421 Y4.812 I0.315 J-0.037
G1 X85.539 Y4.815
X85.558 Y4.819
X85.892 Y4.911
X85.94 Y4.925
X86.085 Y4.961
X86.235 Y4.972
X86.384 Y4.957
X86.53 Y4.922
X86.67 Y4.869
X86.804 Y4.8
X86.929 Y4.717
X87.046 Y4.624
X87.154 Y4.52
X87.253 Y4.406
X87.342 Y4.286
X87.421 Y4.158
X87.49 Y4.025
X87.548 Y3.887
X87.595 Y3.744
X87.63 Y3.599
X87.654 Y3.45
X87.664 Y3.301
X87.663 Y3.151
X87.656 Y3.087
X87.604 Y2.875
X87.492 Y2.689
X87.331 Y2.542
X87.134 Y2.449
X86.919 Y2.417
X86.018
G2 X85.712 Y2.737 I0.011 J0.317
G1 X85.714 Y3.032
X85.721 Y4.234
X85.724 Y4.626
G2 X85.94 Y4.925 I0.317 J-0.002
G1 X86.049 Y4.958
X86.678 Y5.198
X87.463 Y5.5
X87.62 Y5.565
X87.934 Y5.707
X88.091 Y5.781
X89.191 Y6.373
X89.545 Y6.566
X89.662 Y6.631
X89.997 Y6.825
G2 X90.42 Y6.705 I0.149 J-0.28
G1 X90.572 Y6.446
X92.6 Y3.007
X92.665 Y2.896
G2 X92.403 Y2.417 I-0.274 J-0.161
G1 X91.076
X90.926 Y2.425
X90.778 Y2.449
X90.611 Y2.493
X90.265 Y2.502
X89.998 Y2.438
X89.94 Y2.426
X89.882 Y2.42
X89.824 Y2.417
G2 X89.846 Y3.052 I0.011 J0.317
X91.119 Y2.536 I-0.07 J-1.999
G1 X91.137 Y2.509
X91.141 Y2.478
X91.13 Y2.448
X91.107 Y2.426
X91.076 Y2.417
X86.919
G2 X86.613 Y2.715 I0.011 J0.317
G1 Y2.735 Z-0.997
X86.626 Y2.788 Z-0.989
X86.639 Y2.839 Z-0.971
X86.651 Y2.886 Z-0.944
X86.682 Y2.922 Z-0.904
X86.708 Y2.951 Z-0.856
X86.727 Y2.973 Z-0.801
X86.738 Y2.986 Z-0.742
X86.742 Y2.991 Z-0.681
G0 Z5.
X81.83 Y15.743
Z2.5
G2 X84.551 Y17.045 Z2.335 I1.36 J0.651 F220.
X81.83 Y15.743 Z2.169 I-1.36 J-0.651
X84.551 Y17.045 Z2.004 I1.36 J0.651
X81.83 Y15.743 Z1.838 I-1.36 J-0.651
X84.551 Y17.045 Z1.673 I1.36 J0.651
X81.83 Y15.743 Z1.507 I-1.36 J-0.651
X84.551 Y17.045 Z1.342 I1.36 J0.651
X81.83 Y15.743 Z1.176 I-1.36 J-0.651
X84.551 Y17.045 Z1.011 I1.36 J0.651
X81.83 Y15.743 Z0.845 I-1.36 J-0.651
X84.551 Y17.045 Z0.68 I1.36 J0.651
X81.83 Y15.743 Z0.515 I-1.36 J-0.651
X84.551 Y17.045 Z0.349 I1.36 J0.651
X81.83 Y15.743 Z0.184 I-1.36 J-0.651
X84.551 Y17.045 Z0.018 I1.36 J0.651
X81.83 Y15.743 Z-0.147 I-1.36 J-0.651
X84.551 Y17.045 Z-0.313 I1.36 J0.651
X81.83 Y15.743 Z-0.478 I-1.36 J-0.651
X84.551 Y17.045 Z-0.644 I1.36 J0.651
X81.83 Y15.743 Z-0.809 I-1.36 J-0.651
X84.551 Y17.045 Z-0.974 I1.36 J0.651
X84.699 Y16.394 Z-0.998 I-1.36 J-0.651
X81.682 I-1.508 J0.
X84.699 I1.508 J0.
G1 X84.717 Y15.702 F330.
X84.742 Y15.62
X84.767 Y15.472
X84.762 Y15.322
X84.733 Y15.175
X84.684 Y15.033
X84.618 Y14.898
X84.537 Y14.772
X84.443 Y14.655
X84.338 Y14.548
X84.223 Y14.451
X84.1 Y14.365
X83.971 Y14.29
X83.835 Y14.226
X83.691 Y14.171
X83.539 Y14.127
X83.38 Y14.095
X83.217 Y14.075
X83.049 Y14.068
X82.878 Y14.075
X82.706 Y14.096
X82.534 Y14.13
X82.363 Y14.18
X82.195 Y14.243
X82.031 Y14.32
X81.873 Y14.412
X81.721 Y14.516
X81.578 Y14.633
X81.443 Y14.761
X81.318 Y14.901
X81.205 Y15.051
X81.103 Y15.21
X81.015 Y15.378
X80.94 Y15.552
X80.879 Y15.733
X80.832 Y15.918
X80.801 Y16.107
X80.784 Y16.298
Y16.489
X80.798 Y16.681
X80.828 Y16.871
X80.873 Y17.059
X80.933 Y17.242
X81.008 Y17.42
X81.096 Y17.591
X81.199 Y17.755
X81.314 Y17.91
X81.441 Y18.056
X81.58 Y18.191
X81.729 Y18.314
X81.887 Y18.425
X82.054 Y18.524
X82.228 Y18.608
X82.409 Y18.678
X82.595 Y18.733
X82.784 Y18.774
X82.976 Y18.799
X83.17 Y18.808
X83.364 Y18.802
X83.556 Y18.781
X83.747 Y18.744
X83.933 Y18.691
X84.115 Y18.624
X84.291 Y18.543
X84.46 Y18.448
X84.621 Y18.339
X84.772 Y18.218
X84.914 Y18.086
X85.044 Y17.942
X85.162 Y17.788
X85.268 Y17.625
X85.376 Y17.424
X85.524 Y17.09
X85.651 Y16.722
X85.726 Y16.433
X85.772 Y16.173
X85.794 Y15.933
X85.797 Y15.707
X85.783 Y15.492
X85.752 Y15.284
X85.704 Y15.08
X85.641 Y14.881
X85.562 Y14.688
X85.468 Y14.502
X85.359 Y14.324
X85.235 Y14.154
X85.096 Y13.992
X84.943 Y13.841
X84.776 Y13.701
X84.597 Y13.572
X84.404 Y13.457
X84.2 Y13.356
X83.986 Y13.271
X83.762 Y13.202
X83.53 Y13.151
X83.292 Y13.118
X83.049 Y13.104
X82.803 Y13.11
X82.555 Y13.135
X82.308 Y13.181
X82.064 Y13.247
X81.824 Y13.333
X81.59 Y13.439
X81.363 Y13.564
X81.146 Y13.708
X80.94 Y13.87
X80.747 Y14.049
X80.568 Y14.243
X80.404 Y14.453
X80.257 Y14.675
X80.128 Y14.91
X80.018 Y15.155
X79.927 Y15.408
X79.857 Y15.669
X79.808 Y15.936
X79.781 Y16.205
X79.775 Y16.477
X79.791 Y16.749
X79.829 Y17.019
X79.889 Y17.285
X79.969 Y17.546
X80.071 Y17.8
X80.193 Y18.045
X80.334 Y18.28
X80.493 Y18.503
X80.67 Y18.712
X80.864 Y18.907
X81.072 Y19.085
X81.294 Y19.246
X81.529 Y19.389
X81.774 Y19.513
X82.029 Y19.617
X82.291 Y19.7
X82.559 Y19.761
X82.831 Y19.801
X83.105 Y19.819
X83.38 Y19.815
X83.654 Y19.789
X83.925 Y19.741
X84.191 Y19.671
X84.451 Y19.581
X84.703 Y19.469
X84.944 Y19.338
X85.175 Y19.188
X85.393 Y19.02
X85.602 Y18.83
X85.817 Y18.6
X86.027 Y18.336
X86.221 Y18.047
X86.396 Y17.736
X86.544 Y17.414
X86.663 Y17.088
X86.753 Y16.765
X86.814 Y16.445
X86.849 Y16.128
X86.858 Y15.815
X86.843 Y15.506
X86.803 Y15.203
X86.739 Y14.906
X86.652 Y14.617
X86.543 Y14.338
X86.412 Y14.068
X86.259 Y13.81
X86.086 Y13.564
X85.893 Y13.331
X85.681 Y13.114
X85.45 Y12.913
X85.202 Y12.73
X84.938 Y12.566
X84.659 Y12.422
X84.367 Y12.301
X84.064 Y12.202
X83.751 Y12.127
X83.43 Y12.077
X83.104 Y12.053
X82.775 Y12.056
X82.445 Y12.084
X82.115 Y12.14
X81.789 Y12.222
X81.469 Y12.331
X81.157 Y12.467
X80.855 Y12.627
X80.565 Y12.813
X80.289 Y13.022
X80.031 Y13.253
X79.79 Y13.506
X79.57 Y13.778
X79.371 Y14.068
X79.196 Y14.374
X79.046 Y14.694
X78.921 Y15.026
X78.823 Y15.368
X78.753 Y15.717
X78.711 Y16.072
X78.698 Y16.429
X78.713 Y16.787
X78.757 Y17.142
X78.83 Y17.494
X78.93 Y17.839
X79.058 Y18.175
X79.213 Y18.5
X79.393 Y18.812
X79.598 Y19.108
X79.827 Y19.387
X80.077 Y19.647
X80.347 Y19.887
X80.636 Y20.104
X80.941 Y20.297
X81.261 Y20.465
X81.593 Y20.607
X81.936 Y20.721
X82.287 Y20.808
X82.644 Y20.867
X83.004 Y20.896
X83.366 Y20.897
X83.727 Y20.868
X84.084 Y20.811
X84.435 Y20.725
X84.779 Y20.611
X85.112 Y20.47
X85.434 Y20.302
X85.75 Y20.104
X86.059 Y19.874
X86.357 Y19.611
X86.642 Y19.317
X86.907 Y18.995
X87.148 Y18.649
X87.361 Y18.284
X87.543 Y17.904
X87.693 Y17.514
X87.81 Y17.117
X87.894 Y16.716
X87.946 Y16.313
X87.964 Y15.91
X87.95 Y15.51
X87.905 Y15.116
X87.828 Y14.729
X87.721 Y14.35
X87.585 Y13.982
X87.419 Y13.627
X87.226 Y13.287
X87.005 Y12.962
X86.759 Y12.656
X86.487 Y12.369
X86.193 Y12.104
X85.876 Y11.862
X85.54 Y11.645
X85.185 Y11.455
X84.813 Y11.293
X84.428 Y11.16
X84.03 Y11.058
X83.624 Y10.988
X83.21 Y10.951
X82.793 Y10.947
X82.374 Y10.976
X81.956 Y11.04
X81.543 Y11.137
X81.137 Y11.268
X80.74 Y11.432
X80.357 Y11.628
X79.988 Y11.855
X79.638 Y12.112
X79.308 Y12.397
X79.002 Y12.709
X78.72 Y13.046
X78.465 Y13.405
X78.24 Y13.785
X78.045 Y14.182
X77.882 Y14.595
X77.753 Y15.021
X77.658 Y15.456
X77.598 Y15.899
X77.574 Y16.345
X77.585 Y16.793
X77.633 Y17.238
X77.716 Y17.679
X77.835 Y18.113
X77.988 Y18.535
X78.175 Y18.945
X78.394 Y19.338
X78.644 Y19.713
X78.924 Y20.067
X79.231 Y20.397
X79.564 Y20.702
X79.921 Y20.979
X80.298 Y21.226
X80.695 Y21.443
X81.107 Y21.627
X81.533 Y21.777
X81.97 Y21.893
X82.415 Y21.974
X82.865 Y22.018
X83.317 Y22.026
X83.769 Y21.998
X84.216 Y21.934
X84.658 Y21.834
X85.091 Y21.698
X85.516 Y21.526
X85.931 Y21.319
X86.333 Y21.075
X86.721 Y20.796
X87.093 Y20.479
X87.444 Y20.128
X87.769 Y19.746
X88.065 Y19.336
X88.327 Y18.903
X88.554 Y18.45
X88.743 Y17.982
X88.893 Y17.502
X89.004 Y17.014
X89.043 Y16.738
X89.047 Y16.698
X89.051 Y16.618
X89.056 Y16.461
X89.049 Y16.147
X89.042 Y15.99
X89.034 Y15.896
X88.986 Y15.519
X88.963 Y15.362
X88.858 Y14.891
X88.811 Y14.733
X88.708 Y14.419
X88.653 Y14.262
X88.519 Y13.948
X88.446 Y13.791
X88.405 Y13.712
X88.179 Y13.32
X88.091 Y13.171
X87.979 Y13.006
X87.934 Y12.942
X87.741 Y12.692
X87.62 Y12.551
X87.461 Y12.377
X87.306 Y12.217
X87.149 Y12.063
X86.835 Y11.794
X86.521 Y11.568
X86.329 Y11.435
X86.206 Y11.362
X85.735 Y11.105
X85.421 Y10.97
X85.264 Y10.907
X85.107 Y10.85
X84.636 Y10.706
X84.479 Y10.672
X84.164 Y10.609
X84.007 Y10.583
X83.536 Y10.535
X83.379 Y10.532
X83.065 Y10.53
X82.908 Y10.535
X82.436 Y10.577
X82.279 Y10.603
X81.965 Y10.661
X81.808 Y10.695
X81.337 Y10.831
X81.18 Y10.887
X80.977 Y10.964
X80.866 Y11.011
X80.709 Y11.081
X80.237 Y11.328
X80.062 Y11.435
X79.923 Y11.524
X79.766 Y11.633
X79.606 Y11.749
X79.233 Y12.063
X79.138 Y12.152
X79.068 Y12.22
X78.777 Y12.535
X78.667 Y12.659
X78.52 Y12.849
X78.297 Y13.163
X78.195 Y13.331
X78.019 Y13.634
X77.938 Y13.791
X77.724 Y14.272
X77.674 Y14.419
X77.567 Y14.744
X77.523 Y14.891
X77.447 Y15.205
X77.416 Y15.362
X77.41 Y15.403
X77.356 Y15.833
X77.34 Y15.99
X77.326 Y16.461
X77.332 Y16.618
X77.352 Y16.932
X77.365 Y17.089
X77.413 Y17.404
X77.439 Y17.561
X77.476 Y17.718
X77.567 Y18.067
X77.602 Y18.189
X77.777 Y18.66
X77.847 Y18.817
X78.002 Y19.131
X78.038 Y19.202
X78.084 Y19.288
X78.388 Y19.76
X78.51 Y19.927
X78.667 Y20.117
X78.824 Y20.304
X78.896 Y20.388
X79.045 Y20.545
X79.138 Y20.634
X79.452 Y20.913
X79.609 Y21.043
X79.766 Y21.153
X80.08 Y21.363
X80.237 Y21.462
X80.283 Y21.487
X80.709 Y21.708
X80.866 Y21.775
X81.18 Y21.9
X81.337 Y21.959
X81.494 Y22.008
X81.651 Y22.054
X81.808 Y22.095
X81.901 Y22.116
X82.279 Y22.186
X82.436 Y22.212
X82.908 Y22.254
X83.065 Y22.258
X83.379 Y22.257
X83.536 Y22.254
X84.007 Y22.206
X84.164 Y22.18
X84.483 Y22.116
X84.636 Y22.083
X84.793 Y22.038
X85.107 Y21.94
X85.264 Y21.881
X85.578 Y21.75
X85.735 Y21.683
X86.099 Y21.487
X86.206 Y21.428
X86.363 Y21.328
X86.835 Y20.995
X86.992 Y20.856
X87.33 Y20.545
X87.463 Y20.412
X87.486 Y20.388
X87.62 Y20.228
X87.934 Y19.847
X87.994 Y19.76
X88.297 Y19.288
X88.378 Y19.131
X88.563 Y18.76
X88.605 Y18.66
X88.78 Y18.189
X88.824 Y18.032
X88.906 Y17.718
X88.942 Y17.561
X89.017 Y17.089
X89.031 Y16.932
X89.047 Y16.698
G2 X88.768 Y16.375 I-0.317 J-0.008
G1 X88.729 Y16.372 Z-0.996
X88.675 Y16.386 Z-0.983
X88.624 Y16.399 Z-0.961
X88.577 Y16.411 Z-0.929
X88.539 Y16.443 Z-0.879
X88.509 Y16.467 Z-0.819
X88.491 Y16.481 Z-0.752
X88.485 Y16.487 Z-0.681
G0 Z5.
X86.042 Y13.906
Z-0.165
G1 Z-0.482 F330.
X86.05 Y13.903 Z-0.553
X86.072 Y13.894 Z-0.62
X86.107 Y13.88 Z-0.68
X86.153 Y13.862 Z-0.731
X86.209 Y13.839 Z-0.769
X86.272 Y13.814 Z-0.792
X86.337 Y13.788 Z-0.8
G2 X87.88 Y12.97 I-3.006 J-7.528
G1 X88.001 Y12.881
X88.053 Y12.741
X88.072 Y12.592
X88.07 Y12.442
X88.051 Y12.293
X88.016 Y12.147
X87.969 Y11.998
X87.9 Y11.831
X87.802 Y11.639
X87.68 Y11.44
X87.533 Y11.239
X87.33 Y11.004
X87.273 Y10.949
X87.244 Y10.925
X87.215 Y10.902
X86.835 Y10.626
X86.678 Y10.537
X86.304 Y10.336
X86.206 Y10.286
X85.735 Y10.064
X85.617 Y10.022
X85.264 Y9.907
X85.13 Y9.864
X84.636 Y9.721
X84.562 Y9.707
X83.536 Y9.568
X83.379 Y9.57
X82.751 Y9.597
X82.436 Y9.611
X82.279 Y9.636
X81.887 Y9.707
X81.808 Y9.724
X81.337 Y9.832
X81.023 Y9.916
X80.772 Y10.022
X80.237 Y10.25
X80.066 Y10.336
X79.923 Y10.408
X79.766 Y10.494
X79.055 Y10.964
X78.981 Y11.014
X78.824 Y11.157
X78.667 Y11.301
X78.51 Y11.448
X78.352 Y11.599
X78.038 Y11.906
X77.919 Y12.063
X77.567 Y12.548
X77.465 Y12.692
X77.192 Y13.163
X77.112 Y13.32
X76.939 Y13.68
X76.889 Y13.791
X76.718 Y14.262
X76.671 Y14.419
X76.584 Y14.733
X76.544 Y14.891
X76.45 Y15.362
X76.432 Y15.519
X76.376 Y16.147
X76.364 Y16.461
X76.373 Y16.618
X76.458 Y17.561
X76.468 Y17.624
X76.625 Y18.202
X76.751 Y18.66
X76.782 Y18.745
X76.88 Y18.974
X76.939 Y19.109
X77.253 Y19.761
X77.348 Y19.917
X77.449 Y20.074
X77.567 Y20.241
X78.016 Y20.859
X78.038 Y20.888
X78.195 Y21.041
X78.51 Y21.341
X78.668 Y21.487
X79.041 Y21.801
X79.138 Y21.88
X79.609 Y22.191
X79.746 Y22.273
X80.08 Y22.455
X80.237 Y22.539
X80.717 Y22.744
X80.866 Y22.799
X81.18 Y22.906
X81.337 Y22.957
X81.808 Y23.065
X81.965 Y23.098
X82.279 Y23.153
X82.436 Y23.178
X83.065 Y23.206
X83.379 Y23.218
X83.536 Y23.22
X84.479 Y23.093
X84.636 Y23.068
X85.107 Y22.931
X85.206 Y22.901
X85.689 Y22.744
X85.735 Y22.725
X86.049 Y22.582
X86.206 Y22.506
X86.678 Y22.252
X86.835 Y22.163
X86.992 Y22.06
X87.137 Y21.958
X87.777 Y21.448
X87.919 Y21.33
X88.334 Y20.859
X88.47 Y20.702
X88.729 Y20.388
X88.832 Y20.231
X89.034 Y19.894
X89.112 Y19.76
X89.372 Y19.288
X89.438 Y19.131
X89.556 Y18.817
X89.614 Y18.66
X89.78 Y18.189
X89.816 Y18.032
X89.987 Y17.089
X89.995 Y16.932
X90.001 Y16.461
Y15.99
X89.986 Y15.833
X89.947 Y15.519
X89.925 Y15.362
X89.84 Y14.891
X89.819 Y14.804
X89.713 Y14.419
X89.665 Y14.262
X89.488 Y13.791
X89.418 Y13.634
X89.273 Y13.32
X89.191 Y13.158
X88.912 Y12.692
X88.877 Y12.637
X88.563 Y12.207
X88.451 Y12.063
X88.039 Y11.592
X87.934 Y11.476
X87.895 Y11.435
X87.463 Y11.09
X87.3 Y10.964
X87.215 Y10.902
G2 X86.792 Y10.963 I-0.177 J0.263
G1 X86.769 Y11.013 Z-0.795
X86.747 Y11.06 Z-0.781
X86.726 Y11.105 Z-0.758
X86.723 Y11.137 Z-0.737
X86.72 Y11.166 Z-0.712
X86.726 Y11.207 Z-0.664
X86.731 Y11.237 Z-0.608
X86.734 Y11.256 Z-0.546
X86.735 Y11.262 Z-0.483
G0 Z5.
X93.069 Y6.826
Z-0.165
G1 Z-0.482 F330.
X93.062 Y6.83 Z-0.553
X93.042 Y6.841 Z-0.62
X93.009 Y6.86 Z-0.68
X92.965 Y6.884 Z-0.731
X92.912 Y6.914 Z-0.769
X92.854 Y6.946 Z-0.792
X92.792 Y6.981 Z-0.8
G2 X91.367 Y7.99 I3.945 J7.081
G1 X91.258 Y8.093
X91.183 Y8.223
X91.167 Y8.268
X91.125 Y8.487
X91.15 Y8.709
X91.24 Y8.913
X91.446 Y9.236
X91.547 Y9.403
X91.588 Y9.477
X91.61 Y9.514
X91.64 Y9.55
X91.947 Y9.864
X92.018 Y9.94
X92.175 Y10.114
X92.389 Y10.336
X92.489 Y10.445
X92.647 Y10.655
X92.804 Y10.882
X93.163 Y11.413
X93.174 Y11.435
X93.38 Y11.906
X93.746 Y12.88
X93.792 Y13.006
X93.904 Y13.32
X93.954 Y13.477
X94.045 Y13.948
X94.217 Y14.895
X94.243 Y15.048
X94.304 Y15.46
X94.305 Y15.48
X94.287 Y15.99
X94.238 Y16.932
X94.217 Y17.265
X94.208 Y17.404
X94.192 Y17.561
X94.153 Y17.718
X94.105 Y17.875
X94.055 Y18.032
X93.895 Y18.503
X93.789 Y18.974
X93.759 Y19.131
X93.684 Y19.602
X93.667 Y19.76
X93.648 Y19.917
X93.614 Y20.074
X93.52 Y20.388
X93.432 Y20.674
X93.325 Y21.016
X93.275 Y21.146
X93.186 Y21.33
X93.118 Y21.454
X92.441 Y22.587
X92.332 Y22.754
X92.175 Y22.994
X92.131 Y23.058
X91.171 Y24.157
X91.076 Y24.258
X90.762 Y24.56
X90.69 Y24.629
X89.505 Y25.476
X89.348 Y25.588
X89.191 Y25.691
X89.128 Y25.728
X89.034 Y25.768
X88.72 Y25.892
X88.563 Y25.952
X88.091 Y26.113
X88.013 Y26.137
X87.973 Y26.152
X87.934 Y26.174
X87.62 Y26.373
X87.463 Y26.47
X87.12 Y26.67
X86.992 Y26.745
X86.521 Y26.955
X86.049 Y27.142
X85.892 Y27.198
X85.578 Y27.283
X85.51 Y27.299
X84.007 Y27.502
X83.85 Y27.514
X83.536 Y27.534
X83.379 Y27.531
X81.965 Y27.468
X81.808 Y27.447
X81.494 Y27.405
X81.337 Y27.365
X79.995 Y26.985
X79.923 Y26.963
X79.452 Y26.787
X79.413 Y26.765
X78.455 Y26.199
X78.404 Y26.17
X78.352 Y26.15
X78.195 Y26.093
X77.881 Y25.974
X77.41 Y25.794
X77.272 Y25.728
X77.096 Y25.632
X76.719 Y25.414
X76.45 Y25.257
X76.31 Y25.171
X76.225 Y25.1
X75.881 Y24.786
X75.388 Y24.314
X75.061 Y24.
X74.897 Y23.842
X74.754 Y23.686
X74.74 Y23.669
X74.633 Y23.529
X73.834 Y22.43
X73.797 Y22.377
X73.604 Y22.096
X73.4 Y21.644
X73.326 Y21.471
X72.938 Y20.545
X72.809 Y20.231
X72.784 Y20.152
X72.762 Y20.074
X72.691 Y19.602
X72.636 Y19.131
X72.605 Y18.974
X72.474 Y18.503
X72.331 Y18.032
X72.28 Y17.875
X72.202 Y17.561
X72.171 Y17.404
X72.123 Y17.089
X72.1 Y16.932
X72.042 Y16.5
X72.04 Y16.481
X72.065 Y15.99
X72.165 Y14.891
X72.195 Y14.576
X72.216 Y14.419
X72.29 Y14.105
X72.594 Y13.006
X72.639 Y12.849
X72.734 Y12.535
X72.787 Y12.377
X72.871 Y12.22
X73.04 Y11.906
X73.559 Y10.964
X73.65 Y10.807
X73.797 Y10.563
X73.848 Y10.493
X73.954 Y10.371
X74.286 Y10.022
X74.426 Y9.877
X74.815 Y9.393
X74.897 Y9.278
X75.211 Y8.815
X75.368 Y8.591
X75.525 Y8.416
X75.682 Y8.244
X75.996 Y7.905
X76.075 Y7.823
X76.31 Y7.625
X76.473 Y7.508
X77.425 Y6.88
X77.567 Y6.787
X77.881 Y6.586
X77.921 Y6.566
X78.352 Y6.373
X78.824 Y6.171
X79.452 Y5.903
X79.609 Y5.837
X79.773 Y5.781
X79.923 Y5.739
X80.574 Y5.624
X81.337 Y5.491
X81.494 Y5.466
X81.926 Y5.409
X81.946
X82.436 Y5.448
X82.908 Y5.5
X83.065 Y5.501
X83.536 Y5.476
X84.007 Y5.445
X84.479 Y5.421
X84.636 Y5.425
X85.107 Y5.459
X85.539 Y5.496
X86.016 Y5.624
X86.992 Y5.94
X87.306 Y6.046
X87.463 Y6.099
X87.62 Y6.162
X87.934 Y6.323
X89.034 Y6.914
X89.191 Y7.013
X89.505 Y7.227
X89.663 Y7.351
X90.762 Y8.325
X90.881 Y8.451
X91.076 Y8.667
X91.145 Y8.765
X91.24 Y8.913
G2 X91.656 Y9.011 I0.262 J-0.18
G1 X91.695 Y8.974 Z-0.795
X91.734 Y8.938 Z-0.781
X91.77 Y8.904 Z-0.758
X91.785 Y8.858 Z-0.722
X91.798 Y8.818 Z-0.678
X91.808 Y8.787 Z-0.627
X91.815 Y8.766 Z-0.571
X91.819 Y8.756 Z-0.511
Y8.754 Z-0.483
G0 Z5.
X83.636 Y3.43
Z0.035
G1 Z-0.282 F330.
X83.634 Y3.437 Z-0.353
X83.628 Y3.46 Z-0.42
X83.618 Y3.497 Z-0.48
X83.606 Y3.545 Z-0.531
X83.591 Y3.604 Z-0.569
X83.574 Y3.669 Z-0.592
X83.557 Y3.737 Z-0.6
G2 X83.308 Y5.466 I7.852 J2.011
G1 Y5.616
X83.392 Y5.74
X83.496 Y5.848
X83.611 Y5.944
X83.733 Y6.032
X83.86 Y6.111
X83.991 Y6.184
X84.125 Y6.252
X84.26 Y6.317
X84.396 Y6.38
X84.533 Y6.441
X84.671 Y6.5
X84.809 Y6.559
X84.948 Y6.616
X85.099 Y6.677
X85.291 Y6.753
X85.935 Y7.003
X86.575 Y7.267
X87.202 Y7.559
X87.815 Y7.878
X88.395 Y8.255
X88.95 Y8.669
X89.46 Y9.136
X89.785 Y9.512
X89.932 Y9.679
X90.262 Y10.05
X90.725 Y10.563
X91.168 Y11.095
X91.566 Y11.661
X91.899 Y12.266
X92.192 Y12.893
X92.422 Y13.546
X92.605 Y14.212
X92.737 Y14.891
X92.797 Y15.58
X92.815 Y16.272
X92.744 Y16.96
X92.625 Y17.641
X92.566 Y17.972
X92.449 Y18.653
X92.309 Y19.331
X92.114 Y19.994
X91.847 Y20.632
X91.538 Y21.251
X91.171 Y21.837
X90.764 Y22.397
X90.316 Y22.923
X89.815 Y23.4
X89.285 Y23.845
X88.702 Y24.216
X88.524 Y24.308
X88.391 Y24.378
X88.251 Y24.454
X88.007 Y24.587
X87.403 Y24.923
X86.793 Y25.249
X86.164 Y25.537
X85.505 Y25.746
X84.832 Y25.906
X84.148 Y26.007
X83.457 Y26.052
X82.766 Y26.055
X82.078 Y25.98
X81.398 Y25.855
X80.732 Y25.667
X80.092 Y25.406
X79.864 Y25.308
X79.557 Y25.178
X78.918 Y24.914
X78.289 Y24.626
X77.687 Y24.285
X77.124 Y23.883
X76.588 Y23.446
X76.1 Y22.956
X75.646 Y22.435
X75.234 Y21.879
X74.882 Y21.283
X74.566 Y20.668
X74.336 Y20.016
X74.149 Y19.35
X73.96 Y18.685
X73.774 Y18.019
X73.626 Y17.343
X73.561 Y16.654
X73.551 Y15.963
X73.595 Y15.273
X73.7 Y14.589
X73.843 Y13.912
X74.062 Y13.256
X74.332 Y12.619
X74.653 Y12.007
X75.042 Y11.434
X75.291 Y11.092
X75.693 Y10.53
X76.104 Y9.973
X76.547 Y9.442
X77.051 Y8.968
X77.589 Y8.534
X78.162 Y8.146
X78.765 Y7.807
X79.385 Y7.501
X80.037 Y7.272
X80.705 Y7.09
X81.387 Y6.975
X82.072 Y7.071
X82.734 Y7.272
X82.977 Y7.361
G2 X83.367 Y7.188 I0.1 J-0.301
G1 X83.381 Y7.122 Z-0.593
X83.394 Y7.059 Z-0.571
X83.382 Y7.012 Z-0.542
X83.371 Y6.969 Z-0.505
X83.363 Y6.934 Z-0.461
X83.356 Y6.908 Z-0.411
X83.345 Y6.89 Z-0.348
X83.342 Y6.884 Z-0.283
G0 Z5.
X93.197 Y4.759
Z1.502
G2 X95.843 Y6.207 Z1.337 I1.323 J0.724 F220.
X93.197 Y4.759 Z1.171 I-1.323 J-0.724
X95.843 Y6.207 Z1.006 I1.323 J0.724
X93.197 Y4.759 Z0.84 I-1.323 J-0.724
X95.843 Y6.207 Z0.675 I1.323 J0.724
X93.197 Y4.759 Z0.509 I-1.323 J-0.724
X95.843 Y6.207 Z0.344 I1.323 J0.724
X93.197 Y4.759 Z0.178 I-1.323 J-0.724
X95.843 Y6.207 Z0.013 I1.323 J0.724
X93.197 Y4.759 Z-0.153 I-1.323 J-0.724
X95.843 Y6.207 Z-0.318 I1.323 J0.724
X93.197 Y4.759 Z-0.483 I-1.323 J-0.724
X95.843 Y6.207 Z-0.649 I1.323 J0.724
X93.197 Y4.759 Z-0.814 I-1.323 J-0.724
X95.843 Y6.207 Z-0.98 I1.323 J0.724
X93.197 Y4.759 Z-1.145 I-1.323 J-0.724
X95.843 Y6.207 Z-1.311 I1.323 J0.724
X93.197 Y4.759 Z-1.476 I-1.323 J-0.724
X95.843 Y6.207 Z-1.642 I1.323 J0.724
X93.197 Y4.759 Z-1.807 I-1.323 J-0.724
X95.843 Y6.207 Z-1.972 I1.323 J0.724
X96.029 Y5.483 Z-1.999 I-1.323 J-0.724
X93.012 I-1.508 J0.
X96.029 I1.508 J0.
G1 X96.047 Y4.792 F330.
X96.072 Y4.709
X96.097 Y4.561
X96.092 Y4.411
X96.063 Y4.264
X96.014 Y4.122
X95.948 Y3.988
X95.867 Y3.861
X95.773 Y3.744
X95.668 Y3.637
X95.553 Y3.541
X95.43 Y3.455
X95.3 Y3.379
X95.165 Y3.315
X95.021 Y3.26
X94.869 Y3.216
X94.71 Y3.184
X94.547 Y3.164
X94.379 Y3.157
X94.208 Y3.164
X94.036 Y3.185
X93.864 Y3.22
X93.693 Y3.269
X93.525 Y3.332
X93.361 Y3.41
X93.203 Y3.501
X93.051 Y3.605
X92.907 Y3.722
X92.773 Y3.851
X92.648 Y3.99
X92.535 Y4.14
X92.433 Y4.3
X92.345 Y4.467
X92.27 Y4.641
X92.209 Y4.822
X92.162 Y5.007
X92.131 Y5.196
X92.114 Y5.387
X92.113 Y5.579
X92.128 Y5.77
X92.158 Y5.96
X92.203 Y6.148
X92.263 Y6.331
X92.338 Y6.509
X92.426 Y6.68
X92.528 Y6.844
X92.644 Y7.
X92.771 Y7.145
X92.909 Y7.28
X93.058 Y7.404
X93.217 Y7.515
X93.384 Y7.613
X93.558 Y7.697
X93.739 Y7.767
X93.924 Y7.823
X94.114 Y7.863
X94.306 Y7.888
X94.5 Y7.898
X94.694 Y7.891
X94.886 Y7.87
X95.076 Y7.833
X95.263 Y7.781
X95.445 Y7.714
X95.621 Y7.632
X95.79 Y7.537
X95.951 Y7.429
X96.102 Y7.308
X96.244 Y7.175
X96.374 Y7.031
X96.492 Y6.877
X96.598 Y6.714
X96.706 Y6.514
X96.854 Y6.179
X96.981 Y5.812
X97.056 Y5.522
X97.102 Y5.263
X97.124 Y5.022
X97.127 Y4.797
X97.113 Y4.582
X97.082 Y4.373
X97.034 Y4.169
X96.971 Y3.97
X96.892 Y3.777
X96.798 Y3.591
X96.689 Y3.413
X96.565 Y3.243
X96.426 Y3.082
X96.273 Y2.93
X96.106 Y2.79
X95.927 Y2.662
X95.734 Y2.546
X95.719 Y2.539
X95.656 Y2.511
X95.591 Y2.49
X95.524 Y2.474
X95.317 Y2.437
X95.16 Y2.426
X95.003 Y2.417
X93.903
X93.71 Y2.427
X93.523 Y2.452
X93.328 Y2.493
X93.128 Y2.553
X92.926 Y2.632
X92.726 Y2.729
X92.53 Y2.844
X92.34 Y2.977
X92.158 Y3.129
X91.984 Y3.298
X91.821 Y3.485
X91.672 Y3.687
X91.537 Y3.903
X91.419 Y4.132
X91.319 Y4.372
X91.238 Y4.621
X91.176 Y4.878
X91.135 Y5.14
X91.115 Y5.406
X91.117 Y5.674
X91.12 Y5.708
X91.155 Y5.878
X91.228 Y6.035
X91.336 Y6.17
X91.39 Y6.223
X91.415 Y6.252
X91.547 Y6.434
X91.634 Y6.566
X91.704 Y6.693
X91.909 Y7.194
X91.976 Y7.354
X92.058 Y7.512
X92.156 Y7.668
X92.272 Y7.825
X92.408 Y7.981
X92.562 Y8.13
X92.731 Y8.271
X92.916 Y8.4
X93.116 Y8.518
X93.331 Y8.622
X93.559 Y8.71
X93.798 Y8.781
X94.046 Y8.834
X94.3 Y8.867
X94.56 Y8.88
X94.822 Y8.872
X95.084 Y8.842
X95.345 Y8.792
X95.603 Y8.72
X95.855 Y8.627
X96.1 Y8.514
X96.335 Y8.381
X96.56 Y8.229
X96.775 Y8.057
X96.98 Y7.865
X97.19 Y7.633
X97.401 Y7.359
X97.466 Y7.258
X97.532 Y7.132
X97.572 Y6.996
X97.586 Y6.855
Y4.995
X97.577 Y4.838
X97.565 Y4.681
X97.516 Y4.412
X97.505 Y4.367
X97.404 Y4.053
X97.333 Y3.896
X97.252 Y3.739
X97.154 Y3.582
X97.042 Y3.425
X96.888 Y3.242
X96.757 Y3.111
X96.569 Y2.954
X96.416 Y2.846
X96.259 Y2.748
X96.102 Y2.668
X95.945 Y2.597
X95.631 Y2.497
X95.568 Y2.482
X95.524 Y2.474
X95.489 Y2.471
X94.739 Y2.446
X94.688 Y2.444
X93.903 Y2.417
X92.489
X92.32 Y2.426
X92.172 Y2.445
X92.025 Y2.479
X91.883 Y2.527
X91.736 Y2.589
X91.583 Y2.67
X91.421 Y2.772
X91.263 Y2.89
X91.1 Y3.034
X90.937 Y3.203
X90.785 Y3.389
X90.64 Y3.598
X90.503 Y3.833
X90.38 Y4.091
X90.274 Y4.368
X90.201 Y4.616
X90.182 Y4.71
X90.17 Y4.931
X90.224 Y5.146
X90.339 Y5.335
X90.505 Y5.482
X90.605 Y5.547
X90.711 Y5.624
X90.762 Y5.662
X90.919 Y5.784
X91.097 Y5.938
X91.233 Y6.068
X91.336 Y6.17
G2 X91.857 Y6.025 I0.215 J-0.233
G1 X91.895 Y5.892
X92.725 Y3.023
X92.783 Y2.823
G2 X92.489 Y2.417 I-0.305 J-0.088
G1 X91.304
X91.154 Y2.425
X91.006 Y2.45
X90.861 Y2.49
X90.721 Y2.544
X90.577 Y2.615
X90.433 Y2.7
X90.28 Y2.809
X90.123 Y2.94
X89.97 Y3.09
X89.816 Y3.267
X89.686 Y3.444
X89.575 Y3.623
X89.483 Y3.805
X89.417 Y3.962
X89.362 Y4.133
X89.348 Y4.192
X89.328 Y4.384
X89.359 Y4.573
X89.437 Y4.749
X89.558 Y4.899
X89.713 Y5.012
X90.133 Y5.243
X90.29 Y5.343
X90.505 Y5.482
G2 X90.976 Y5.288 I0.163 J-0.272
G1 X91.023 Y5.1
X91.547 Y3.025
X91.6 Y2.812
G2 X91.304 Y2.417 I-0.308 J-0.078
G1 X90.204
X90.054 Y2.425
X89.907 Y2.455
X89.764 Y2.5
X89.626 Y2.559
X89.493 Y2.63
X89.359 Y2.716
X89.229 Y2.815
X89.1 Y2.931
X88.988 Y3.049
X88.881 Y3.182
X88.791 Y3.315
X88.717 Y3.445
X88.65 Y3.589
X88.598 Y3.73
X88.591 Y3.757
X88.564 Y3.957
X88.592 Y4.157
X88.673 Y4.342
X88.802 Y4.498
X88.967 Y4.614
X89.099 Y4.681
X89.682 Y4.995
X89.713 Y5.012
G2 X90.169 Y4.782 I0.143 J-0.284
G1 X90.201 Y4.593
X90.465 Y3.029
X90.506 Y2.788
G2 X90.204 Y2.417 I-0.313 J-0.053
G1 X89.191
X89.041 Y2.425
X88.895 Y2.458
X88.754 Y2.509
X88.619 Y2.574
X88.491 Y2.653
X88.372 Y2.744
X88.262 Y2.846
X88.161 Y2.957
X88.072 Y3.078
X87.995 Y3.206
X87.93 Y3.342
X87.92 Y3.369
X87.876 Y3.587
X87.898 Y3.808
X87.985 Y4.012
X88.129 Y4.182
X88.317 Y4.301
X88.563 Y4.409
X88.72 Y4.487
X88.967 Y4.614
G2 X89.419 Y4.342 I0.135 J-0.288
G1 X89.427 Y4.179
X89.483 Y3.032
X89.497 Y2.75
G2 X89.191 Y2.417 I-0.317 J-0.016
G1 X88.319
X88.169 Y2.425
X88.023 Y2.46
X87.884 Y2.515
X87.754 Y2.589
X87.634 Y2.68
X87.525 Y2.783
X87.431 Y2.9
X87.351 Y3.027
X87.33 Y3.069
X87.266 Y3.267
X87.26 Y3.475
X87.312 Y3.677
X87.418 Y3.856
X87.57 Y3.999
X87.756 Y4.094
X88.096 Y4.21
X88.248 Y4.271
X88.317 Y4.301
G2 X88.751 Y3.975 I0.118 J-0.295
G1 X88.737 Y3.841
X88.657 Y3.031
X88.624 Y2.703
G2 X88.319 Y2.417 I-0.316 J0.032
G1 X87.573
X87.423 Y2.425
X87.278 Y2.464
X87.142 Y2.528
X87.019 Y2.614
X86.91 Y2.717
X86.817 Y2.834
X86.815 Y2.838
X86.734 Y3.041
X86.716 Y3.259
X86.762 Y3.472
X86.869 Y3.663
X87.026 Y3.814
X87.22 Y3.913
X87.703 Y4.075
X87.756 Y4.094
G2 X88.155 Y3.706 I0.092 J-0.304
G1 X88.126 Y3.602
X87.968 Y3.02
X87.868 Y2.651
G2 X87.573 Y2.417 I-0.306 J0.083
G1 X86.944
X86.794 Y2.425
X86.651 Y2.469
X86.489 Y2.598
X86.37 Y2.768
X86.304 Y2.965
X86.297 Y3.172
X86.35 Y3.373
X86.458 Y3.55
X86.612 Y3.689
X86.799 Y3.778
X86.992 Y3.838
X87.197 Y3.905
X87.22 Y3.913
G2 X87.602 Y3.483 I0.09 J-0.304
G1 X87.576 Y3.422
X87.394 Y3.001
X87.225 Y2.609
G2 X86.944 Y2.417 I-0.291 J0.126
G1 X86.473
X86.323 Y2.425
X86.182 Y2.474
X86.032 Y2.612
X85.93 Y2.787
X85.885 Y2.986
X85.901 Y3.188
X85.977 Y3.377
X86.106 Y3.534
X86.276 Y3.645
X86.472 Y3.701
G2 X86.817 Y3.366 I0.029 J-0.316
G1 X86.803 Y3.127
X86.798 Y3.032
X86.779 Y2.716
G2 X86.473 Y2.417 I-0.317 J0.019
G1 X86.049
X85.899 Y2.425
X85.759 Y2.477
X85.636 Y2.562
X85.519 Y2.736
X85.464 Y2.937
X85.474 Y3.145
X85.55 Y3.339
X85.684 Y3.5
X85.861 Y3.609
X86.064 Y3.657
X86.206 Y3.668
X86.472 Y3.701
G2 X86.759 Y3.201 I0.029 J-0.316
G1 X86.723 Y3.15
X86.583 Y2.953
X86.297 Y2.551
G2 X86.049 Y2.417 I-0.259 J0.184
G1 X85.61
X85.46 Y2.425
X85.32 Y2.479
X85.2 Y2.569
X85.101 Y2.682
X85.029 Y2.873
X85.018 Y3.077
X85.07 Y3.275
X85.18 Y3.447
X85.338 Y3.578
X85.527 Y3.654
X85.732 Y3.669
X86.049 Y3.656
X86.064 Y3.657
G2 X86.325 Y3.144 I0.012 J-0.317
G1 X86.286 Y3.094
X86.164 Y2.938
X85.848 Y2.538
G2 X85.61 Y2.417 I-0.249 J0.197
G1 X85.177
X85.028 Y2.425
X84.887 Y2.475
X84.764 Y2.562
X84.664 Y2.673
X84.579 Y2.887
X84.568 Y3.117
X84.633 Y3.338
X84.767 Y3.526
X84.954 Y3.66
X85.175 Y3.725
X85.405 Y3.714
G2 X85.636 Y3.332 I-0.078 J-0.308
G1 X85.569 Y3.05
X85.562 Y3.023
X85.475 Y2.66
G2 X85.177 Y2.417 I-0.309 J0.074
G1 X84.712
X84.562 Y2.425
X84.423 Y2.481
X84.302 Y2.57
X84.203 Y2.682
X84.126 Y2.811
X84.071 Y2.95
X84.069 Y2.962
X84.057 Y3.18
X84.11 Y3.392
X84.222 Y3.58
X84.384 Y3.727
X84.582 Y3.82
X84.798 Y3.851
X85.014 Y3.818
X85.107 Y3.789
X85.29 Y3.739
X85.405 Y3.714
G2 X85.56 Y3.19 I-0.078 J-0.308
G1 X85.473 Y3.097
X85.299 Y2.91
X84.933 Y2.518
X84.886 Y2.477
X84.833 Y2.446
X84.774 Y2.426
X84.712 Y2.417
X84.235
X84.085 Y2.425
X83.944 Y2.475
X83.819 Y2.558
X83.712 Y2.663
X83.627 Y2.787
X83.562 Y2.922
X83.519 Y3.066
X83.496 Y3.214
X83.495 Y3.364
X83.502 Y3.416
X83.567 Y3.642
X83.699 Y3.837
X83.887 Y3.979
X84.109 Y4.056
X84.344 Y4.06
X84.569 Y3.989
X84.636 Y3.956
X84.793 Y3.893
X84.95 Y3.838
X85.014 Y3.818
G2 X85.149 Y3.309 I-0.105 J-0.3
G1 X85.04 Y3.185
X84.809 Y2.921
X84.463 Y2.525
G2 X84.235 Y2.417 I-0.239 J0.209
G1 X83.725
X83.575 Y2.425
X83.433 Y2.472
X83.303 Y2.547
X83.188 Y2.643
X83.089 Y2.756
X83.009 Y2.883
X82.946 Y3.019
X82.901 Y3.162
X82.876 Y3.31
X82.868 Y3.46
X82.878 Y3.609
X82.907 Y3.757
X82.938 Y3.86
X83.034 Y4.057
X83.183 Y4.217
X83.373 Y4.325
X83.586 Y4.373
X83.804 Y4.355
X84.007 Y4.273
X84.127 Y4.21
X84.569 Y3.989
G2 X84.674 Y3.525 I-0.152 J-0.279
G1 X84.53 Y3.324
X84.261 Y2.951
X83.971 Y2.549
G2 X83.725 Y2.417 I-0.258 J0.186
G1 X83.174
X83.025 Y2.425
X82.88 Y2.463
X82.745 Y2.529
X82.623 Y2.616
X82.514 Y2.72
X82.421 Y2.837
X82.342 Y2.965
X82.278 Y3.101
X82.23 Y3.243
X82.196 Y3.389
X82.177 Y3.538
X82.174 Y3.688
X82.187 Y3.837
X82.192 Y3.865
X82.265 Y4.078
X82.4 Y4.259
X82.582 Y4.391
X82.594 Y4.397
X82.751 Y4.454
X82.908 Y4.508
X82.996 Y4.524
X83.065 Y4.532
X83.222 Y4.542
X83.387 Y4.524
X83.462 Y4.512
X83.693 Y4.438
X83.77 Y4.407
X83.85 Y4.366
X84.007 Y4.273
G2 X84.117 Y3.857 I-0.171 J-0.268
G1 X83.971 Y3.581
X83.656 Y2.986
X83.444 Y2.586
G2 X83.174 Y2.417 I-0.281 J0.149
G1 X82.546
X82.396 Y2.425
X82.251 Y2.461
X82.114 Y2.523
X81.988 Y2.604
X81.874 Y2.702
X81.772 Y2.812
X81.684 Y2.933
X81.608 Y3.063
X81.598 Y3.085
X81.538 Y3.302
X81.546 Y3.527
X81.621 Y3.739
X81.756 Y3.919
X81.939 Y4.05
X82.279 Y4.222
X82.535 Y4.367
X82.582 Y4.391
G2 X83.032 Y4.062 I0.135 J-0.287
G1 X83.018 Y3.958
X82.895 Y3.029
X82.85 Y2.693
G2 X82.546 Y2.417 I-0.315 J0.042
G1 X81.879
X81.729 Y2.425
X81.583 Y2.457
X81.445 Y2.518
X81.319 Y2.599
X81.208 Y2.699
X81.2 Y2.709
X81.078 Y2.913
X81.028 Y3.146
X81.054 Y3.382
X81.153 Y3.598
X81.315 Y3.771
X81.524 Y3.884
X81.808 Y3.984
X81.939 Y4.05
G2 X82.384 Y3.7 I0.133 J-0.288
G1 X82.367 Y3.615
X82.25 Y3.026
X82.179 Y2.673
G2 X81.879 Y2.417 I-0.311 J0.062
G1 X81.251
X81.101 Y2.425
X80.958 Y2.471
X80.828 Y2.545
X80.824 Y2.548
X80.689 Y2.711
X80.609 Y2.907
X80.591 Y3.117
X80.637 Y3.324
X80.743 Y3.507
X80.9 Y3.65
X81.092 Y3.739
X81.337 Y3.819
X81.524 Y3.884
G2 X81.908 Y3.451 I0.094 J-0.303
G1 X81.884 Y3.398
X81.705 Y2.999
X81.529 Y2.605
G2 X81.251 Y2.417 I-0.29 J0.13
G1 X80.74
X80.591 Y2.425
X80.452 Y2.482
X80.33 Y2.569
X80.216 Y2.744
X80.162 Y2.946
X80.174 Y3.154
X80.249 Y3.349
X80.38 Y3.511
X80.556 Y3.624
X80.758 Y3.677
X80.797
X80.837 Y3.672
G2 X80.74 Y2.417 I-0.118 J-0.622
G1 X80.308
X80.158 Y2.425
X80.019 Y2.48
X79.899 Y2.57
X79.895 Y2.574
X79.783 Y2.752
X79.734 Y2.956
X79.754 Y3.165
X79.84 Y3.357
X79.983 Y3.511
X80.168 Y3.611
X80.375 Y3.646
X80.709 Y3.672
X80.758 Y3.677
G2 X81.03 Y3.166 I0.021 J-0.317
G1 X80.995 Y3.12
X80.857 Y2.942
X80.549 Y2.541
G2 X80.308 Y2.417 I-0.252 J0.194
G1 X79.876
X79.726 Y2.425
X79.587 Y2.481
X79.468 Y2.573
X79.37 Y2.686
X79.299 Y2.884
X79.292 Y3.094
X79.349 Y3.296
X79.466 Y3.471
X79.631 Y3.601
X79.828 Y3.674
X80.038 Y3.682
X80.355 Y3.646
X80.375
G2 X80.608 Y3.124 I-0.01 J-0.317
G1 X80.56 Y3.067
X80.443 Y2.928
X80.107 Y2.53
G2 X79.876 Y2.417 I-0.243 J0.205
G1 X79.405
X79.255 Y2.425
X79.119 Y2.489
X79.002 Y2.583
X78.893 Y2.776
X78.847 Y2.993
X78.87 Y3.214
X78.959 Y3.417
X79.106 Y3.584
X79.296 Y3.698
X79.512 Y3.748
X79.734 Y3.73
G2 X79.946 Y3.314 I-0.085 J-0.306
G1 X79.856 Y3.07
X79.834 Y3.009
X79.691 Y2.624
G2 X79.405 Y2.417 I-0.298 J0.11
G1 X78.981
X78.831 Y2.425
X78.693 Y2.485
X78.575 Y2.577
X78.477 Y2.69
X78.403 Y2.82
X78.35 Y2.961
X78.32 Y3.109
X78.347 Y3.346
X78.447 Y3.562
X78.611 Y3.735
X78.821 Y3.847
X79.056 Y3.887
X79.291 Y3.85
X79.452 Y3.801
X79.734 Y3.73
G2 X79.875 Y3.201 I-0.085 J-0.306
G1 X79.787 Y3.112
X79.578 Y2.9
X79.196 Y2.512
X79.15 Y2.473
X79.097 Y2.444
X79.04 Y2.425
X78.981 Y2.417
X78.51
X78.36 Y2.425
X78.219 Y2.477
X78.092 Y2.557
X77.985 Y2.661
X77.896 Y2.782
X77.828 Y2.916
X77.781 Y3.058
X77.754 Y3.206
X77.749 Y3.356
X77.763 Y3.506
X77.838 Y3.706
X77.968 Y3.876
X78.141 Y4.002
X78.343 Y4.073
X78.556 Y4.084
X78.764 Y4.033
X78.824 Y4.009
X78.981 Y3.952
X79.291 Y3.85
G2 X79.425 Y3.348 I-0.11 J-0.298
G1 X79.311 Y3.212
X79.075 Y2.929
X78.742 Y2.531
G2 X78.51 Y2.417 I-0.244 J0.204
G1 X77.991
X77.841 Y2.425
X77.698 Y2.47
X77.567 Y2.544
X77.451 Y2.639
X77.351 Y2.751
X77.267 Y2.875
X77.202 Y3.01
X77.153 Y3.152
X77.124 Y3.299
X77.113 Y3.448
X77.12 Y3.598
X77.145 Y3.746
X77.162 Y3.804
X77.247 Y3.994
X77.382 Y4.153
X77.556 Y4.269
X77.755 Y4.331
X77.963 Y4.335
X78.165 Y4.281
X78.352 Y4.2
X78.764 Y4.033
G2 X78.901 Y3.57 I-0.129 J-0.29
G1 X78.772 Y3.371
X78.508 Y2.965
X78.246 Y2.562
G2 X77.991 Y2.417 I-0.266 J0.173
G1 X77.41
X77.26 Y2.425
X77.116 Y2.467
X76.983 Y2.535
X76.862 Y2.624
X76.754 Y2.728
X76.661 Y2.846
X76.583 Y2.974
X76.519 Y3.11
X76.472 Y3.252
X76.44 Y3.399
X76.423 Y3.548
Y3.698
X76.438 Y3.847
X76.468 Y3.994
X76.515 Y4.137
X76.534 Y4.182
X76.659 Y4.377
X76.838 Y4.524
X77.054 Y4.609
X77.286 Y4.622
X77.51 Y4.564
X77.881 Y4.402
X78.165 Y4.281
G2 X78.314 Y3.851 I-0.135 J-0.287
G1 X78.189 Y3.602
X77.882 Y2.99
X77.683 Y2.592
G2 X77.41 Y2.417 I-0.284 J0.142
G1 X76.782
X76.632 Y2.425
X76.487 Y2.463
X76.351 Y2.526
X76.226 Y2.609
X76.112 Y2.707
X76.012 Y2.819
X75.925 Y2.941
X75.85 Y3.071
X75.789 Y3.208
X75.741 Y3.35
X75.705 Y3.495
X75.684 Y3.644
X75.676 Y3.794
X75.681 Y3.944
X75.701 Y4.092
X75.735 Y4.239
X75.781 Y4.381
X75.841 Y4.519
X75.878 Y4.585
X76.023 Y4.767
X76.216 Y4.895
X76.44 Y4.957
X76.671 Y4.947
X76.889 Y4.866
X76.939 Y4.838
X77.096 Y4.757
X77.253 Y4.681
X77.41 Y4.608
X77.51 Y4.564
G2 X77.669 Y4.162 I-0.137 J-0.286
G1 X77.556 Y3.873
X77.218 Y3.007
X77.066 Y2.619
G2 X76.782 Y2.417 I-0.296 J0.115
G1 X76.106
X75.956 Y2.425
X75.81 Y2.461
X75.673 Y2.52
X75.544 Y2.598
X75.427 Y2.691
X75.32 Y2.797
X75.225 Y2.913
X75.142 Y3.037
X75.07 Y3.169
X75.01 Y3.307
X74.962 Y3.449
X74.924 Y3.597
X74.898 Y3.757
X74.884 Y3.912
X74.883 Y4.062
X74.896 Y4.225
X74.92 Y4.376
X74.955 Y4.522
X75.003 Y4.664
X75.064 Y4.801
X75.134 Y4.933
X75.217 Y5.058
X75.262 Y5.114
X75.421 Y5.26
X75.616 Y5.355
X75.83 Y5.389
X76.044 Y5.36
X76.241 Y5.27
X76.424 Y5.152
X76.782 Y4.926
X76.889 Y4.866
G2 X77.024 Y4.494 I-0.166 J-0.271
G1 X76.909 Y4.154
X76.524 Y3.013
X76.396 Y2.633
G2 X76.106 Y2.417 I-0.301 J0.102
G1 X75.368
X75.218 Y2.425
X75.073 Y2.461
X74.934 Y2.519
X74.805 Y2.595
X74.685 Y2.685
X74.575 Y2.787
X74.476 Y2.899
X74.386 Y3.02
X74.307 Y3.149
X74.236 Y3.288
X74.173 Y3.439
X74.121 Y3.602
X74.081 Y3.773
X74.054 Y3.95
X74.041 Y4.132
X74.043 Y4.317
X74.06 Y4.505
X74.09 Y4.68
X74.133 Y4.848
X74.192 Y5.017
X74.253 Y5.158
X74.326 Y5.293
X74.414 Y5.43
X74.505 Y5.549
X74.567 Y5.618
X74.728 Y5.751
X74.921 Y5.834
X75.129 Y5.86
X75.336 Y5.827
X75.525 Y5.738
X75.839 Y5.53
X76.241 Y5.27
G2 X76.363 Y4.916 I-0.182 J-0.26
G1 X76.249 Y4.548
X75.776 Y3.016
X75.66 Y2.641
G2 X75.368 Y2.417 I-0.303 J0.094
G1 X74.614
X74.465 Y2.425
X74.318 Y2.458
X74.178 Y2.512
X74.046 Y2.583
X73.923 Y2.668
X73.808 Y2.765
X73.703 Y2.872
X73.605 Y2.99
X73.515 Y3.12
X73.429 Y3.266
X73.351 Y3.429
X73.283 Y3.605
X73.228 Y3.79
X73.187 Y3.985
X73.161 Y4.19
X73.151 Y4.401
X73.158 Y4.614
X73.182 Y4.83
X73.225 Y5.045
X73.281 Y5.245
X73.35 Y5.43
X73.433 Y5.609
X73.515 Y5.754
X73.613 Y5.899
X73.718 Y6.03
X73.821 Y6.139
X73.939 Y6.245
X74.065 Y6.341
X74.251 Y6.427
X74.453 Y6.459
X74.656 Y6.434
X74.844 Y6.355
X75.004 Y6.227
X75.054 Y6.175
X75.286 Y5.938
X75.368 Y5.86
X75.465 Y5.781
X75.525 Y5.738
G2 X75.638 Y5.405 I-0.194 J-0.252
G1 X75.533 Y5.006
X75.007 Y3.021
X74.91 Y2.653
G2 X74.614 Y2.417 I-0.307 J0.081
G1 X73.797
X73.647 Y2.425
X73.501 Y2.458
X73.361 Y2.511
X73.228 Y2.581
X73.103 Y2.663
X72.986 Y2.757
X72.877 Y2.862
X72.769 Y2.984
X72.668 Y3.118
X72.57 Y3.273
X72.479 Y3.446
X72.4 Y3.632
X72.332 Y3.833
X72.278 Y4.052
X72.24 Y4.283
X72.221 Y4.524
X72.22 Y4.769
X72.24 Y5.015
X72.279 Y5.26
X72.338 Y5.501
X72.415 Y5.734
X72.509 Y5.958
X72.621 Y6.172
X72.732 Y6.35
X72.857 Y6.517
X72.984 Y6.661
X73.104 Y6.777
X73.244 Y6.892
X73.376 Y6.985
X73.506 Y7.06
X73.654 Y7.131
X73.711 Y7.153
X73.927 Y7.201
X74.148 Y7.182
X74.354 Y7.1
X74.525 Y6.96
X74.648 Y6.775
X74.672 Y6.723
X74.74 Y6.608
X74.861 Y6.409
X74.981 Y6.252
X75.004 Y6.227
G2 X75.07 Y5.926 I-0.238 J-0.21
G1 X74.938 Y5.482
X74.202 Y3.017
X74.09 Y2.644
G2 X73.797 Y2.417 I-0.304 J0.091
G1 X72.964
X72.815 Y2.425
X72.668 Y2.455
X72.526 Y2.504
X72.391 Y2.57
X72.263 Y2.648
X72.143 Y2.738
X72.024 Y2.845
X71.91 Y2.964
X71.796 Y3.104
X71.685 Y3.266
X71.584 Y3.441
X71.491 Y3.639
X71.408 Y3.859
X71.34 Y4.095
X71.29 Y4.342
X71.258 Y4.605
X71.247 Y4.881
X71.259 Y5.166
X71.294 Y5.457
X71.353 Y5.744
X71.434 Y6.024
X71.536 Y6.294
X71.657 Y6.549
X71.795 Y6.79
X71.949 Y7.013
X72.116 Y7.217
X72.29 Y7.399
X72.451 Y7.543
X72.632 Y7.679
X72.79 Y7.779
X72.947 Y7.862
X73.118 Y7.935
X73.269 Y7.986
X73.418 Y8.023
X73.517 Y8.04
X73.736 Y8.044
X73.946 Y7.986
X74.131 Y7.87
X74.276 Y7.707
X74.367 Y7.508
X74.414 Y7.351
X74.468 Y7.194
X74.532 Y7.037
X74.583 Y6.915
X74.648 Y6.775
X74.666 Y6.719
X74.673 Y6.66
X74.669 Y6.601
X74.655 Y6.544
X74.47 Y6.028
X73.389 Y3.011
X73.252 Y2.628
G2 X72.964 Y2.417 I-0.299 J0.107
G1 X72.069
X71.92 Y2.425
X71.773 Y2.456
X71.631 Y2.505
X71.496 Y2.569
X71.367 Y2.647
X71.246 Y2.735
X71.118 Y2.844
X70.996 Y2.966
X70.873 Y3.113
X70.751 Y3.282
X70.641 Y3.465
X70.536 Y3.677
X70.441 Y3.915
X70.363 Y4.166
X70.302 Y4.438
X70.261 Y4.734
X70.242 Y5.047
X70.249 Y5.371
X70.282 Y5.7
X70.343 Y6.031
X70.432 Y6.36
X70.547 Y6.684
X70.689 Y6.999
X70.853 Y7.297
X71.036 Y7.574
X71.233 Y7.826
X71.44 Y8.051
X71.66 Y8.255
X71.887 Y8.433
X72.116 Y8.585
X72.322 Y8.699
X72.543 Y8.799
X72.727 Y8.865
X72.913 Y8.915
X73.099 Y8.95
X73.259 Y8.966
X73.43 Y8.97
X73.522 Y8.965
X73.737 Y8.92
X73.929 Y8.814
X74.082 Y8.656
X74.182 Y8.461
X74.185 Y8.451
X74.209 Y8.294
X74.235 Y8.137
X74.332 Y7.666
X74.367 Y7.508
X74.373 Y7.446
X74.366 Y7.384
X74.348 Y7.325
X74.115 Y6.774
X72.516 Y3.002
X72.351 Y2.611
G2 X72.069 Y2.417 I-0.292 J0.124
G1 X71.441 Y2.418
X71.284 Y2.422
X71.127 Y2.432
X70.902 Y2.475
X70.757 Y2.515
X70.618 Y2.572
X70.485 Y2.641
X70.358 Y2.724
X70.232 Y2.821
X70.101 Y2.939
X69.97 Y3.08
X69.844 Y3.237
X69.716 Y3.427
X69.6 Y3.634
X69.492 Y3.867
X69.394 Y4.134
X69.314 Y4.423
X69.255 Y4.727
X69.218 Y5.058
X69.207 Y5.411
X69.226 Y5.781
X69.275 Y6.162
X69.357 Y6.545
X69.471 Y6.926
X69.617 Y7.3
X69.792 Y7.662
X69.995 Y8.006
X70.222 Y8.329
X70.469 Y8.627
X70.729 Y8.894
X71.002 Y9.133
X71.28 Y9.338
X71.56 Y9.512
X71.84 Y9.657
X72.04 Y9.741
X72.241 Y9.793
X72.449 Y9.788
X72.648 Y9.725
X72.698 Y9.701
X73.169 Y9.495
X73.408 Y9.393
X73.483 Y9.36
X73.674 Y9.236
X73.736 Y9.194
X73.797 Y9.138
X73.912 Y9.022
X73.954 Y8.964
X74.055 Y8.804
X74.074 Y8.765
X74.133 Y8.608
X74.182 Y8.461
X74.185 Y8.427
X74.176 Y8.394
X73.854 Y7.753
X71.516 Y3.092
X71.21 Y2.482
X71.189 Y2.455
X71.16 Y2.437
X71.127 Y2.432
X70.97 Y2.454
X70.813 Y2.483
X70.656 Y2.522
X70.499 Y2.575
X70.338 Y2.639
X70.184 Y2.716
X70.027 Y2.804
X69.87 Y2.913
X69.713 Y3.031
X69.623 Y3.111
X69.556 Y3.174
X69.472 Y3.268
X69.34 Y3.425
X69.242 Y3.559
X69.13 Y3.739
X69.085 Y3.817
X69.049 Y3.896
X68.98 Y4.053
X68.925 Y4.21
X68.876 Y4.367
X68.845 Y4.524
X68.816 Y4.681
X68.805 Y4.838
X68.796 Y4.995
Y7.037
X68.811 Y7.339
X68.84 Y7.557
X68.892 Y7.803
X68.972 Y8.068
X69.077 Y8.339
X69.219 Y8.632
X69.396 Y8.933
X69.603 Y9.226
X69.838 Y9.51
X70.105 Y9.783
X70.395 Y10.037
X70.656 Y10.23
X70.901 Y10.382
X70.975 Y10.42
X71.179 Y10.49
X71.395 Y10.498
X71.604 Y10.444
X71.789 Y10.331
X72.161 Y10.022
X72.226 Y9.97
X72.384 Y9.864
X72.541 Y9.776
X72.648 Y9.725
G2 X72.683 Y9.184 I-0.148 J-0.281
G1 X72.571 Y9.105
X69.38 Y6.848
X69.297 Y6.789
G2 X68.796 Y7.037 I-0.183 J0.259
G1 Y8.922
X68.803 Y9.072
X68.829 Y9.229
X68.873 Y9.406
X68.934 Y9.59
X69.022 Y9.797
X69.134 Y10.009
X69.27 Y10.225
X69.435 Y10.445
X69.595 Y10.627
X69.768 Y10.793
X69.928 Y10.924
X70.077 Y11.027
X70.246 Y11.125
X70.344 Y11.172
X70.543 Y11.235
X70.752 Y11.242
X70.955 Y11.192
X71.137 Y11.089
X71.284 Y10.941
X71.384 Y10.807
X71.675 Y10.426
X71.789 Y10.331
G2 X71.713 Y9.807 I-0.212 J-0.237
G1 X71.569 Y9.739
X69.391 Y8.713
X69.249 Y8.646
G2 X68.796 Y8.922 I-0.135 J0.287
G1 Y10.265
X68.803 Y10.415
X68.827 Y10.563
X68.866 Y10.708
X68.917 Y10.849
X68.982 Y10.992
X69.061 Y11.135
X69.151 Y11.269
X69.253 Y11.398
X69.366 Y11.519
X69.476 Y11.621
X69.598 Y11.715
X69.726 Y11.798
X69.858 Y11.869
X69.995 Y11.929
X70.07 Y11.954
X70.291 Y11.992
X70.513 Y11.963
X70.716 Y11.868
X70.882 Y11.718
X70.995 Y11.524
X71.03 Y11.435
X71.102 Y11.278
X71.179 Y11.121
X71.269 Y10.964
X71.284 Y10.941
G2 X71.092 Y10.471 I-0.273 J-0.163
G1 X70.901 Y10.42
X69.403 Y10.024
X69.194 Y9.969
G2 X68.796 Y10.265 I-0.081 J0.307
G1 Y11.364
X68.803 Y11.514
X68.835 Y11.661
X68.884 Y11.803
X68.949 Y11.938
X69.027 Y12.066
X69.117 Y12.186
X69.219 Y12.296
X69.33 Y12.397
X69.451 Y12.486
X69.58 Y12.562
X69.716 Y12.626
X69.857 Y12.676
X69.874 Y12.681
X70.093 Y12.7
X70.309 Y12.654
X70.501 Y12.546
X70.654 Y12.387
X70.752 Y12.19
X70.844 Y11.906
X70.995 Y11.524
G2 X70.704 Y11.1 I-0.299 J-0.106
G1 X70.518 Y11.095
X69.411 Y11.066
X69.122 Y11.058
G2 X68.796 Y11.364 I-0.008 J0.317
G1 Y12.22
X68.803 Y12.37
X68.835 Y12.517
X68.888 Y12.657
X68.959 Y12.789
X69.046 Y12.912
X69.147 Y13.023
X69.26 Y13.122
X69.383 Y13.207
X69.516 Y13.276
X69.655 Y13.332
X69.666 Y13.335
X69.896 Y13.36
X70.122 Y13.313
X70.323 Y13.198
X70.478 Y13.027
X70.574 Y12.817
X70.695 Y12.377
X70.742 Y12.22
X70.752 Y12.19
G2 X70.416 Y11.786 I-0.305 J-0.088
G1 X70.25 Y11.802
X69.41 Y11.884
X69.083 Y11.915
G2 X68.796 Y12.22 I0.031 J0.316
G1 Y13.006
X68.803 Y13.156
X68.842 Y13.3
X68.904 Y13.437
X68.986 Y13.563
X69.085 Y13.676
X69.197 Y13.775
X69.323 Y13.857
X69.366 Y13.878
X69.573 Y13.946
X69.791 Y13.95
X70.001 Y13.89
X70.185 Y13.772
X70.326 Y13.606
X70.412 Y13.405
X70.435 Y13.32
X70.574 Y12.817
G2 X70.191 Y12.434 I-0.309 J-0.074
G1 X70.057 Y12.466
X69.402 Y12.622
X69.04 Y12.708
G2 X68.796 Y13.006 I0.073 J0.309
G1 Y13.682
X68.803 Y13.831
X68.847 Y13.975
X68.915 Y14.108
X69.007 Y14.227
X69.115 Y14.331
X69.145 Y14.352
X69.329 Y14.445
X69.531 Y14.484
X69.736 Y14.466
X69.928 Y14.392
X70.092 Y14.269
X70.216 Y14.105
X70.29 Y13.913
X70.393 Y13.477
X70.412 Y13.405
G2 X69.995 Y13.036 I-0.309 J-0.071
G1 X69.896 Y13.072
X69.389 Y13.255
X69.005 Y13.394
