(COIN-TOP)
(T2  D=3.175 CR=0. TAPER=20DEG - ZMIN=-1.996 - CHAMFER MILL)
(T22  D=2. CR=0. - ZMIN=-4. - FLAT END MILL)
(T31  D=3.175 CR=0. - ZMIN=-4.1 - FLAT END MILL)
(T33  D=3.175 CR=1.587 - ZMIN=-1.963 - BALL END MILL)
(T34  D=2.5 CR=1.25 - ZMIN=-3.917 - BALL END MILL)
G0 G90 G94 G17
G21
G53 G0 Z0.

(CLEAR)
M5
M9
T31 M6
S16400 M3
G4 P4.
G55
G0 X26.353 Y5.257
Z15.
Z5.
Z2.5
G2 X29.074 Y6.559 Z2.335 I1.36 J0.651 F220.
X26.353 Y5.257 Z2.169 I-1.36 J-0.651
X29.074 Y6.559 Z2.004 I1.36 J0.651
X26.353 Y5.257 Z1.838 I-1.36 J-0.651
X29.074 Y6.559 Z1.673 I1.36 J0.651
X26.353 Y5.257 Z1.507 I-1.36 J-0.651
X29.074 Y6.559 Z1.342 I1.36 J0.651
X26.353 Y5.257 Z1.176 I-1.36 J-0.651
X29.074 Y6.559 Z1.011 I1.36 J0.651
X26.353 Y5.257 Z0.845 I-1.36 J-0.651
X29.074 Y6.559 Z0.68 I1.36 J0.651
X26.353 Y5.257 Z0.515 I-1.36 J-0.651
X29.074 Y6.559 Z0.349 I1.36 J0.651
X26.353 Y5.257 Z0.184 I-1.36 J-0.651
X29.074 Y6.559 Z0.018 I1.36 J0.651
X26.353 Y5.257 Z-0.147 I-1.36 J-0.651
X29.074 Y6.559 Z-0.313 I1.36 J0.651
X26.353 Y5.257 Z-0.478 I-1.36 J-0.651
X29.074 Y6.559 Z-0.644 I1.36 J0.651
X26.353 Y5.257 Z-0.809 I-1.36 J-0.651
X29.074 Y6.559 Z-0.974 I1.36 J0.651
X29.222 Y5.908 Z-0.998 I-1.36 J-0.651
X26.205 I-1.508 J0.
X29.222 I1.508 J0.
G1 X29.24 Y5.217 F330.
X29.265 Y5.134
X29.29 Y4.986
X29.285 Y4.836
X29.256 Y4.689
X29.207 Y4.547
X29.141 Y4.413
X29.06 Y4.286
X28.966 Y4.17
X28.861 Y4.062
X28.746 Y3.966
X28.623 Y3.88
X28.494 Y3.804
X28.358 Y3.74
X28.214 Y3.685
X28.062 Y3.642
X27.903 Y3.609
X27.74 Y3.589
X27.572 Y3.582
X27.401 Y3.589
X27.229 Y3.61
X27.057 Y3.645
X26.886 Y3.694
X26.718 Y3.757
X26.554 Y3.835
X26.396 Y3.926
X26.244 Y4.03
X26.101 Y4.147
X25.966 Y4.276
X25.841 Y4.415
X25.728 Y4.565
X25.626 Y4.725
X25.538 Y4.892
X25.463 Y5.067
X25.402 Y5.247
X25.355 Y5.432
X25.324 Y5.621
X25.307 Y5.812
X25.306 Y6.004
X25.321 Y6.195
X25.351 Y6.386
X25.396 Y6.573
X25.456 Y6.756
X25.531 Y6.934
X25.619 Y7.105
X25.722 Y7.269
X25.837 Y7.425
X25.964 Y7.57
X26.103 Y7.705
X26.252 Y7.829
X26.41 Y7.94
X26.577 Y8.038
X26.751 Y8.122
X26.932 Y8.192
X27.118 Y8.248
X27.307 Y8.288
X27.499 Y8.313
X27.693 Y8.323
X27.887 Y8.316
X28.079 Y8.295
X28.27 Y8.258
X28.456 Y8.206
X28.638 Y8.139
X28.814 Y8.057
X28.983 Y7.962
X29.144 Y7.854
X29.295 Y7.733
X29.437 Y7.6
X29.567 Y7.456
X29.685 Y7.302
X29.791 Y7.139
X29.899 Y6.939
X30.047 Y6.604
X30.174 Y6.237
X30.249 Y5.947
X30.295 Y5.688
X30.317 Y5.447
X30.32 Y5.222
X30.306 Y5.007
X30.275 Y4.798
X30.227 Y4.594
X30.164 Y4.395
X30.085 Y4.202
X29.991 Y4.016
X29.882 Y3.838
X29.758 Y3.668
X29.619 Y3.507
X29.466 Y3.355
X29.299 Y3.215
X29.12 Y3.087
X28.927 Y2.971
X28.723 Y2.871
X28.509 Y2.785
X28.285 Y2.716
X28.053 Y2.665
X27.815 Y2.632
X27.572 Y2.618
X27.326 Y2.624
X27.078 Y2.649
X26.831 Y2.695
X26.587 Y2.761
X26.347 Y2.848
X26.113 Y2.954
X25.886 Y3.079
X25.669 Y3.223
X25.463 Y3.384
X25.27 Y3.563
X25.091 Y3.758
X24.927 Y3.967
X24.78 Y4.19
X24.651 Y4.424
X24.541 Y4.669
X24.45 Y4.923
X24.38 Y5.184
X24.331 Y5.45
X24.304 Y5.72
X24.298 Y5.991
X24.314 Y6.263
X24.352 Y6.533
X24.411 Y6.799
X24.492 Y7.06
X24.594 Y7.314
X24.716 Y7.559
X24.857 Y7.794
X25.016 Y8.017
X25.193 Y8.226
X25.387 Y8.421
X25.595 Y8.599
X25.817 Y8.761
X26.052 Y8.904
X26.297 Y9.027
X26.552 Y9.131
X26.814 Y9.214
X27.082 Y9.276
X27.354 Y9.316
X27.628 Y9.334
X27.903 Y9.33
X28.177 Y9.303
X28.448 Y9.255
X28.714 Y9.186
X28.974 Y9.095
X29.225 Y8.984
X29.467 Y8.852
X29.698 Y8.702
X29.916 Y8.534
X30.125 Y8.344
X30.34 Y8.114
X30.55 Y7.85
X30.744 Y7.561
X30.919 Y7.25
X31.067 Y6.928
X31.159 Y6.677
X31.184 Y6.594
X31.199 Y6.509
X31.204 Y6.422
Y4.995
X31.195 Y4.838
X31.184 Y4.681
X31.155 Y4.524
X31.124 Y4.367
X31.072 Y4.2
X31.02 Y4.053
X30.951 Y3.896
X30.915 Y3.817
X30.87 Y3.739
X30.758 Y3.559
X30.66 Y3.425
X30.528 Y3.268
X30.444 Y3.174
X30.377 Y3.111
X30.287 Y3.031
X30.13 Y2.913
X29.973 Y2.804
X29.816 Y2.716
X29.658 Y2.638
X29.501 Y2.575
X29.344 Y2.522
X29.186 Y2.482
X29.03 Y2.454
X28.873 Y2.432
X28.716 Y2.422
X28.559 Y2.418
X26.046 Y2.417
X25.866 Y2.426
X25.715 Y2.446
X25.56 Y2.479
X25.39 Y2.53
X25.211 Y2.6
X25.031 Y2.687
X24.839 Y2.8
X24.646 Y2.936
X24.458 Y3.092
X24.271 Y3.274
X24.088 Y3.484
X23.915 Y3.717
X23.758 Y3.971
X23.618 Y4.242
X23.496 Y4.532
X23.396 Y4.84
X23.319 Y5.161
X23.267 Y5.494
X23.242 Y5.834
X23.244 Y6.179
X23.249 Y6.242
X23.306 Y6.469
X23.431 Y6.668
X23.611 Y6.817
X23.718 Y6.88
X24.161 Y7.149
X24.221 Y7.194
X24.363 Y7.304
X24.376 Y7.314
X24.632 Y7.598
X24.682 Y7.666
X24.795 Y7.823
X25.103 Y8.288
X25.184 Y8.451
X25.341 Y8.765
X25.427 Y8.922
X25.574 Y9.183
X25.649 Y9.315
X25.675 Y9.354
X25.707 Y9.393
X25.87 Y9.55
X26.046 Y9.693
X26.258 Y9.844
X26.437 Y9.95
X26.64 Y10.05
X26.855 Y10.135
X27.096 Y10.208
X27.36 Y10.265
X27.639 Y10.303
X27.928 Y10.319
X28.228 Y10.311
X28.539 Y10.278
X28.855 Y10.218
X29.174 Y10.131
X29.49 Y10.016
X29.802 Y9.874
X30.112 Y9.701
X30.418 Y9.498
X30.712 Y9.265
X30.995 Y9.002
X31.01 Y8.986
X31.115 Y8.837
X31.182 Y8.667
X31.204 Y8.486
Y6.422
G2 X30.713 Y6.167 I-0.317 J0.011
G1 X30.618 Y6.23
X26.248 Y9.079
X26.081 Y9.188
G2 X26.046 Y9.693 I0.173 J0.266
G1 X26.262 Y9.864
X26.36 Y9.949
X26.674 Y10.244
X26.767 Y10.336
X26.988 Y10.586
X27.093 Y10.694
X27.211 Y10.786
X27.337 Y10.867
X27.482 Y10.943
X27.637 Y11.009
X27.824 Y11.072
X28.023 Y11.121
X28.249 Y11.158
X28.502 Y11.179
X28.764 Y11.18
X29.055 Y11.157
X29.37 Y11.106
X29.688 Y11.029
X30.02 Y10.919
X30.367 Y10.772
X30.719 Y10.588
X30.857 Y10.502
X31.001 Y10.384
X31.112 Y10.233
X31.181 Y10.06
X31.204 Y9.874
Y8.486
G2 X30.741 Y8.215 I-0.317 J0.011
G1 X30.611 Y8.282
X27.283 Y10.002
X27.088 Y10.103
G2 X26.988 Y10.586 I0.146 J0.282
G1 X27.182 Y10.807
X27.25 Y10.885
X27.291 Y10.964
X27.409 Y11.207
X27.481 Y11.339
X27.576 Y11.456
X27.683 Y11.56
X27.802 Y11.652
X27.928 Y11.733
X28.068 Y11.807
X28.232 Y11.878
X28.412 Y11.938
X28.622 Y11.991
X28.843 Y12.028
X29.099 Y12.05
X29.372 Y12.051
X29.666 Y12.029
X29.995 Y11.977
X30.296 Y11.905
X30.565 Y11.816
X30.773 Y11.729
X30.804 Y11.713
X30.969 Y11.597
X31.096 Y11.441
X31.177 Y11.255
X31.204 Y11.055
Y9.874
G2 X30.775 Y9.588 I-0.317 J0.011
G1 X30.603 Y9.653
X27.839 Y10.688
X27.588 Y10.782
G2 X27.409 Y11.207 I0.111 J0.297
G1 X27.459 Y11.311
X27.511 Y11.435
X27.64 Y11.845
X27.692 Y11.986
X27.763 Y12.118
X27.85 Y12.24
X27.951 Y12.351
X28.063 Y12.451
X28.183 Y12.541
X28.32 Y12.628
X28.481 Y12.712
X28.657 Y12.786
X28.866 Y12.856
X29.086 Y12.91
X29.334 Y12.95
X29.604 Y12.972
X29.88 Y12.971
X30.126 Y12.952
X30.357 Y12.914
X30.56 Y12.864
X30.734 Y12.806
X30.753 Y12.798
X30.937 Y12.685
X31.081 Y12.525
X31.173 Y12.329
X31.204 Y12.116
Y11.055
G2 X30.814 Y10.758 I-0.317 J0.011
G1 X30.596 Y10.809
X28.14 Y11.389
X27.873 Y11.452
G2 X27.64 Y11.845 I0.073 J0.309
G1 X27.804 Y12.377
X27.892 Y12.692
X27.939 Y12.834
X28.007 Y12.967
X28.092 Y13.091
X28.189 Y13.205
X28.297 Y13.31
X28.421 Y13.412
X28.557 Y13.506
X28.721 Y13.601
X28.899 Y13.685
X29.095 Y13.76
X29.312 Y13.823
X29.542 Y13.87
X29.778 Y13.899
X29.992 Y13.908
X30.197 Y13.9
X30.395 Y13.877
X30.559 Y13.843
X30.667 Y13.812
X30.843 Y13.737
X30.992 Y13.619
X31.107 Y13.466
X31.179 Y13.29
X31.204 Y13.1
Y12.116
G2 X30.83 Y11.815 I-0.317 J0.011
G1 X30.593 Y11.858
X28.408 Y12.257
X28.143 Y12.305
G2 X27.892 Y12.692 I0.057 J0.312
G1 X28.132 Y13.563
X28.179 Y13.706
X28.243 Y13.842
X28.323 Y13.969
X28.415 Y14.087
X28.519 Y14.195
X28.637 Y14.299
X28.768 Y14.397
X28.915 Y14.49
X29.082 Y14.577
X29.264 Y14.654
X29.457 Y14.718
X29.657 Y14.767
X29.847 Y14.797
X30.049 Y14.813
X30.224
X30.393 Y14.799
X30.562 Y14.772
X30.641 Y14.752
X30.823 Y14.68
X30.981 Y14.563
X31.102 Y14.408
X31.178 Y14.228
X31.204 Y14.033
Y13.1
G2 X30.838 Y12.798 I-0.317 J0.011
G1 X30.592 Y12.836
X28.651 Y13.136
X28.393 Y13.176
G2 X28.132 Y13.563 I0.049 J0.314
G1 X28.239 Y13.948
X28.342 Y14.419
X28.375 Y14.566
X28.431 Y14.705
X28.505 Y14.835
X28.594 Y14.956
X28.693 Y15.069
X28.802 Y15.172
X28.927 Y15.27
X29.064 Y15.363
X29.213 Y15.446
X29.377 Y15.521
X29.554 Y15.586
X29.729 Y15.634
X29.905 Y15.668
X30.081 Y15.687
X30.235 Y15.692
X30.4 Y15.683
X30.555 Y15.663
X30.619 Y15.649
X30.808 Y15.58
X30.971 Y15.464
X31.097 Y15.308
X31.177 Y15.124
X31.204 Y14.925
Y14.033
G2 X30.838 Y13.73 I-0.317 J0.011
G1 X30.592 Y13.769
X28.916 Y14.032
X28.61 Y14.08
G2 X28.342 Y14.419 I0.049 J0.314
G1 X28.361 Y14.576
X28.389 Y14.891
X28.402 Y15.006
X28.43 Y15.205
X28.459 Y15.352
X28.505 Y15.495
X28.57 Y15.63
X28.65 Y15.757
X28.742 Y15.875
X28.845 Y15.984
X28.959 Y16.084
X29.084 Y16.179
X29.22 Y16.265
X29.371 Y16.345
X29.535 Y16.415
X29.697 Y16.469
X29.86 Y16.509
X30.029 Y16.537
X30.179 Y16.55
X30.334
X30.488 Y16.538
X30.636 Y16.514
X30.644 Y16.512
X30.826 Y16.44
X30.982 Y16.322
X31.103 Y16.168
X31.178 Y15.988
X31.204 Y15.794
Y14.925
G2 X30.852 Y14.62 I-0.317 J0.011
G1 X30.591 Y14.649
X28.997 Y14.824
X28.711 Y14.855
G2 X28.43 Y15.205 I0.035 J0.316
G1 X28.475 Y15.519
X28.559 Y15.991
X28.581 Y16.147
X28.608 Y16.295
X28.662 Y16.434
X28.734 Y16.566
X28.82 Y16.689
X28.918 Y16.803
X29.026 Y16.907
X29.142 Y17.001
X29.271 Y17.088
X29.412 Y17.168
X29.563 Y17.239
X29.718 Y17.296
X29.862 Y17.337
X30.023 Y17.369
X30.172 Y17.386
X30.322 Y17.391
X30.475 Y17.382
X30.627 Y17.361
X30.813 Y17.292
X30.975 Y17.175
X31.099 Y17.019
X31.177 Y16.836
X31.204 Y16.639
Y15.794
G2 X30.838 Y15.491 I-0.317 J0.011
G1 X30.592 Y15.53
X29.15 Y15.756
X28.848 Y15.803
G2 X28.581 Y16.147 I0.049 J0.314
G1 X28.627 Y16.5
X28.602 Y16.744
X28.594 Y16.893
X28.616 Y17.042
X28.66 Y17.185
X28.723 Y17.321
X28.801 Y17.45
X28.891 Y17.569
X28.993 Y17.679
X29.105 Y17.779
X29.226 Y17.871
X29.357 Y17.955
X29.499 Y18.031
X29.651 Y18.097
X29.793 Y18.145
X29.948 Y18.184
X30.097 Y18.209
X30.247 Y18.222
X30.397
X30.547 Y18.209
X30.588 Y18.202
X30.785 Y18.139
X30.957 Y18.024
X31.091 Y17.866
X31.175 Y17.677
X31.204 Y17.472
Y16.639
G2 X30.865 Y16.333 I-0.317 J0.011
G1 X30.59 Y16.352
X29.246 Y16.446
X28.895 Y16.47
G2 X28.602 Y16.744 I0.022 J0.317
G1 X28.583 Y16.932
X28.559 Y17.039
X28.48 Y17.333
X28.449 Y17.48
Y17.63
X28.473 Y17.778
X28.516 Y17.921
X28.575 Y18.059
X28.649 Y18.19
X28.735 Y18.313
X28.831 Y18.428
X28.938 Y18.535
X29.058 Y18.637
X29.187 Y18.731
X29.331 Y18.818
X29.487 Y18.896
X29.639 Y18.958
X29.791 Y19.006
X29.956 Y19.043
X30.104 Y19.065
X30.254 Y19.074
X30.41 Y19.071
X30.559 Y19.056
X30.602 Y19.048
X30.796 Y18.982
X30.964 Y18.866
X31.094 Y18.709
X31.176 Y18.522
X31.204 Y18.32
Y17.472
G2 X30.895 Y17.166 I-0.317 J0.011
G1 X30.589 Y17.157
X29.165 Y17.118
X28.793 Y17.108
G2 X28.48 Y17.333 I-0.009 J0.317
G1 X28.461 Y17.404
X28.402 Y17.596
X28.36 Y17.718
X28.294 Y17.875
X28.239 Y18.015
X28.213 Y18.162
X28.211 Y18.312
X28.229 Y18.461
X28.266 Y18.606
X28.318 Y18.747
X28.384 Y18.882
X28.461 Y19.01
X28.549 Y19.132
X28.651 Y19.251
X28.77 Y19.369
X28.902 Y19.482
X29.047 Y19.586
X29.203 Y19.68
X29.37 Y19.763
X29.546 Y19.834
X29.709 Y19.885
X29.886 Y19.925
X30.052 Y19.948
X30.201 Y19.957
X30.366 Y19.954
X30.516 Y19.939
X30.596 Y19.924
X30.791 Y19.86
X30.961 Y19.744
X31.092 Y19.586
X31.176 Y19.399
X31.204 Y19.195
Y18.32
G2 X30.93 Y18.017 I-0.317 J0.011
G1 X30.592 Y17.97
X29.006 Y17.753
X28.622 Y17.7
G2 X28.294 Y17.875 I-0.043 J0.315
G1 X28.245 Y17.984
X28.076 Y18.346
X28.004 Y18.503
X27.952 Y18.644
X27.916 Y18.789
X27.904 Y18.939
X27.911 Y19.089
X27.936 Y19.237
X27.976 Y19.381
X28.029 Y19.521
X28.094 Y19.656
X28.175 Y19.793
X28.273 Y19.933
X28.384 Y20.067
X28.511 Y20.197
X28.656 Y20.323
X28.816 Y20.442
X28.988 Y20.549
X29.172 Y20.644
X29.365 Y20.725
X29.559 Y20.788
X29.743 Y20.832
X29.94 Y20.863
X30.108 Y20.876
X30.275 Y20.875
X30.445 Y20.86
X30.593 Y20.835
X30.645 Y20.822
X30.826 Y20.75
X30.983 Y20.632
X31.103 Y20.478
X31.178 Y20.298
X31.204 Y20.104
Y19.195
G2 X30.954 Y18.896 I-0.317 J0.011
G1 X30.597 Y18.819
X28.713 Y18.412
X28.355 Y18.335
G2 X28.004 Y18.503 I-0.067 J0.31
G1 X27.931 Y18.673
X27.881 Y18.817
X27.825 Y19.053
X27.82 Y19.092
X27.81 Y19.602
X27.802 Y19.846
X27.804 Y19.996
X27.823 Y20.145
X27.859 Y20.29
X27.91 Y20.431
X27.974 Y20.567
X28.049 Y20.697
X28.143 Y20.833
X28.254 Y20.968
X28.38 Y21.099
X28.523 Y21.226
X28.686 Y21.348
X28.863 Y21.459
X29.051 Y21.558
X29.251 Y21.643
X29.459 Y21.713
X29.665 Y21.764
X29.856 Y21.795
X30.055 Y21.811
X30.223
X30.398 Y21.798
X30.562 Y21.771
X30.639 Y21.752
X30.822 Y21.681
X30.98 Y21.563
X31.101 Y21.409
X31.178 Y21.228
X31.204 Y21.033
Y20.104
G2 X30.915 Y19.799 I-0.317 J0.011
G1 X30.59 Y19.77
X28.427 Y19.577
X28.147 Y19.552
G2 X27.802 Y19.846 I-0.028 J0.316
G1 X27.793 Y20.074
X27.776 Y20.231
X27.706 Y20.702
X27.686 Y20.851
X27.697 Y21.
X27.726 Y21.147
X27.772 Y21.29
X27.83 Y21.428
X27.901 Y21.56
X27.99 Y21.698
X28.092 Y21.831
X28.215 Y21.967
X28.358 Y22.103
X28.516 Y22.229
X28.689 Y22.347
X28.879 Y22.455
X29.082 Y22.549
X29.295 Y22.628
X29.517 Y22.691
X29.725 Y22.732
X29.936 Y22.756
X30.126 Y22.762
X30.297 Y22.754
X30.478 Y22.731
X30.633 Y22.699
X30.673 Y22.687
X30.887 Y22.584
X31.057 Y22.42
X31.166 Y22.21
X31.204 Y21.976
Y21.033
G2 X30.917 Y20.728 I-0.317 J0.011
G1 X30.59 Y20.697
X28.372 Y20.487
X28.046 Y20.456
G2 X27.706 Y20.702 I-0.03 J0.316
G1 X27.629 Y21.105
X27.623 Y21.12
X27.56 Y21.26
X27.506 Y21.399
X27.475 Y21.546
X27.469 Y21.696
X27.481 Y21.845
X27.511 Y21.992
X27.556 Y22.136
X27.612 Y22.275
X27.685 Y22.415
X27.774 Y22.56
X27.879 Y22.702
X28.006 Y22.849
X28.154 Y22.994
X28.317 Y23.13
X28.498 Y23.258
X28.699 Y23.377
X28.914 Y23.482
X29.139 Y23.57
X29.372 Y23.641
X29.61 Y23.692
X29.821 Y23.72
X30.03 Y23.731
X30.232 Y23.726
X30.4 Y23.708
X30.568 Y23.675
X30.66 Y23.65
X30.837 Y23.576
X30.989 Y23.458
X31.106 Y23.305
X31.179 Y23.127
X31.204 Y22.936
Y21.976
G2 X30.947 Y21.676 I-0.317 J0.011
G1 X30.595 Y21.608
X28.27 Y21.159
X27.905 Y21.088
G2 X27.56 Y21.26 I-0.06 J0.312
G1 X27.458 Y21.487
X27.373 Y21.644
X27.27 Y21.801
X27.193 Y21.93
X27.141 Y22.07
X27.11 Y22.217
X27.1 Y22.367
X27.106 Y22.517
X27.128 Y22.665
X27.163 Y22.811
X27.21 Y22.955
X27.276 Y23.11
X27.359 Y23.271
X27.459 Y23.43
X27.582 Y23.595
X27.727 Y23.76
X27.889 Y23.918
X28.074 Y24.07
X28.281 Y24.215
X28.506 Y24.346
X28.745 Y24.462
X28.996 Y24.558
X29.25 Y24.634
X29.507 Y24.688
X29.747 Y24.719
X29.982 Y24.73
X30.186 Y24.723
X30.373 Y24.702
X30.558 Y24.665
X30.714 Y24.621
X30.72 Y24.619
X30.917 Y24.51
X31.071 Y24.348
X31.17 Y24.146
X31.204 Y23.924
Y22.936
G2 X30.974 Y22.642 I-0.317 J0.011
G1 X30.603 Y22.536
X27.997 Y21.791
X27.615 Y21.682
G2 X27.27 Y21.801 I-0.087 J0.305
G1 X27.145 Y21.988
X26.841 Y22.43
X26.762 Y22.557
X26.706 Y22.696
X26.67 Y22.842
X26.652 Y22.991
X26.649 Y23.141
X26.661 Y23.29
X26.685 Y23.438
X26.724 Y23.598
X26.781 Y23.768
X26.854 Y23.938
X26.949 Y24.12
X27.067 Y24.307
X27.203 Y24.488
X27.366 Y24.672
X27.556 Y24.854
X27.769 Y25.028
X28.001 Y25.189
X28.252 Y25.335
X28.521 Y25.463
X28.804 Y25.57
X29.091 Y25.654
X29.378 Y25.713
X29.662 Y25.748
X29.905 Y25.759
X30.133 Y25.75
X30.345 Y25.725
X30.519 Y25.69
X30.702 Y25.638
X30.723 Y25.63
X30.919 Y25.52
X31.072 Y25.358
X31.17 Y25.157
X31.204 Y24.936
Y23.924
G2 X30.991 Y23.635 I-0.317 J0.011
G1 X30.609 Y23.503
X27.562 Y22.445
X27.2 Y22.319
G2 X26.841 Y22.43 I-0.104 J0.3
G1 X26.733 Y22.587
X26.391 Y23.058
X26.309 Y23.184
X26.243 Y23.318
X26.197 Y23.461
X26.167 Y23.608
X26.154 Y23.758
Y23.908
X26.166 Y24.058
X26.194 Y24.227
X26.238 Y24.402
X26.3 Y24.586
X26.385 Y24.785
X26.489 Y24.981
X26.618 Y25.185
X26.777 Y25.395
X26.961 Y25.602
X27.167 Y25.8
X27.403 Y25.992
X27.668 Y26.175
X27.956 Y26.341
X28.264 Y26.487
X28.58 Y26.607
X28.9 Y26.699
X29.219 Y26.765
X29.53 Y26.802
X29.823 Y26.814
X30.06 Y26.805
X30.299 Y26.776
X30.488 Y26.738
X30.673 Y26.685
X30.725 Y26.665
X30.919 Y26.556
X31.073 Y26.394
X31.17 Y26.193
X31.204 Y25.972
Y24.936
G2 X31.004 Y24.652 I-0.317 J0.011
G1 X30.616 Y24.497
X27.108 Y23.098
X26.758 Y22.958
G2 X26.391 Y23.058 I-0.118 J0.295
G1 X25.85 Y23.8
X25.768 Y23.926
X25.707 Y24.063
X25.663 Y24.206
X25.634 Y24.353
X25.621 Y24.503
X25.619 Y24.653
X25.632 Y24.824
X25.659 Y24.998
X25.705 Y25.19
X25.771 Y25.394
X25.856 Y25.6
X25.97 Y25.822
X26.111 Y26.049
X26.275 Y26.272
X26.475 Y26.502
X26.71 Y26.732
X26.973 Y26.951
X27.259 Y27.153
X27.574 Y27.339
X27.913 Y27.504
X28.269 Y27.644
X28.635 Y27.754
X28.995 Y27.832
X29.344 Y27.878
X29.674 Y27.895
X29.948 Y27.888
X30.21 Y27.859
X30.426 Y27.818
X30.611 Y27.767
X30.717 Y27.728
X30.914 Y27.619
X31.07 Y27.457
X31.17 Y27.255
X31.204 Y27.032
Y25.972
G2 X31.008 Y25.69 I-0.317 J0.011
G1 X30.618 Y25.528
X26.566 Y23.847
X26.221 Y23.704
X26.162 Y23.685
X26.1 Y23.679
G2 X25.85 Y23.8 I0. J0.317
G1 X25.704 Y24.
X25.572 Y24.157
X25.375 Y24.367
X25.278 Y24.482
X25.198 Y24.608
X25.135 Y24.745
X25.089 Y24.888
X25.058 Y25.034
X25.04 Y25.183
X25.033 Y25.349
X25.041 Y25.519
X25.064 Y25.713
X25.105 Y25.912
X25.168 Y26.127
X25.256 Y26.361
X25.366 Y26.592
X25.509 Y26.84
X25.687 Y27.097
X25.891 Y27.347
X26.129 Y27.595
X26.407 Y27.842
X26.722 Y28.079
X27.07 Y28.3
X27.443 Y28.496
X27.835 Y28.664
X28.239 Y28.8
X28.64 Y28.899
X29.032 Y28.964
X29.407 Y28.995
X29.756 Y28.996
X30.034 Y28.974
X30.302 Y28.932
X30.504 Y28.882
X30.707 Y28.816
X30.746 Y28.799
X30.924 Y28.692
X31.066 Y28.54
X31.159 Y28.355
X31.198 Y28.15
X31.201 Y28.084
X31.204 Y27.927
Y27.032
G2 X31.02 Y26.755 I-0.317 J0.011
G1 X30.625 Y26.572
X26.095 Y24.473
X25.732 Y24.305
G2 X25.375 Y24.367 I-0.133 J0.288
G1 X24.758 Y25.024
X24.661 Y25.138
X24.581 Y25.265
X24.517 Y25.401
X24.469 Y25.543
X24.434 Y25.689
X24.41 Y25.846
X24.398 Y26.012
X24.4 Y26.197
X24.419 Y26.4
X24.456 Y26.613
X24.517 Y26.85
X24.6 Y27.089
X24.711 Y27.345
X24.859 Y27.619
X25.034 Y27.89
X25.246 Y28.167
X25.503 Y28.451
X25.803 Y28.734
X26.138 Y29.003
X26.502 Y29.25
X26.904 Y29.478
X27.334 Y29.677
X27.782 Y29.843
X28.24 Y29.972
X28.693 Y30.061
X29.116 Y30.109
X29.505 Y30.122
X29.866 Y30.105
X30.144 Y30.07
X30.233 Y30.051
X30.404 Y29.992
X30.555 Y29.894
X30.679 Y29.762
X30.758 Y29.653
X30.856 Y29.498
X30.915 Y29.393
X31.012 Y29.183
X31.072 Y29.007
X31.117 Y28.869
X31.15 Y28.712
X31.179 Y28.555
X31.198 Y28.15
G2 X31.02 Y27.862 I-0.317 J-0.003
G1 X30.636 Y27.673
X25.474 Y25.137
X25.122 Y24.964
G2 X24.758 Y25.024 I-0.14 J0.285
G1 X24.392 Y25.414
X24.161 Y25.642
X24.059 Y25.753
X23.97 Y25.874
X23.897 Y26.005
X23.839 Y26.143
X23.794 Y26.286
X23.762 Y26.435
X23.739 Y26.602
X23.728 Y26.787
X23.733 Y26.986
X23.757 Y27.21
X23.8 Y27.438
X23.869 Y27.693
X23.966 Y27.963
X24.091 Y28.238
X24.258 Y28.538
X24.465 Y28.849
X24.702 Y29.15
X24.987 Y29.458
X25.322 Y29.765
X25.703 Y30.062
X26.126 Y30.341
X26.58 Y30.59
X26.888 Y30.728
X26.985 Y30.763
X27.087 Y30.785
X27.191 Y30.793
X28.559 Y30.792
X28.716 Y30.788
X28.873 Y30.778
X29.043 Y30.754
X29.187 Y30.726
X29.344 Y30.685
X29.501 Y30.633
X29.658 Y30.57
X29.816 Y30.493
X29.973 Y30.405
X30.13 Y30.298
X30.287 Y30.179
X30.348 Y30.126
X30.51 Y29.969
X30.643 Y29.812
X30.679 Y29.762
G2 X30.582 Y29.314 I-0.263 J-0.178
G1 X30.35 Y29.171
X24.861 Y25.801
X24.542 Y25.605
G2 X24.161 Y25.642 I-0.166 J0.271
G1 X24.146 Y25.657
X24.131 Y25.669
X23.69 Y25.956
X23.663 Y25.968
X23.53 Y26.036
X23.416 Y26.133
X23.317 Y26.246
X23.232 Y26.37
X23.16 Y26.501
X23.101 Y26.639
X23.051 Y26.792
X23.011 Y26.957
X22.981 Y27.143
X22.965 Y27.349
Y27.566
X22.986 Y27.814
X23.028 Y28.07
X23.097 Y28.349
X23.2 Y28.654
X23.33 Y28.959
X23.499 Y29.281
X23.717 Y29.624
X23.982 Y29.977
X24.282 Y30.315
X24.564 Y30.586
X24.715 Y30.698
X24.89 Y30.769
X25.077 Y30.793
X27.191
G2 X27.427 Y30.276 I-0.011 J-0.317
G1 X27.375 Y30.212
X24.268 Y26.357
X24.031 Y26.062
G2 X23.663 Y25.968 I-0.247 J0.199
G1 X23.496 Y26.042
X23.375 Y26.095
X23.218 Y26.162
X23.061 Y26.22
X22.921 Y26.274
X22.793 Y26.352
X22.678 Y26.447
X22.574 Y26.556
X22.483 Y26.676
X22.404 Y26.803
X22.336 Y26.938
X22.271 Y27.094
X22.215 Y27.268
X22.171 Y27.459
X22.137 Y27.68
X22.121 Y27.908
X22.124 Y28.167
X22.15 Y28.448
X22.2 Y28.737
X22.283 Y29.06
X22.403 Y29.407
X22.554 Y29.753
X22.752 Y30.121
X22.979 Y30.473
X23.001 Y30.502
X23.164 Y30.658
X23.366 Y30.758
X23.589 Y30.793
X25.077
G2 X25.352 Y30.337 I-0.011 J-0.317
G1 X25.284 Y30.198
X23.584 Y26.691
X23.437 Y26.386
G2 X23.061 Y26.22 I-0.286 J0.139
G1 X22.904 Y26.272
X22.747 Y26.313
X22.347 Y26.411
X22.203 Y26.453
X22.069 Y26.522
X21.946 Y26.608
X21.834 Y26.708
X21.733 Y26.818
X21.642 Y26.937
X21.553 Y27.075
X21.473 Y27.227
X21.397 Y27.401
X21.329 Y27.6
X21.276 Y27.81
X21.234 Y28.056
X21.212 Y28.317
X21.209 Y28.602
X21.233 Y28.922
X21.284 Y29.254
X21.368 Y29.604
X21.488 Y29.974
X21.599 Y30.24
X21.676 Y30.39
X21.792 Y30.556
X21.949 Y30.684
X22.135 Y30.765
X22.335 Y30.793
X23.589
G2 X23.881 Y30.381 I-0.011 J-0.317
G1 X23.821 Y30.188
X22.808 Y26.931
X22.714 Y26.627
G2 X22.347 Y26.411 I-0.303 J0.094
G1 X22.119 Y26.467
X21.947 Y26.513
X21.876 Y26.535
X21.589 Y26.67
X21.54 Y26.701
X21.375 Y26.827
X21.019 Y27.104
X20.903 Y27.198
X20.803 Y27.311
X20.713 Y27.433
X20.628 Y27.57
X20.543 Y27.735
X20.468 Y27.914
X20.399 Y28.127
X20.345 Y28.351
X20.304 Y28.612
X20.283 Y28.898
X20.285 Y29.201
X20.312 Y29.517
X20.359 Y29.796
X20.425 Y30.057
X20.493 Y30.257
X20.532 Y30.346
X20.644 Y30.528
X20.805 Y30.671
X20.999 Y30.761
X21.212 Y30.793
X22.335
G2 X22.622 Y30.367 I-0.011 J-0.317
G1 X22.559 Y30.191
X21.567 Y27.451
X21.497 Y27.257
G2 X21.019 Y27.104 I-0.299 J0.108
G1 X20.862 Y27.219
X20.548 Y27.423
X20.493 Y27.456
X20.234 Y27.602
X20.107 Y27.683
X19.994 Y27.781
X19.892 Y27.891
X19.801 Y28.01
X19.715 Y28.145
X19.633 Y28.299
X19.558 Y28.475
X19.49 Y28.676
X19.437 Y28.887
X19.397 Y29.122
X19.376 Y29.367
X19.375 Y29.596
X19.392 Y29.816
X19.423 Y30.019
X19.464 Y30.188
X19.495 Y30.282
X19.6 Y30.488
X19.764 Y30.651
X19.97 Y30.756
X20.199 Y30.793
X21.212
G2 X21.503 Y30.379 I-0.011 J-0.317
G1 X21.443 Y30.188
X20.753 Y28.009
X20.683 Y27.788
G2 X20.234 Y27.602 I-0.303 J0.096
G1 X20.077 Y27.691
X19.92 Y27.759
X19.566 Y27.887
X19.424 Y27.935
X19.294 Y28.009
X19.174 Y28.099
X19.064 Y28.202
X18.966 Y28.314
X18.875 Y28.437
X18.791 Y28.574
X18.71 Y28.732
X18.639 Y28.904
X18.58 Y29.087
X18.534 Y29.282
X18.505 Y29.468
X18.492 Y29.655
X18.493 Y29.844
X18.508 Y30.003
X18.534 Y30.159
X18.554 Y30.235
X18.627 Y30.416
X18.744 Y30.572
X18.898 Y30.692
X19.078 Y30.767
X19.272 Y30.793
X20.199
G2 X20.495 Y30.395 I-0.011 J-0.317
G1 X20.44 Y30.185
X19.988 Y28.45
X19.902 Y28.123
G2 X19.566 Y27.887 I-0.307 J0.08
G1 X19.134 Y27.941
X18.977 Y27.956
X18.828 Y27.974
X18.685 Y28.017
X18.548 Y28.08
X18.421 Y28.159
X18.303 Y28.252
X18.194 Y28.355
X18.095 Y28.467
X18.001 Y28.592
X17.912 Y28.735
X17.831 Y28.89
X17.761 Y29.054
X17.703 Y29.229
X17.663 Y29.395
X17.634 Y29.575
X17.621 Y29.74
Y29.891
X17.634 Y30.056
X17.659 Y30.204
X17.665 Y30.231
X17.737 Y30.413
X17.855 Y30.57
X18.009 Y30.691
X18.19 Y30.767
X18.384 Y30.793
X19.272
G2 X19.576 Y30.436 I-0.011 J-0.317
G1 X19.544 Y30.179
X19.343 Y28.545
X19.305 Y28.234
G2 X18.977 Y27.956 I-0.315 J0.039
G1 X18.663 Y27.979
X18.506 Y27.99
X18.192 Y28.01
X18.043 Y28.026
X17.897 Y28.062
X17.758 Y28.119
X17.627 Y28.191
X17.504 Y28.277
X17.389 Y28.374
X17.285 Y28.481
X17.186 Y28.601
X17.094 Y28.732
X17.01 Y28.875
X16.934 Y29.032
X16.869 Y29.201
X16.822 Y29.359
X16.787 Y29.524
X16.766 Y29.688
X16.759 Y29.838
X16.764 Y29.996
X16.782 Y30.145
X16.792 Y30.196
X16.858 Y30.388
X16.974 Y30.555
X17.131 Y30.683
X17.317 Y30.765
X17.518 Y30.793
X18.384
G2 X18.69 Y30.45 I-0.011 J-0.317
G1 X18.668 Y30.178
X18.541 Y28.605
X18.516 Y28.302
G2 X18.192 Y28.01 I-0.316 J0.025
G1 X18.035 Y28.019
X17.32 Y28.052
X17.171 Y28.066
X17.026 Y28.106
X16.888 Y28.164
X16.757 Y28.238
X16.635 Y28.325
X16.522 Y28.424
X16.418 Y28.531
X16.321 Y28.649
X16.231 Y28.78
X16.146 Y28.925
X16.071 Y29.083
X16.011 Y29.24
X15.966 Y29.393
X15.931 Y29.562
X15.912 Y29.712
X15.905 Y29.862
X15.912 Y30.019
X15.929 Y30.168
X15.937 Y30.203
X16.004 Y30.393
X16.121 Y30.558
X16.277 Y30.685
X16.462 Y30.765
X16.662 Y30.793
X17.518
G2 X17.824 Y30.448 I-0.011 J-0.317
G1 X17.8 Y30.179
X17.667 Y28.651
X17.639 Y28.341
G2 X17.32 Y28.052 I-0.316 J0.028
G1 X16.597 Y28.084
X16.524 Y28.086
X16.374 Y28.096
X16.227 Y28.127
X16.086 Y28.178
X15.953 Y28.246
X15.827 Y28.328
X15.71 Y28.422
X15.602 Y28.526
X15.503 Y28.639
X15.41 Y28.766
X15.324 Y28.905
X15.247 Y29.054
X15.181 Y29.21
X15.133 Y29.357
X15.094 Y29.521
X15.07 Y29.674
X15.059 Y29.824
X15.061 Y29.98
X15.075 Y30.129
X15.084 Y30.182
X15.148 Y30.378
X15.264 Y30.548
X15.421 Y30.68
X15.61 Y30.764
X15.814 Y30.793
X16.662
G2 X16.968 Y30.455 I-0.011 J-0.317
G1 X16.95 Y30.178
X16.856 Y28.693
X16.836 Y28.383
G2 X16.524 Y28.086 I-0.317 J0.02
G1 X16.464 Y28.087
X15.993 Y28.069
X15.788 Y28.052
X15.638 Y28.047
X15.49 Y28.067
X15.345 Y28.108
X15.207 Y28.167
X15.076 Y28.241
X14.954 Y28.327
X14.84 Y28.424
X14.734 Y28.531
X14.635 Y28.649
X14.543 Y28.778
X14.457 Y28.922
X14.38 Y29.078
X14.319 Y29.232
X14.272 Y29.385
X14.236 Y29.551
X14.215 Y29.7
X14.207 Y29.85
X14.211 Y30.006
X14.227 Y30.155
X14.235 Y30.196
X14.302 Y30.388
X14.418 Y30.554
X14.575 Y30.683
X14.761 Y30.765
X14.962 Y30.793
X15.814
G2 X16.12 Y30.468 I-0.011 J-0.317
G1 X16.113 Y30.178
X16.077 Y28.691
X16.069 Y28.36
G2 X15.788 Y28.052 I-0.317 J0.008
G1 X14.964 Y27.985
X14.814 Y27.98
X14.665 Y28.002
X14.521 Y28.043
X14.383 Y28.102
X14.252 Y28.175
X14.129 Y28.26
X14.013 Y28.356
X13.907 Y28.461
X13.803 Y28.581
X13.705 Y28.715
X13.616 Y28.86
X13.536 Y29.017
X13.469 Y29.18
X13.42 Y29.333
X13.38 Y29.502
X13.356 Y29.66
X13.346 Y29.809
X13.348 Y29.969
X13.362 Y30.118
X13.374 Y30.182
X13.438 Y30.378
X13.553 Y30.548
X13.711 Y30.68
X13.899 Y30.764
X14.103 Y30.793
X14.962
G2 X15.269 Y30.472 I-0.011 J-0.317
G1 X15.265 Y30.177
X15.248 Y28.624
X15.245 Y28.297
G2 X14.964 Y27.985 I-0.317 J0.004
G1 X14.579 Y27.954
X14.422 Y27.939
X14.217 Y27.907
X14.068 Y27.891
X13.919 Y27.901
X13.772 Y27.933
X13.63 Y27.982
X13.495 Y28.047
X13.366 Y28.124
X13.246 Y28.213
X13.131 Y28.314
X13.021 Y28.427
X12.917 Y28.554
X12.819 Y28.694
X12.728 Y28.849
X12.649 Y29.014
X12.584 Y29.181
X12.537 Y29.341
X12.499 Y29.518
X12.479 Y29.675
X12.472 Y29.825
X12.477 Y29.989
X12.494 Y30.138
X12.506 Y30.197
X12.573 Y30.388
X12.689 Y30.555
X12.846 Y30.683
X13.032 Y30.765
X13.233 Y30.793
X14.103
G2 X14.409 Y30.484 I-0.011 J-0.317
G1 X14.418 Y30.178
X14.465 Y28.566
X14.475 Y28.228
G2 X14.217 Y27.907 I-0.317 J-0.009
G1 X13.97 Y27.868
X13.637 Y27.739
X13.497 Y27.684
X13.347 Y27.67
X13.198 Y27.679
X13.05 Y27.706
X12.907 Y27.75
X12.769 Y27.808
X12.636 Y27.879
X12.509 Y27.962
X12.385 Y28.058
X12.262 Y28.17
X12.141 Y28.299
X12.027 Y28.442
X11.923 Y28.598
X11.829 Y28.765
X11.747 Y28.943
X11.678 Y29.13
X11.631 Y29.304
X11.594 Y29.491
X11.576 Y29.662
X11.571 Y29.817
X11.58 Y29.987
X11.6 Y30.138
X11.615 Y30.208
X11.683 Y30.396
X11.8 Y30.56
X11.956 Y30.686
X12.14 Y30.765
X12.339 Y30.793
X13.233
G2 X13.537 Y30.509 I-0.011 J-0.317
G1 X13.573 Y30.179
X13.758 Y28.459
X13.802 Y28.052
G2 X13.637 Y27.739 I-0.316 J-0.034
G1 X13.479 Y27.661
X13.108 Y27.456
X12.974 Y27.39
X12.828 Y27.353
X12.679 Y27.339
X12.529 Y27.344
X12.381 Y27.366
X12.235 Y27.403
X12.094 Y27.453
X11.956 Y27.516
X11.817 Y27.593
X11.673 Y27.688
X11.53 Y27.801
X11.393 Y27.929
X11.26 Y28.073
X11.133 Y28.236
X11.015 Y28.414
X10.912 Y28.603
X10.822 Y28.803
X10.748 Y29.011
X10.694 Y29.215
X10.658 Y29.409
X10.638 Y29.608
X10.635 Y29.775
X10.645 Y29.953
X10.669 Y30.117
X10.702 Y30.264
X10.704 Y30.272
X10.808 Y30.482
X10.973 Y30.649
X11.181 Y30.756
X11.412 Y30.793
X12.339
G2 X12.638 Y30.545 I-0.011 J-0.317
G1 X12.718 Y30.186
X13.17 Y28.176
X13.255 Y27.798
G2 X13.108 Y27.456 I-0.31 J-0.07
G1 X13.008 Y27.4
X12.851 Y27.29
X12.694 Y27.175
X12.616 Y27.115
X12.493 Y27.03
X12.355 Y26.971
X12.209 Y26.934
X12.06 Y26.916
X11.91 Y26.915
X11.761 Y26.929
X11.614 Y26.957
X11.469 Y26.998
X11.316 Y27.054
X11.155 Y27.128
X10.995 Y27.218
X10.834 Y27.327
X10.671 Y27.457
X10.51 Y27.608
X10.358 Y27.776
X10.216 Y27.961
X10.084 Y28.162
X9.967 Y28.38
X9.867 Y28.606
X9.785 Y28.841
X9.723 Y29.081
X9.682 Y29.316
X9.663 Y29.512
X9.66 Y29.726
X9.673 Y29.91
X9.696 Y30.07
X9.737 Y30.245
X9.747 Y30.276
X9.851 Y30.484
X10.015 Y30.65
X10.223 Y30.756
X10.453 Y30.793
X11.412
G2 X11.702 Y30.573 I-0.011 J-0.317
G1 X11.825 Y30.195
X12.59 Y27.844
X12.716 Y27.459
G2 X12.616 Y27.115 I-0.302 J-0.098
G1 X12.223 Y26.812
X12.066 Y26.693
X12.026 Y26.67
X11.909 Y26.608
X11.667 Y26.523
X11.521 Y26.485
X11.373 Y26.464
X11.223 Y26.459
X11.073 Y26.469
X10.921 Y26.492
X10.763 Y26.53
X10.599 Y26.583
X10.423 Y26.656
X10.246 Y26.746
X10.068 Y26.856
X9.884 Y26.991
X9.702 Y27.149
X9.528 Y27.326
X9.362 Y27.525
X9.205 Y27.746
X9.062 Y27.988
X8.939 Y28.239
X8.836 Y28.503
X8.755 Y28.771
X8.697 Y29.038
X8.661 Y29.301
X8.65 Y29.518
X8.656 Y29.749
X8.677 Y29.941
X8.709 Y30.11
X8.759 Y30.293
X8.763 Y30.305
X8.872 Y30.502
X9.035 Y30.658
X9.237 Y30.758
X9.46 Y30.793
X10.453
G2 X10.74 Y30.584 I-0.011 J-0.317
G1 X10.88 Y30.2
X11.93 Y27.313
X12.047 Y26.991
G2 X11.909 Y26.608 I-0.298 J-0.109
G1 X11.678 Y26.513
X11.595 Y26.485
X11.437 Y26.451
X11.28 Y26.414
X10.966 Y26.335
X10.809 Y26.293
X10.652 Y26.236
X10.509 Y26.193
X10.36 Y26.172
X10.21 Y26.169
X10.06 Y26.18
X9.913 Y26.206
X9.762 Y26.245
X9.598 Y26.302
X9.426 Y26.377
X9.252 Y26.471
X9.065 Y26.592
X8.881 Y26.733
X8.699 Y26.897
X8.517 Y27.09
X8.341 Y27.311
X8.177 Y27.553
X8.03 Y27.813
X7.901 Y28.091
X7.795 Y28.378
X7.712 Y28.674
X7.655 Y28.966
X7.622 Y29.254
X7.614 Y29.499
X7.625 Y29.734
X7.653 Y29.945
X7.69 Y30.12
X7.745 Y30.306
X7.75 Y30.319
X7.86 Y30.512
X8.022 Y30.663
X8.222 Y30.759
X8.441 Y30.793
X9.46
G2 X9.755 Y30.56 I-0.011 J-0.317
G1 X9.856 Y30.19
X10.755 Y26.926
X10.841 Y26.616
G2 X10.652 Y26.236 I-0.306 J-0.084
G1 X10.495 Y26.18
X10.338 Y26.12
X9.867 Y25.924
X9.726 Y25.873
X9.58 Y25.839
X9.431 Y25.823
X9.281
X9.131 Y25.837
X8.982 Y25.865
X8.821 Y25.908
X8.648 Y25.97
X8.472 Y26.05
X8.28 Y26.156
X8.091 Y26.281
X7.897 Y26.433
X7.698 Y26.616
X7.506 Y26.825
X7.325 Y27.056
X7.152 Y27.317
X6.994 Y27.604
X6.856 Y27.911
X6.743 Y28.227
X6.656 Y28.548
X6.597 Y28.868
X6.565 Y29.179
X6.559 Y29.464
X6.573 Y29.701
X6.605 Y29.932
X6.646 Y30.115
X6.704 Y30.303
X6.713 Y30.326
X6.824 Y30.516
X6.986 Y30.665
X7.184 Y30.76
X7.401 Y30.793
X8.441
G2 X8.733 Y30.568 I-0.011 J-0.317
G1 X8.848 Y30.193
X9.941 Y26.621
X10.037 Y26.306
G2 X9.867 Y25.924 I-0.304 J-0.093
G1 X9.851 Y25.918
X9.553 Y25.714
X9.474 Y25.657
X9.431 Y25.616
X9.316 Y25.519
X9.186 Y25.445
X9.046 Y25.391
X8.901 Y25.355
X8.752 Y25.335
X8.602 Y25.33
X8.446 Y25.338
X8.288 Y25.359
X8.109 Y25.398
X7.925 Y25.453
X7.731 Y25.529
X7.522 Y25.631
X7.316 Y25.753
X7.102 Y25.904
X6.881 Y26.089
X6.665 Y26.3
X6.459 Y26.537
X6.258 Y26.809
X6.071 Y27.111
X5.903 Y27.439
X5.759 Y27.785
X5.644 Y28.141
X5.56 Y28.494
X5.506 Y28.844
X5.482 Y29.179
X5.484 Y29.482
X5.506 Y29.732
X5.546 Y29.967
X5.594 Y30.153
X5.66 Y30.347
X5.773 Y30.529
X5.933 Y30.671
X6.127 Y30.762
X6.34 Y30.793
X7.401
G2 X7.686 Y30.591 I-0.011 J-0.317
G1 X7.838 Y30.203
X9.349 Y26.346
X9.501 Y25.956
G2 X9.431 Y25.616 I-0.296 J-0.116
G1 X9.395 Y25.583
X9.081 Y25.252
X8.938 Y25.1
X8.831 Y24.995
X8.707 Y24.911
X8.572 Y24.844
X8.431 Y24.794
X8.285 Y24.759
X8.137 Y24.738
X7.977 Y24.729
X7.81 Y24.732
X7.628 Y24.751
X7.428 Y24.788
X7.225 Y24.843
X7.002 Y24.923
X6.772 Y25.027
X6.541 Y25.154
X6.296 Y25.316
X6.045 Y25.513
X5.805 Y25.734
X5.567 Y25.993
X5.335 Y26.289
X5.116 Y26.62
X4.918 Y26.979
X4.746 Y27.359
X4.605 Y27.754
X4.498 Y28.153
X4.426 Y28.542
X4.387 Y28.92
X4.379 Y29.276
X4.397 Y29.578
X4.433 Y29.836
X4.483 Y30.059
X4.54 Y30.245
X4.573 Y30.326
X4.683 Y30.516
X4.845 Y30.665
X5.043 Y30.76
X5.261 Y30.792
X6.34 Y30.793
G2 X6.617 Y30.608 I-0.011 J-0.317
G1 X6.798 Y30.213
X8.811 Y25.824
X8.987 Y25.44
G2 X8.938 Y25.1 I-0.289 J-0.132
G1 X8.61 Y24.741
X8.509 Y24.629
X8.408 Y24.513
X8.304 Y24.406
X8.185 Y24.314
X8.055 Y24.239
X7.918 Y24.179
X7.775 Y24.133
X7.629 Y24.101
X7.472 Y24.079
X7.293 Y24.069
X7.11 Y24.074
X6.901 Y24.095
X6.684 Y24.136
X6.453 Y24.199
X6.201 Y24.289
X5.948 Y24.404
X5.685 Y24.55
X5.408 Y24.734
X5.126 Y24.955
X4.857 Y25.205
X4.587 Y25.498
X4.325 Y25.834
X4.079 Y26.207
X3.857 Y26.611
X3.666 Y27.038
X3.509 Y27.479
X3.389 Y27.926
X3.309 Y28.364
X3.266 Y28.783
X3.258 Y29.177
X3.278 Y29.506
X3.318 Y29.788
X3.358 Y29.965
X3.428 Y30.153
X3.545 Y30.315
X3.702 Y30.44
X3.741 Y30.462
X3.898 Y30.541
X4.055 Y30.611
X4.212 Y30.665
X4.369 Y30.713
X4.526 Y30.744
X4.683 Y30.773
X4.84 Y30.784
X4.997 Y30.792
X5.261
G2 X5.533 Y30.618 I-0.011 J-0.317
G1 X5.734 Y30.22
X8.256 Y25.232
X8.445 Y24.857
G2 X8.408 Y24.513 I-0.283 J-0.143
G1 X7.825 Y23.845
X7.72 Y23.738
X7.603 Y23.644
X7.475 Y23.567
X7.339 Y23.503
X7.197 Y23.453
X7.044 Y23.414
X6.882 Y23.385
X6.698 Y23.368
X6.498 Y23.366
X6.286 Y23.381
X6.045 Y23.417
X5.802 Y23.474
X5.535 Y23.559
X5.248 Y23.677
X4.964 Y23.822
X4.665 Y24.005
X4.353 Y24.233
X4.036 Y24.506
X3.736 Y24.81
X3.441 Y25.161
X3.159 Y25.559
X2.898 Y25.996
X2.667 Y26.465
X2.473 Y26.955
X2.447 Y27.041
X2.429 Y27.112
X2.418 Y27.185
X2.414 Y27.258
Y27.927
X2.417 Y28.084
X2.439 Y28.555
X2.468 Y28.712
X2.501 Y28.869
X2.552 Y29.026
X2.606 Y29.183
X2.682 Y29.341
X2.761 Y29.498
X2.865 Y29.655
X2.955 Y29.788
X3.116 Y29.969
X3.272 Y30.126
X3.427 Y30.256
X3.584 Y30.369
X3.702 Y30.44
G2 X4.126 Y30.326 I0.152 J-0.279
G1 X4.283 Y30.069
X7.644 Y24.548
X7.85 Y24.211
G2 X7.825 Y23.845 I-0.271 J-0.165
G1 X7.668 Y23.666
X7.511 Y23.481
X7.353 Y23.296
X7.295 Y23.215
X7.204 Y23.095
X7.096 Y22.991
X6.976 Y22.902
X6.846 Y22.827
X6.709 Y22.766
X6.567 Y22.717
X6.404 Y22.674
X6.228 Y22.643
X6.031 Y22.625
X5.811 Y22.622
X5.583 Y22.637
X5.322 Y22.676
X5.055 Y22.738
X4.766 Y22.83
X4.449 Y22.96
X4.131 Y23.121
X3.804 Y23.321
X3.461 Y23.571
X3.11 Y23.873
X2.767 Y24.219
X2.589 Y24.431
X2.494 Y24.575
X2.434 Y24.737
X2.414 Y24.909
Y27.258
G2 X2.944 Y27.483 I0.317 J-0.011
G1 X2.992 Y27.439
X6.985 Y23.848
X7.238 Y23.62
G2 X7.295 Y23.215 I-0.212 J-0.236
G1 X7.039 Y22.837
X6.813 Y22.5
X6.723 Y22.38
X6.62 Y22.272
X6.503 Y22.177
X6.378 Y22.095
X6.244 Y22.026
X6.101 Y21.967
X5.941 Y21.915
X5.757 Y21.872
X5.563 Y21.842
X5.334 Y21.826
X5.099 Y21.828
X4.833 Y21.852
X4.543 Y21.901
X4.248 Y21.977
X3.918 Y22.09
X3.565 Y22.244
X3.216 Y22.43
X2.844 Y22.669
X2.706 Y22.775
X2.549 Y22.938
X2.449 Y23.14
X2.414 Y23.364
Y24.909
G2 X2.892 Y25.172 I0.317 J-0.011
G1 X3.004 Y25.106
X6.464 Y23.083
X6.704 Y22.942
G2 X6.813 Y22.5 I-0.16 J-0.274
G1 X6.343 Y21.801
X6.294 Y21.725
X6.207 Y21.603
X6.106 Y21.492
X5.992 Y21.395
X5.868 Y21.31
X5.737 Y21.237
X5.587 Y21.169
X5.428 Y21.112
X5.237 Y21.06
X5.038 Y21.023
X4.805 Y20.999
X4.554 Y20.993
X4.28 Y21.009
X3.971 Y21.052
X3.657 Y21.122
X3.312 Y21.228
X3.029 Y21.34
X2.827 Y21.44
X2.657 Y21.556
X2.526 Y21.713
X2.443 Y21.901
X2.414 Y22.104
Y23.364
G2 X2.861 Y23.643 I0.317 J-0.011
G1 X3.011 Y23.576
X5.923 Y22.279
X6.151 Y22.178
G2 X6.294 Y21.725 I-0.129 J-0.29
G1 X6.242 Y21.644
X6.161 Y21.487
X5.992 Y21.114
X5.986 Y21.095
X5.945 Y20.95
X5.864 Y20.824
X5.767 Y20.71
X5.658 Y20.607
X5.539 Y20.515
X5.409 Y20.433
X5.266 Y20.357
X5.094 Y20.283
X4.911 Y20.221
X4.694 Y20.167
X4.466 Y20.129
X4.206 Y20.106
X3.923 Y20.105
X3.637 Y20.127
X3.381 Y20.167
X3.137 Y20.226
X2.947 Y20.288
X2.869 Y20.321
X2.683 Y20.433
X2.538 Y20.594
X2.446 Y20.79
X2.414 Y21.004
Y22.104
G2 X2.829 Y22.395 I0.317 J-0.011
G1 X3.018 Y22.335
X5.455 Y21.552
X5.77 Y21.451
G2 X5.986 Y21.095 I-0.097 J-0.302
G1 X5.904 Y20.702
X5.876 Y20.545
X5.863 Y20.458
X5.833 Y20.311
X5.775 Y20.173
X5.699 Y20.044
X5.609 Y19.924
X5.506 Y19.815
X5.394 Y19.715
X5.269 Y19.62
X5.118 Y19.524
X4.955 Y19.438
X4.762 Y19.356
X4.553 Y19.285
X4.33 Y19.23
X4.087 Y19.19
X3.835 Y19.169
X3.608 Y19.168
X3.384 Y19.185
X3.184 Y19.217
X3.016 Y19.258
X2.923 Y19.288
X2.718 Y19.394
X2.555 Y19.557
X2.45 Y19.763
X2.414 Y19.992
Y21.004
G2 X2.787 Y21.306 I0.317 J-0.011
G1 X3.025 Y21.264
X5.302 Y20.861
X5.603 Y20.808
G2 X5.863 Y20.458 I-0.055 J-0.313
G1 X5.829 Y20.231
X5.82 Y20.074
X5.814 Y19.791
X5.803 Y19.642
X5.767 Y19.496
X5.71 Y19.357
X5.638 Y19.226
X5.553 Y19.102
X5.456 Y18.988
X5.346 Y18.878
X5.219 Y18.77
X5.069 Y18.661
X4.906 Y18.562
X4.722 Y18.47
X4.518 Y18.387
X4.301 Y18.319
X4.076 Y18.268
X3.852 Y18.235
X3.651 Y18.222
X3.434 Y18.226
X3.251 Y18.244
X3.089 Y18.273
X2.909 Y18.321
X2.709 Y18.428
X2.551 Y18.591
X2.449 Y18.795
X2.414 Y19.02
Y19.992
G2 X2.754 Y20.297 I0.317 J-0.011
G1 X3.029 Y20.278
X5.206 Y20.126
X5.518 Y20.104
G2 X5.814 Y19.791 I-0.022 J-0.317
G1 X5.797 Y19.131
X5.794 Y19.073
X5.783 Y19.015
X5.739 Y18.817
X5.718 Y18.739
X5.626 Y18.527
X5.551 Y18.377
X5.473 Y18.248
X5.383 Y18.128
X5.28 Y18.012
X5.165 Y17.902
X5.028 Y17.791
X4.874 Y17.685
X4.707 Y17.589
X4.522 Y17.502
X4.322 Y17.427
X4.113 Y17.367
X3.894 Y17.322
X3.702 Y17.299
X3.509 Y17.292
X3.32 Y17.299
X3.16 Y17.319
X2.999 Y17.352
X2.949 Y17.366
X2.774 Y17.442
X2.625 Y17.561
X2.511 Y17.713
X2.439 Y17.889
X2.414 Y18.078
Y19.02
G2 X2.776 Y19.323 I0.317 J-0.011
G1 X3.027 Y19.288
X5.166 Y18.988
X5.375 Y18.958
G2 X5.626 Y18.527 I-0.044 J-0.314
G1 X5.543 Y18.346
X5.398 Y18.032
X5.328 Y17.875
X5.311 Y17.836
X5.268 Y17.718
X5.219 Y17.561
X5.168 Y17.42
X5.099 Y17.287
X5.014 Y17.163
X4.917 Y17.049
X4.809 Y16.944
X4.693 Y16.849
X4.563 Y16.76
X4.414 Y16.674
X4.254 Y16.598
X4.084 Y16.534
X3.906 Y16.483
X3.74 Y16.449
X3.559 Y16.427
X3.398 Y16.42
X3.244 Y16.426
X3.083 Y16.446
X3.007 Y16.461
X2.817 Y16.528
X2.651 Y16.645
X2.523 Y16.801
X2.442 Y16.987
X2.414 Y17.187
Y18.078
G2 X2.792 Y18.379 I0.317 J-0.011
G1 X3.025 Y18.333
X4.714 Y18.005
X4.973 Y17.955
G2 X5.219 Y17.561 I-0.061 J-0.312
G1 X5.154 Y17.347
X5.043 Y16.972
X5.039 Y16.952
X5.028 Y16.846
X5.005 Y16.698
X4.959 Y16.555
X4.893 Y16.42
X4.811 Y16.295
X4.715 Y16.179
X4.608 Y16.074
X4.492 Y15.979
X4.369 Y15.893
X4.234 Y15.815
X4.085 Y15.744
X3.933 Y15.687
X3.783 Y15.643
X3.619 Y15.61
X3.47 Y15.591
X3.32 Y15.585
X3.167 Y15.592
X3.018 Y15.61
X2.999 Y15.615
X2.81 Y15.683
X2.647 Y15.8
X2.521 Y15.956
X2.441 Y16.14
X2.414 Y16.339
Y17.187
G2 X2.781 Y17.49 I0.317 J-0.011
G1 X3.026 Y17.452
X4.449 Y17.23
X4.76 Y17.181
G2 X5.028 Y16.846 I-0.049 J-0.314
G1 X4.993 Y16.506
X4.992 Y16.495
X5.022 Y16.218
X5.03 Y16.068
X5.007 Y15.92
X4.961 Y15.777
X4.897 Y15.641
X4.817 Y15.514
X4.725 Y15.396
X4.623 Y15.286
X4.51 Y15.187
X4.389 Y15.096
X4.255 Y15.012
X4.11 Y14.936
X3.96 Y14.873
X3.818 Y14.826
X3.66 Y14.787
X3.512 Y14.764
X3.362 Y14.752
X3.21 Y14.754
X3.06 Y14.767
X3.024 Y14.774
X2.828 Y14.838
X2.658 Y14.954
X2.526 Y15.111
X2.443 Y15.299
X2.414 Y15.503
Y16.339
G2 X2.756 Y16.644 I0.317 J-0.011
G1 X3.028 Y16.623
X4.377 Y16.517
X4.732 Y16.49
G2 X5.022 Y16.218 I-0.025 J-0.317
G1 X5.047 Y15.99
X5.118 Y15.519
X5.135 Y15.37
X5.12 Y15.221
X5.083 Y15.075
X5.028 Y14.936
X4.958 Y14.803
X4.875 Y14.678
X4.78 Y14.562
X4.676 Y14.454
X4.562 Y14.354
X4.435 Y14.26
X4.295 Y14.172
X4.143 Y14.093
X3.991 Y14.029
X3.845 Y13.981
X3.68 Y13.941
X3.532 Y13.917
X3.382 Y13.906
X3.226 Y13.907
X3.077 Y13.92
X3.026 Y13.929
X2.83 Y13.993
X2.659 Y14.108
X2.527 Y14.266
X2.443 Y14.455
X2.414 Y14.659
Y15.503
G2 X2.737 Y15.809 I0.317 J-0.011
G1 X3.029 Y15.804
X4.458 Y15.78
X4.812 Y15.774
G2 X5.118 Y15.519 I-0.005 J-0.317
G1 X5.196 Y15.048
X5.239 Y14.804
X5.258 Y14.655
X5.253 Y14.505
X5.226 Y14.358
X5.181 Y14.215
X5.119 Y14.078
X5.045 Y13.948
X4.958 Y13.825
X4.861 Y13.711
X4.753 Y13.602
X4.631 Y13.498
X4.496 Y13.399
X4.347 Y13.308
X4.186 Y13.228
X4.025 Y13.162
X3.871 Y13.113
X3.699 Y13.073
X3.544 Y13.051
X3.394 Y13.041
X3.233 Y13.044
X3.084 Y13.058
X3.021 Y13.07
X2.827 Y13.134
X2.657 Y13.25
X2.526 Y13.408
X2.443 Y13.595
X2.414 Y13.798
Y14.659
G2 X2.719 Y14.965 I0.317 J-0.011
G1 X3.029 Y14.977
X4.574 Y15.04
X4.916 Y15.054
G2 X5.239 Y14.804 I0.013 J-0.317
G1 X5.381 Y14.019
X5.401 Y13.87
X5.397 Y13.72
X5.373 Y13.572
X5.33 Y13.428
X5.272 Y13.29
X5.201 Y13.158
X5.118 Y13.033
X5.024 Y12.914
X4.913 Y12.795
X4.79 Y12.682
X4.654 Y12.577
X4.505 Y12.479
X4.342 Y12.39
X4.167 Y12.312
X3.996 Y12.252
X3.828 Y12.207
X3.649 Y12.175
X3.494 Y12.16
X3.336 Y12.157
X3.175 Y12.167
X3.026 Y12.188
X2.987 Y12.197
X2.802 Y12.268
X2.642 Y12.385
X2.519 Y12.54
X2.441 Y12.723
X2.414 Y12.919
Y13.798
G2 X2.709 Y14.104 I0.317 J-0.011
G1 X3.029 Y14.126
X4.717 Y14.245
X5.049 Y14.268
G2 X5.381 Y14.019 I0.022 J-0.317
G1 X5.48 Y13.477
X5.52 Y13.32
X5.534 Y13.272
X5.568 Y13.126
X5.573 Y12.976
X5.557 Y12.827
X5.523 Y12.681
X5.473 Y12.54
X5.41 Y12.404
X5.334 Y12.274
X5.245 Y12.147
X5.143 Y12.023
X5.023 Y11.9
X4.886 Y11.78
X4.736 Y11.669
X4.574 Y11.568
X4.401 Y11.478
X4.216 Y11.4
X4.023 Y11.336
X3.849 Y11.294
X3.66 Y11.264
X3.49 Y11.251
X3.334
X3.164 Y11.266
X3.016 Y11.29
X2.976 Y11.3
X2.794 Y11.373
X2.637 Y11.49
X2.516 Y11.644
X2.44 Y11.825
X2.414 Y12.019
Y12.919
G2 X2.698 Y13.224 I0.317 J-0.011
G1 X3.028 Y13.259
X4.847 Y13.453
X5.198 Y13.49
G2 X5.534 Y13.272 I0.034 J-0.316
G1 X5.626 Y12.951
X5.707 Y12.692
X5.757 Y12.535
X5.795 Y12.389
X5.806 Y12.24
X5.796 Y12.09
X5.769 Y11.943
X5.727 Y11.799
X5.671 Y11.66
X5.602 Y11.524
X5.521 Y11.391
X5.421 Y11.255
X5.303 Y11.117
X5.169 Y10.985
X5.021 Y10.861
X4.855 Y10.743
X4.675 Y10.636
X4.484 Y10.542
X4.281 Y10.461
X4.071 Y10.397
X3.878 Y10.355
X3.68 Y10.327
X3.497 Y10.317
X3.334 Y10.321
X3.158 Y10.34
X3.004 Y10.368
X2.961 Y10.38
X2.783 Y10.455
X2.63 Y10.572
X2.513 Y10.726
X2.439 Y10.904
X2.414 Y11.095
Y12.019
G2 X2.683 Y12.322 I0.317 J-0.011
G1 X3.025 Y12.375
X5.067 Y12.689
X5.409 Y12.742
G2 X5.757 Y12.535 I0.048 J-0.314
G1 X5.955 Y11.906
X6.006 Y11.749
X6.046 Y11.605
X6.06 Y11.455
X6.054 Y11.305
X6.032 Y11.157
X5.994 Y11.012
X5.943 Y10.871
X5.877 Y10.729
X5.797 Y10.586
X5.7 Y10.442
X5.581 Y10.294
X5.445 Y10.149
X5.292 Y10.011
X5.121 Y9.88
X4.932 Y9.757
X4.729 Y9.648
X4.516 Y9.554
X4.294 Y9.477
X4.065 Y9.418
X3.856 Y9.381
X3.646 Y9.361
X3.456 Y9.359
X3.284 Y9.37
X3.104 Y9.397
X2.952 Y9.433
X2.93 Y9.44
X2.722 Y9.544
X2.557 Y9.708
X2.451 Y9.916
X2.414 Y10.145
Y11.095
G2 X2.673 Y11.396 I0.317 J-0.011
G1 X3.024 Y11.462
X5.316 Y11.889
X5.65 Y11.952
G2 X6.006 Y11.749 I0.058 J-0.312
G1 X6.11 Y11.435
X6.174 Y11.278
X6.254 Y11.101
X6.309 Y10.962
X6.346 Y10.817
X6.362 Y10.668
X6.358 Y10.518
X6.338 Y10.369
X6.304 Y10.223
X6.258 Y10.08
X6.194 Y9.93
X6.117 Y9.78
X6.018 Y9.622
X5.899 Y9.462
X5.764 Y9.308
X5.606 Y9.154
X5.424 Y9.004
X5.225 Y8.865
X5.01 Y8.739
X4.782 Y8.629
X4.544 Y8.537
X4.299 Y8.464
X4.05 Y8.411
X3.821 Y8.382
X3.616 Y8.372
X3.401 Y8.379
X3.224 Y8.399
X3.058 Y8.431
X2.955 Y8.46
X2.779 Y8.535
X2.628 Y8.653
X2.512 Y8.806
X2.439 Y8.984
X2.414 Y9.174
Y10.145
G2 X2.653 Y10.442 I0.317 J-0.011
G1 X3.018 Y10.535
X5.548 Y11.18
X5.892 Y11.267
G2 X6.254 Y11.101 I0.078 J-0.308
G1 X6.317 Y10.964
X6.411 Y10.836
X6.561 Y10.65
X6.655 Y10.533
X6.723 Y10.4
X6.77 Y10.257
X6.798 Y10.11
X6.808 Y9.96
X6.803 Y9.81
X6.785 Y9.661
X6.752 Y9.507
X6.704 Y9.347
X6.64 Y9.182
X6.555 Y9.005
X6.451 Y8.829
X6.327 Y8.652
X6.177 Y8.471
X6.003 Y8.292
X5.811 Y8.124
X5.597 Y7.965
X5.36 Y7.817
X5.106 Y7.686
X4.842 Y7.575
X4.568 Y7.485
X4.293 Y7.419
X4.02 Y7.376
X3.779 Y7.358
X3.539 Y7.359
X3.345 Y7.375
X3.146 Y7.408
X2.974 Y7.451
X2.918 Y7.47
X2.714 Y7.577
X2.553 Y7.74
X2.45 Y7.945
X2.414 Y8.172
Y9.174
G2 X2.626 Y9.462 I0.317 J-0.011
G1 X3.008 Y9.597
X5.828 Y10.59
X6.225 Y10.73
G2 X6.561 Y10.65 I0.106 J-0.299
G1 X6.725 Y10.465
X6.846 Y10.336
X6.998 Y10.179
X7.039 Y10.137
X7.145 Y10.03
X7.222 Y9.902
X7.28 Y9.763
X7.32 Y9.619
X7.344 Y9.471
X7.354 Y9.321
X7.351 Y9.171
X7.334 Y9.006
X7.304 Y8.838
X7.254 Y8.654
X7.186 Y8.462
X7.099 Y8.269
X6.987 Y8.066
X6.849 Y7.857
X6.691 Y7.654
X6.506 Y7.452
X6.291 Y7.254
X6.049 Y7.064
X5.785 Y6.888
X5.502 Y6.731
X5.203 Y6.596
X4.895 Y6.486
X4.585 Y6.402
X4.279 Y6.344
X3.979 Y6.313
X3.725 Y6.307
X3.475 Y6.321
X3.263 Y6.351
X3.085 Y6.39
X2.893 Y6.449
X2.882 Y6.453
X2.691 Y6.564
X2.542 Y6.726
X2.447 Y6.924
X2.414 Y7.142
Y8.172
G2 X2.609 Y8.454 I0.317 J-0.011
G1 X3. Y8.618
X6.307 Y10.007
X6.72 Y10.18
G2 X7.039 Y10.137 I0.123 J-0.293
G1 X7.36 Y9.864
X7.55 Y9.707
X7.66 Y9.605
X7.753 Y9.487
X7.827 Y9.357
X7.885 Y9.219
X7.929 Y9.075
X7.958 Y8.928
X7.975 Y8.774
X7.979 Y8.614
X7.97 Y8.436
X7.944 Y8.244
X7.902 Y8.048
X7.837 Y7.834
X7.75 Y7.611
X7.641 Y7.388
X7.502 Y7.153
X7.332 Y6.912
X7.136 Y6.678
X6.913 Y6.45
X6.656 Y6.227
X6.37 Y6.016
X6.057 Y5.823
X5.724 Y5.652
X5.376 Y5.507
X5.024 Y5.393
X4.672 Y5.309
X4.327 Y5.256
X3.997 Y5.233
X3.706 Y5.235
X3.457 Y5.257
X3.229 Y5.296
X3.046 Y5.342
X2.915 Y5.387
X2.713 Y5.494
X2.552 Y5.657
X2.45 Y5.862
X2.414 Y6.088
Y7.142
G2 X2.589 Y7.415 I0.317 J-0.011
G1 X2.987 Y7.614
X6.83 Y9.545
X7.216 Y9.738
G2 X7.55 Y9.707 I0.143 J-0.284
G1 X7.825 Y9.477
X7.901 Y9.393
X7.982 Y9.285
X8.125 Y9.079
X8.139 Y9.056
X8.274 Y8.765
X8.398 Y8.522
X8.459 Y8.385
X8.502 Y8.241
X8.531 Y8.094
X8.546 Y7.945
X8.55 Y7.778
X8.539 Y7.597
X8.513 Y7.405
X8.465 Y7.19
X8.399 Y6.975
X8.306 Y6.74
X8.183 Y6.491
X8.037 Y6.247
X7.854 Y5.992
X7.634 Y5.73
X7.379 Y5.473
X7.098 Y5.231
X6.781 Y5.
X6.432 Y4.787
X6.057 Y4.597
X5.664 Y4.436
X5.26 Y4.307
X4.859 Y4.214
X4.47 Y4.156
X4.108 Y4.132
X3.788 Y4.136
X3.506 Y4.162
X3.265 Y4.205
X3.071 Y4.255
X2.867 Y4.326
X2.857 Y4.33
X2.684 Y4.437
X2.547 Y4.586
X2.455 Y4.767
X2.416 Y4.966
X2.414 Y4.995
Y6.088
G2 X2.607 Y6.369 I0.317 J-0.011
G1 X2.999 Y6.536
X7.701 Y8.534
X7.996 Y8.659
G2 X8.398 Y8.522 I0.124 J-0.292
G1 X8.453 Y8.415
X8.518 Y8.294
X8.836 Y7.823
X8.862 Y7.784
X8.942 Y7.657
X9.003 Y7.52
X9.048 Y7.377
X9.078 Y7.23
X9.095 Y7.081
X9.1 Y6.912
X9.092 Y6.737
X9.066 Y6.538
X9.021 Y6.327
X8.954 Y6.102
X8.858 Y5.854
X8.739 Y5.608
X8.584 Y5.344
X8.389 Y5.066
X8.166 Y4.798
X7.903 Y4.528
X7.595 Y4.258
X7.245 Y3.999
X6.86 Y3.758
X6.447 Y3.545
X6.013 Y3.363
X5.568 Y3.217
X5.126 Y3.111
X4.698 Y3.044
X4.29 Y3.013
X3.912 Y3.015
X3.603 Y3.041
X3.498 Y3.058
X3.331 Y3.107
X3.18 Y3.193
X3.053 Y3.312
X2.955 Y3.428
X2.846 Y3.582
X2.748 Y3.739
X2.667 Y3.896
X2.596 Y4.053
X2.495 Y4.367
X2.484 Y4.412
X2.435 Y4.681
X2.423 Y4.838
X2.416 Y4.966
G2 X2.604 Y5.263 I0.317 J0.007
G1 X2.981 Y5.431
X8.152 Y7.737
X8.48 Y7.883
G2 X8.862 Y7.784 I0.129 J-0.29
G1 X8.924 Y7.696
X9.248 Y7.313
X9.258 Y7.302
X9.278 Y7.286
X9.389 Y7.185
X9.483 Y7.069
X9.559 Y6.939
X9.619 Y6.802
X9.664 Y6.659
X9.697 Y6.512
X9.718 Y6.35
X9.726 Y6.179
X9.72 Y5.986
X9.697 Y5.778
X9.654 Y5.555
X9.585 Y5.306
X9.494 Y5.058
X9.369 Y4.787
X9.205 Y4.497
X9.015 Y4.214
X8.777 Y3.916
X8.49 Y3.609
X8.158 Y3.308
X7.795 Y3.028
X7.387 Y2.764
X6.94 Y2.521
X6.847 Y2.48
X6.75 Y2.446
X6.65 Y2.424
X6.548 Y2.417
X4.997
X4.84 Y2.426
X4.683 Y2.437
X4.432 Y2.482
X4.369 Y2.497
X4.055 Y2.597
X3.898 Y2.668
X3.741 Y2.748
X3.584 Y2.846
X3.427 Y2.957
X3.243 Y3.111
X3.112 Y3.242
X3.053 Y3.312
G2 X3.138 Y3.779 I0.25 J0.196
G1 X3.351 Y3.908
X8.574 Y7.093
X8.92 Y7.304
G2 X9.278 Y7.286 I0.165 J-0.271
G1 X9.317 Y7.254
X9.399 Y7.194
X9.867 Y6.903
X9.993 Y6.822
X10.098 Y6.715
X10.187 Y6.594
X10.262 Y6.465
X10.325 Y6.328
X10.375 Y6.185
X10.415 Y6.03
X10.446 Y5.856
X10.465 Y5.662
X10.468 Y5.458
X10.452 Y5.223
X10.417 Y4.982
X10.357 Y4.72
X10.265 Y4.431
X10.148 Y4.144
X9.991 Y3.833
X9.788 Y3.499
X9.549 Y3.17
X9.269 Y2.843
X9.057 Y2.633
X8.904 Y2.516
X8.726 Y2.442
X8.535 Y2.417
X6.548
G2 X6.312 Y2.935 I0.011 J0.317
G1 X6.363 Y2.998
X9.252 Y6.553
X9.471 Y6.823
G2 X9.867 Y6.903 I0.246 J-0.2
G1 X10.338 Y6.631
X10.543 Y6.519
X10.671 Y6.44
X10.784 Y6.342
X10.883 Y6.23
X10.97 Y6.107
X11.043 Y5.976
X11.106 Y5.84
X11.163 Y5.681
X11.209 Y5.512
X11.245 Y5.317
X11.268 Y5.103
X11.273 Y4.876
X11.259 Y4.616
X11.222 Y4.349
X11.157 Y4.054
X11.058 Y3.731
X10.93 Y3.408
X10.761 Y3.065
X10.577 Y2.756
X10.557 Y2.729
X10.393 Y2.562
X10.185 Y2.454
X9.954 Y2.417
X8.535
G2 X8.265 Y2.883 I0.011 J0.317
G1 X8.332 Y3.01
X9.982 Y6.123
X10.12 Y6.383
G2 X10.543 Y6.519 I0.281 J-0.149
G1 X11.034 Y6.252
X11.28 Y6.119
X11.409 Y6.042
X11.528 Y5.951
X11.635 Y5.845
X11.729 Y5.728
X11.811 Y5.603
X11.883 Y5.469
X11.95 Y5.318
X12.011 Y5.143
X12.06 Y4.955
X12.098 Y4.733
X12.12 Y4.503
X12.123 Y4.241
X12.104 Y3.956
X12.06 Y3.658
X11.985 Y3.339
X11.908 Y3.097
X11.81 Y2.857
X11.793 Y2.823
X11.677 Y2.656
X11.52 Y2.527
X11.333 Y2.445
X11.132 Y2.417
X9.954
G2 X9.668 Y2.847 I0.011 J0.317
G1 X9.733 Y3.018
X10.752 Y5.708
X10.843 Y5.947
G2 X11.28 Y6.119 I0.297 J-0.113
G1 X11.909 Y5.781
X12.066 Y5.707
X12.199 Y5.639
X12.323 Y5.554
X12.434 Y5.453
X12.534 Y5.341
X12.623 Y5.22
X12.705 Y5.085
X12.779 Y4.937
X12.851 Y4.76
X12.91 Y4.573
X12.961 Y4.352
X12.995 Y4.117
X13.01 Y3.873
X13.006 Y3.616
X12.985 Y3.399
X12.946 Y3.179
X12.899 Y3.001
X12.868 Y2.913
X12.76 Y2.712
X12.597 Y2.554
X12.394 Y2.452
X12.169 Y2.417
X11.132
G2 X10.839 Y2.826 I0.011 J0.317
G1 X10.898 Y3.022
X11.567 Y5.261
X11.64 Y5.505
G2 X12.066 Y5.707 I0.304 J-0.091
G1 X12.38 Y5.564
X12.537 Y5.5
X12.851 Y5.379
X12.988 Y5.318
X13.117 Y5.242
X13.235 Y5.149
X13.343 Y5.045
X13.44 Y4.93
X13.527 Y4.807
X13.612 Y4.664
X13.691 Y4.502
X13.759 Y4.33
X13.817 Y4.139
X13.861 Y3.936
X13.887 Y3.739
X13.898 Y3.551
X13.892 Y3.355
X13.875 Y3.191
X13.845 Y3.034
X13.825 Y2.962
X13.75 Y2.785
X13.633 Y2.632
X13.48 Y2.516
X13.302 Y2.442
X13.111 Y2.417
X12.169
G2 X11.871 Y2.809 I0.011 J0.317
G1 X11.924 Y3.025
X12.379 Y4.904
X12.439 Y5.154
G2 X12.851 Y5.379 I0.309 J-0.075
G1 X13.637 Y5.077
X13.723 Y5.045
X13.86 Y4.984
X13.99 Y4.909
X14.11 Y4.819
X14.219 Y4.716
X14.317 Y4.602
X14.405 Y4.481
X14.484 Y4.349
X14.557 Y4.202
X14.621 Y4.043
X14.671 Y3.881
X14.707 Y3.724
X14.731 Y3.552
X14.74 Y3.401
X14.737 Y3.251
X14.721 Y3.095
X14.708 Y3.025
X14.644 Y2.83
X14.528 Y2.66
X14.37 Y2.529
X14.183 Y2.446
X13.979 Y2.417
X13.111
G2 X12.814 Y2.811 I0.011 J0.317
G1 X12.867 Y3.025
X13.25 Y4.569
X13.312 Y4.821
G2 X13.723 Y5.045 I0.308 J-0.076
G1 X13.951 Y4.958
X14.108 Y4.911
X14.442 Y4.819
X14.461 Y4.815
X14.608 Y4.783
X14.745 Y4.722
X14.872 Y4.643
X14.989 Y4.549
X15.095 Y4.443
X15.19 Y4.327
X15.274 Y4.202
X15.347 Y4.071
X15.409 Y3.934
X15.459 Y3.793
X15.499 Y3.643
X15.526 Y3.496
X15.539 Y3.346
Y3.196
X15.527 Y3.047
X15.523 Y3.028
X15.46 Y2.833
X15.344 Y2.662
X15.186 Y2.53
X14.998 Y2.446
X14.794 Y2.417
X13.979
G2 X13.684 Y2.817 I0.011 J0.317
G1 X13.739 Y3.024
X14.06 Y4.22
X14.157 Y4.579
G2 X14.461 Y4.815 I0.307 J-0.082
G1 X14.893 Y4.802
X15.018 Y4.808
X15.168 Y4.807
X15.315 Y4.777
X15.456 Y4.724
X15.588 Y4.653
X15.71 Y4.566
X15.823 Y4.467
X15.925 Y4.357
X16.017 Y4.239
X16.098 Y4.112
X16.168 Y3.98
X16.227 Y3.842
X16.273 Y3.699
X16.307 Y3.553
X16.329 Y3.405
X16.337 Y3.255
X16.331 Y3.105
X16.326 Y3.064
X16.269 Y2.859
X16.156 Y2.678
X15.996 Y2.537
X15.802 Y2.448
X15.591 Y2.417
X14.794
G2 X14.49 Y2.777 I0.011 J0.317
G1 X14.525 Y3.03
X14.681 Y4.183
X14.729 Y4.534
G2 X15.018 Y4.808 I0.315 J-0.043
G1 X15.05 Y4.809
X15.364 Y4.83
X15.449 Y4.838
X15.647 Y4.871
X15.796 Y4.888
X15.945 Y4.874
X16.091 Y4.837
X16.23 Y4.781
X16.361 Y4.708
X16.484 Y4.622
X16.597 Y4.524
X16.701 Y4.416
X16.794 Y4.298
X16.878 Y4.173
X16.951 Y4.042
X17.013 Y3.905
X17.064 Y3.76
X17.103 Y3.615
X17.128 Y3.467
X17.14 Y3.318
Y3.168
X17.125 Y3.017
X17.059 Y2.824
X16.944 Y2.657
X16.786 Y2.527
X16.6 Y2.445
X16.398 Y2.417
X15.591
G2 X15.285 Y2.753 I0.011 J0.317
G1 X15.302 Y3.032
X15.371 Y4.211
X15.392 Y4.578
G2 X15.647 Y4.871 I0.317 J-0.019
G1 X15.836 Y4.902
X15.993 Y4.93
X16.15 Y4.961
X16.302 Y4.995
X16.45 Y5.022
X16.6 Y5.02
X16.748 Y4.995
X16.891 Y4.95
X17.028 Y4.889
X17.157 Y4.813
X17.278 Y4.725
X17.391 Y4.626
X17.495 Y4.518
X17.59 Y4.4
X17.679 Y4.269
X17.758 Y4.129
X17.826 Y3.984
X17.878 Y3.844
X17.921 Y3.691
X17.95 Y3.544
X17.966 Y3.395
X17.969 Y3.245
X17.96 Y3.095
X17.952 Y3.047
X17.892 Y2.847
X17.778 Y2.671
X17.619 Y2.534
X17.428 Y2.447
X17.22 Y2.417
X16.398
G2 X16.092 Y2.731 I0.011 J0.317
G1 X16.088 Y3.032
X16.071 Y4.319
X16.067 Y4.685
G2 X16.302 Y4.995 I0.317 J0.004
G1 X16.464 Y5.031
X16.621 Y5.051
X16.778 Y5.067
X16.935 Y5.058
X17.092 Y5.046
X17.564 Y4.94
X17.709 Y4.905
X17.849 Y4.851
X17.981 Y4.779
X18.104 Y4.694
X18.218 Y4.596
X18.323 Y4.489
X18.418 Y4.372
X18.502 Y4.248
X18.58 Y4.112
X18.643 Y3.976
X18.696 Y3.835
X18.739 Y3.683
X18.767 Y3.536
X18.783 Y3.387
X18.786 Y3.237
X18.777 Y3.087
X18.77 Y3.044
X18.709 Y2.844
X18.595 Y2.669
X18.436 Y2.533
X18.245 Y2.447
X18.038 Y2.417
X17.22
G2 X16.917 Y2.782 I0.011 J0.317
G1 X16.954 Y3.029
X17.159 Y4.391
X17.202 Y4.674
G2 X17.564 Y4.94 I0.314 J-0.047
G1 X17.721 Y4.911
X18.035 Y4.856
X18.192 Y4.838
X18.349 Y4.827
X18.498 Y4.81
X18.641 Y4.766
X18.777 Y4.702
X18.904 Y4.621
X19.02 Y4.527
X19.127 Y4.422
X19.224 Y4.307
X19.309 Y4.184
X19.384 Y4.054
X19.448 Y3.918
X19.5 Y3.778
X19.541 Y3.633
X19.569 Y3.486
X19.583 Y3.337
X19.584 Y3.187
X19.572 Y3.037
X19.571 Y3.028
X19.507 Y2.832
X19.391 Y2.662
X19.233 Y2.53
X19.045 Y2.446
X18.841 Y2.417
X18.038
G2 X17.736 Y2.786 I0.011 J0.317
G1 X17.776 Y3.029
X17.973 Y4.237
X18.025 Y4.561
G2 X18.349 Y4.827 I0.313 J-0.051
G1 X18.506 Y4.817
X18.663 Y4.809
X19.056 Y4.805
X19.205 Y4.796
X19.352 Y4.765
X19.493 Y4.712
X19.625 Y4.642
X19.748 Y4.556
X19.861 Y4.457
X19.964 Y4.348
X20.056 Y4.23
X20.138 Y4.104
X20.209 Y3.972
X20.268 Y3.834
X20.315 Y3.692
X20.35 Y3.546
X20.371 Y3.397
X20.379 Y3.247
X20.373 Y3.097
X20.369 Y3.063
X20.311 Y2.858
X20.198 Y2.678
X20.038 Y2.537
X19.845 Y2.448
X19.634 Y2.417
X18.841
G2 X18.537 Y2.773 I0.011 J0.317
G1 X18.568 Y3.03
X18.709 Y4.196
X18.748 Y4.526
G2 X19.056 Y4.805 I0.315 J-0.038
G1 X19.075
X19.095 Y4.807
X19.448 Y4.891
X19.535 Y4.916
X19.681 Y4.95
X19.83 Y4.965
X19.98 Y4.954
X20.126 Y4.921
X20.267 Y4.871
X20.402 Y4.804
X20.528 Y4.724
X20.646 Y4.631
X20.756 Y4.528
X20.855 Y4.416
X20.946 Y4.297
X21.026 Y4.17
X21.097 Y4.038
X21.156 Y3.9
X21.204 Y3.758
X21.241 Y3.612
X21.266 Y3.465
X21.278 Y3.315
Y3.165
X21.272 Y3.094
X21.22 Y2.881
X21.109 Y2.692
X20.948 Y2.544
X20.75 Y2.45
X20.533 Y2.417
X19.634
G2 X19.328 Y2.733 I0.011 J0.317
G1 X19.326 Y3.032
X19.319 Y4.227
X19.316 Y4.612
G2 X19.535 Y4.916 I0.317 J0.002
G1 X19.606 Y4.936
X20.165 Y5.152
X20.563 Y5.31
X22.119 Y5.974
X22.59 Y6.221
X22.647 Y6.252
X23.611 Y6.817
G2 X24.035 Y6.701 I0.151 J-0.279
G1 X24.189 Y6.443
X26.242 Y3.006
X26.307 Y2.897
G2 X26.046 Y2.417 I-0.273 J-0.163
G1 X24.703
X24.553 Y2.425
X24.405 Y2.448
X24.237 Y2.491
X23.892 Y2.505
X23.6 Y2.437
X23.545 Y2.426
X23.488 Y2.419
X23.432 Y2.417
G2 X23.443 Y3.052 I0.011 J0.317
G1 X24.692
G2 X24.703 Y2.417 I0. J-0.318
G1 X20.533
G2 X20.228 Y2.715 I0.011 J0.317
G1 X20.227 Y2.735 Z-0.997
X20.241 Y2.788 Z-0.989
X20.254 Y2.839 Z-0.971
X20.266 Y2.886 Z-0.944
X20.297 Y2.922 Z-0.904
X20.322 Y2.951 Z-0.856
X20.341 Y2.973 Z-0.801
X20.353 Y2.986 Z-0.742
X20.357 Y2.991 Z-0.681
G0 Z5.
X15.449 Y15.743
Z2.5
G2 X18.17 Y17.045 Z2.335 I1.36 J0.651 F220.
X15.449 Y15.743 Z2.169 I-1.36 J-0.651
X18.17 Y17.045 Z2.004 I1.36 J0.651
X15.449 Y15.743 Z1.838 I-1.36 J-0.651
X18.17 Y17.045 Z1.673 I1.36 J0.651
X15.449 Y15.743 Z1.507 I-1.36 J-0.651
X18.17 Y17.045 Z1.342 I1.36 J0.651
X15.449 Y15.743 Z1.176 I-1.36 J-0.651
X18.17 Y17.045 Z1.011 I1.36 J0.651
X15.449 Y15.743 Z0.845 I-1.36 J-0.651
X18.17 Y17.045 Z0.68 I1.36 J0.651
X15.449 Y15.743 Z0.515 I-1.36 J-0.651
X18.17 Y17.045 Z0.349 I1.36 J0.651
X15.449 Y15.743 Z0.184 I-1.36 J-0.651
X18.17 Y17.045 Z0.018 I1.36 J0.651
X15.449 Y15.743 Z-0.147 I-1.36 J-0.651
X18.17 Y17.045 Z-0.313 I1.36 J0.651
X15.449 Y15.743 Z-0.478 I-1.36 J-0.651
X18.17 Y17.045 Z-0.644 I1.36 J0.651
X15.449 Y15.743 Z-0.809 I-1.36 J-0.651
X18.17 Y17.045 Z-0.974 I1.36 J0.651
X18.318 Y16.394 Z-0.998 I-1.36 J-0.651
X15.301 I-1.508 J0.
X18.318 I1.508 J0.
G1 X18.336 Y15.702 F330.
X18.361 Y15.62
X18.386 Y15.472
X18.381 Y15.322
X18.352 Y15.175
X18.303 Y15.033
X18.237 Y14.898
X18.156 Y14.772
X18.062 Y14.655
X17.957 Y14.548
X17.842 Y14.452
X17.719 Y14.365
X17.59 Y14.29
X17.454 Y14.226
X17.31 Y14.171
X17.158 Y14.127
X17. Y14.095
X16.836 Y14.075
X16.668 Y14.068
X16.497 Y14.075
X16.325 Y14.096
X16.153 Y14.131
X15.982 Y14.18
X15.814 Y14.243
X15.651 Y14.321
X15.492 Y14.412
X15.34 Y14.516
X15.197 Y14.633
X15.062 Y14.761
X14.937 Y14.901
X14.824 Y15.051
X14.722 Y15.21
X14.634 Y15.378
X14.559 Y15.552
X14.498 Y15.733
X14.451 Y15.918
X14.42 Y16.107
X14.403 Y16.298
Y16.49
X14.417 Y16.681
X14.447 Y16.871
X14.492 Y17.059
X14.552 Y17.242
X14.627 Y17.42
X14.715 Y17.591
X14.818 Y17.755
X14.933 Y17.91
X15.06 Y18.056
X15.199 Y18.191
X15.348 Y18.314
X15.506 Y18.426
X15.673 Y18.524
X15.847 Y18.608
X16.028 Y18.678
X16.214 Y18.733
X16.403 Y18.774
X16.595 Y18.799
X16.789 Y18.808
X16.983 Y18.802
X17.175 Y18.781
X17.366 Y18.744
X17.552 Y18.692
X17.734 Y18.625
X17.91 Y18.543
X18.079 Y18.448
X18.24 Y18.339
X18.392 Y18.218
X18.533 Y18.086
X18.663 Y17.942
X18.781 Y17.788
X18.887 Y17.625
X18.995 Y17.424
X19.143 Y17.09
X19.27 Y16.722
X19.346 Y16.433
X19.391 Y16.174
X19.414 Y15.933
X19.416 Y15.707
X19.402 Y15.492
X19.371 Y15.284
X19.324 Y15.08
X19.26 Y14.881
X19.181 Y14.688
X19.087 Y14.502
X18.978 Y14.324
X18.854 Y14.154
X18.715 Y13.992
X18.562 Y13.841
X18.395 Y13.701
X18.216 Y13.572
X18.023 Y13.457
X17.819 Y13.356
X17.605 Y13.271
X17.381 Y13.202
X17.149 Y13.151
X16.911 Y13.118
X16.668 Y13.104
X16.422 Y13.11
X16.174 Y13.135
X15.927 Y13.181
X15.683 Y13.247
X15.443 Y13.333
X15.209 Y13.439
X14.982 Y13.565
X14.765 Y13.708
X14.559 Y13.87
X14.366 Y14.049
X14.187 Y14.243
X14.023 Y14.453
X13.876 Y14.675
X13.747 Y14.91
X13.637 Y15.155
X13.546 Y15.409
X13.476 Y15.669
X13.427 Y15.936
X13.4 Y16.205
X13.394 Y16.477
X13.41 Y16.749
X13.448 Y17.019
X13.508 Y17.285
X13.588 Y17.546
X13.69 Y17.8
X13.812 Y18.045
X13.953 Y18.28
X14.112 Y18.503
X14.289 Y18.712
X14.483 Y18.907
X14.691 Y19.085
X14.913 Y19.246
X15.148 Y19.389
X15.393 Y19.513
X15.648 Y19.617
X15.91 Y19.7
X16.178 Y19.761
X16.45 Y19.801
X16.724 Y19.819
X16.999 Y19.815
X17.273 Y19.789
X17.544 Y19.741
X17.81 Y19.672
X18.07 Y19.581
X18.322 Y19.469
X18.563 Y19.338
X18.794 Y19.188
X19.012 Y19.02
X19.221 Y18.83
X19.436 Y18.6
X19.646 Y18.336
X19.84 Y18.047
X20.015 Y17.736
X20.163 Y17.414
X20.282 Y17.088
X20.372 Y16.765
X20.433 Y16.445
X20.468 Y16.128
X20.477 Y15.815
X20.462 Y15.506
X20.422 Y15.203
X20.358 Y14.906
X20.271 Y14.618
X20.162 Y14.338
X20.031 Y14.068
X19.878 Y13.81
X19.705 Y13.564
X19.512 Y13.331
X19.3 Y13.114
X19.069 Y12.913
X18.821 Y12.73
X18.557 Y12.566
X18.278 Y12.423
X17.986 Y12.301
X17.683 Y12.202
X17.37 Y12.127
X17.049 Y12.078
X16.723 Y12.053
X16.394 Y12.056
X16.064 Y12.084
X15.734 Y12.14
X15.408 Y12.223
X15.088 Y12.331
X14.776 Y12.467
X14.474 Y12.627
X14.184 Y12.813
X13.908 Y13.022
X13.65 Y13.253
X13.409 Y13.506
X13.189 Y13.778
X12.99 Y14.068
X12.815 Y14.374
X12.665 Y14.694
X12.54 Y15.026
X12.442 Y15.368
X12.372 Y15.717
X12.33 Y16.072
X12.317 Y16.429
X12.332 Y16.787
X12.376 Y17.143
X12.449 Y17.494
X12.549 Y17.839
X12.677 Y18.175
X12.832 Y18.5
X13.012 Y18.812
X13.217 Y19.108
X13.446 Y19.387
X13.696 Y19.647
X13.966 Y19.887
X14.255 Y20.104
X14.56 Y20.297
X14.88 Y20.465
X15.212 Y20.607
X15.555 Y20.721
X15.906 Y20.808
X16.263 Y20.867
X16.623 Y20.896
X16.985 Y20.897
X17.346 Y20.868
X17.703 Y20.811
X18.054 Y20.725
X18.398 Y20.611
X18.731 Y20.47
X19.054 Y20.302
X19.369 Y20.104
X19.678 Y19.874
X19.976 Y19.611
X20.261 Y19.317
X20.526 Y18.995
X20.767 Y18.649
X20.98 Y18.284
X21.162 Y17.904
X21.312 Y17.514
X21.429 Y17.117
X21.513 Y16.716
X21.565 Y16.313
X21.583 Y15.91
X21.569 Y15.511
X21.524 Y15.116
X21.447 Y14.729
X21.34 Y14.35
X21.204 Y13.982
X21.038 Y13.627
X20.845 Y13.287
X20.624 Y12.962
X20.378 Y12.656
X20.107 Y12.369
X19.812 Y12.104
X19.496 Y11.862
X19.159 Y11.645
X18.804 Y11.455
X18.432 Y11.293
X18.047 Y11.16
X17.649 Y11.058
X17.243 Y10.988
X16.829 Y10.951
X16.412 Y10.947
X15.993 Y10.977
X15.575 Y11.04
X15.162 Y11.137
X14.756 Y11.268
X14.359 Y11.432
X13.976 Y11.628
X13.608 Y11.855
X13.257 Y12.112
X12.928 Y12.397
X12.621 Y12.709
X12.339 Y13.046
X12.084 Y13.405
X11.859 Y13.785
X11.664 Y14.182
X11.501 Y14.595
X11.372 Y15.021
X11.277 Y15.456
X11.217 Y15.899
X11.193 Y16.345
X11.204 Y16.793
X11.252 Y17.238
X11.335 Y17.679
X11.454 Y18.113
X11.607 Y18.535
X11.794 Y18.945
X12.013 Y19.338
X12.263 Y19.713
X12.543 Y20.067
X12.85 Y20.397
X13.183 Y20.702
X13.54 Y20.979
X13.917 Y21.226
X14.314 Y21.443
X14.726 Y21.627
X15.152 Y21.778
X15.589 Y21.893
X16.034 Y21.974
X16.484 Y22.018
X16.936 Y22.026
X17.388 Y21.998
X17.835 Y21.934
X18.277 Y21.834
X18.711 Y21.698
X19.136 Y21.526
X19.55 Y21.319
X19.952 Y21.076
X20.34 Y20.796
X20.712 Y20.479
X21.063 Y20.128
X21.388 Y19.746
X21.684 Y19.336
X21.946 Y18.903
X22.173 Y18.45
X22.362 Y17.982
X22.512 Y17.502
X22.623 Y17.014
X22.658 Y16.766
X22.661 Y16.727
X22.668 Y16.618
X22.674 Y16.461
X22.66 Y15.99
X22.644 Y15.833
X22.59 Y15.403
X22.584 Y15.362
X22.553 Y15.205
X22.477 Y14.891
X22.43 Y14.733
X22.326 Y14.419
X22.276 Y14.272
X22.062 Y13.791
X21.981 Y13.634
X21.798 Y13.32
X21.703 Y13.163
X21.48 Y12.849
X21.333 Y12.659
X21.223 Y12.535
X20.932 Y12.22
X20.862 Y12.152
X20.767 Y12.063
X20.391 Y11.747
X20.234 Y11.633
X20.077 Y11.524
X19.92 Y11.423
X19.763 Y11.328
X19.291 Y11.081
X19.134 Y11.011
X19.023 Y10.964
X18.82 Y10.887
X18.663 Y10.831
X18.192 Y10.695
X18.035 Y10.661
X17.721 Y10.603
X17.564 Y10.577
X17.092 Y10.535
X16.935 Y10.53
X16.621 Y10.532
X16.464 Y10.535
X15.993 Y10.583
X15.836 Y10.609
X15.521 Y10.672
X15.364 Y10.706
X14.893 Y10.85
X14.736 Y10.907
X14.579 Y10.97
X14.265 Y11.105
X13.794 Y11.362
X13.671 Y11.435
X13.479 Y11.568
X13.165 Y11.794
X12.851 Y12.063
X12.69 Y12.22
X12.537 Y12.379
X12.38 Y12.551
X12.259 Y12.692
X12.066 Y12.942
X11.914 Y13.163
X11.909 Y13.171
X11.821 Y13.32
X11.595 Y13.712
X11.554 Y13.791
X11.481 Y13.948
X11.347 Y14.262
X11.292 Y14.419
X11.189 Y14.733
X11.142 Y14.891
X11.037 Y15.362
X11.014 Y15.519
X10.966 Y15.896
X10.958 Y15.99
X10.951 Y16.147
X10.944 Y16.461
X10.949 Y16.618
X10.958 Y16.775
X10.969 Y16.932
X10.983 Y17.089
X11.058 Y17.561
X11.094 Y17.718
X11.176 Y18.032
X11.22 Y18.189
X11.395 Y18.66
X11.437 Y18.76
X11.622 Y19.131
X11.703 Y19.288
X12.006 Y19.76
X12.066 Y19.847
X12.382 Y20.231
X12.514 Y20.388
X12.537 Y20.412
X12.67 Y20.545
X13.012 Y20.859
X13.165 Y20.995
X13.639 Y21.33
X13.794 Y21.428
X13.951 Y21.514
X14.265 Y21.683
X14.579 Y21.816
X14.736 Y21.881
X14.893 Y21.94
X15.207 Y22.038
X15.364 Y22.083
X15.521 Y22.116
X15.836 Y22.18
X15.993 Y22.206
X16.464 Y22.254
X16.621 Y22.257
X16.935 Y22.258
X17.092 Y22.254
X17.564 Y22.212
X17.721 Y22.186
X18.099 Y22.116
X18.192 Y22.095
X18.349 Y22.054
X18.506 Y22.008
X18.665 Y21.958
X18.82 Y21.9
X19.134 Y21.775
X19.291 Y21.708
X19.717 Y21.487
X19.763 Y21.462
X19.92 Y21.363
X20.234 Y21.153
X20.391 Y21.043
X20.548 Y20.913
X20.862 Y20.634
X20.955 Y20.545
X21.104 Y20.388
X21.176 Y20.304
X21.37 Y20.074
X21.499 Y19.917
X21.612 Y19.76
X21.916 Y19.288
X21.962 Y19.202
X21.998 Y19.131
X22.153 Y18.817
X22.223 Y18.66
X22.398 Y18.189
X22.433 Y18.067
X22.524 Y17.718
X22.561 Y17.561
X22.59 Y17.386
X22.635 Y17.089
X22.648 Y16.932
X22.661 Y16.727
G2 X22.384 Y16.403 I-0.317 J-0.009
G1 X22.344 Y16.401 Z-0.995
X22.29 Y16.415 Z-0.983
X22.239 Y16.428 Z-0.96
X22.192 Y16.439 Z-0.929
X22.154 Y16.471 Z-0.878
X22.125 Y16.495 Z-0.818
X22.107 Y16.51 Z-0.751
X22.101 Y16.515 Z-0.681
G0 Z5.
X13.572 Y14.434
Z-0.165
G1 Z-0.482 F330.
X13.567 Y14.428 Z-0.553
X13.552 Y14.41 Z-0.62
X13.528 Y14.38 Z-0.68
X13.496 Y14.342 Z-0.731
X13.458 Y14.295 Z-0.769
X13.415 Y14.243 Z-0.792
X13.37 Y14.189 Z-0.8
G2 X12.121 Y12.969 I-6.255 J5.156
G1 X12. Y12.88
X11.85 Y12.875
X11.702 Y12.902
X11.56 Y12.95
X11.424 Y13.014
X11.296 Y13.092
X11.168 Y13.183
X11.027 Y13.303
X10.874 Y13.455
X10.727 Y13.627
X10.568 Y13.847
X10.419 Y14.092
X10.366 Y14.198
X10.348 Y14.236
X10.332 Y14.275
X10.319 Y14.315
X10.287 Y14.419
X10.181 Y14.804
X10.16 Y14.891
X10.075 Y15.362
X10.053 Y15.519
X10.014 Y15.833
X9.999 Y15.99
Y16.461
X10.005 Y16.932
X10.013 Y17.089
X10.184 Y18.032
X10.22 Y18.189
X10.386 Y18.66
X10.503 Y18.974
X10.562 Y19.131
X10.628 Y19.288
X10.888 Y19.76
X10.98 Y19.917
X11.168 Y20.231
X11.271 Y20.388
X11.53 Y20.702
X11.666 Y20.859
X12.081 Y21.33
X12.223 Y21.448
X12.863 Y21.958
X13.008 Y22.06
X13.165 Y22.163
X13.322 Y22.252
X13.794 Y22.506
X13.96 Y22.587
X14.265 Y22.725
X14.311 Y22.744
X14.794 Y22.901
X14.893 Y22.931
X15.364 Y23.068
X15.521 Y23.093
X16.464 Y23.22
X16.621 Y23.218
X17.249 Y23.192
X17.564 Y23.178
X17.721 Y23.153
X18.035 Y23.098
X18.221 Y23.058
X18.663 Y22.957
X18.835 Y22.901
X19.134 Y22.799
X19.291 Y22.74
X19.763 Y22.539
X19.966 Y22.43
X20.254 Y22.273
X20.391 Y22.191
X20.862 Y21.88
X20.959 Y21.801
X21.333 Y21.486
X21.502 Y21.33
X21.831 Y21.016
X21.962 Y20.888
X21.984 Y20.859
X22.44 Y20.231
X22.551 Y20.074
X22.652 Y19.917
X22.748 Y19.76
X23.061 Y19.109
X23.12 Y18.974
X23.218 Y18.745
X23.249 Y18.66
X23.422 Y18.032
X23.532 Y17.624
X23.542 Y17.561
X23.627 Y16.618
X23.636 Y16.461
X23.624 Y16.147
X23.568 Y15.519
X23.55 Y15.362
X23.456 Y14.891
X23.416 Y14.733
X23.329 Y14.419
X23.282 Y14.262
X23.111 Y13.791
X23.061 Y13.68
X22.888 Y13.32
X22.808 Y13.163
X22.535 Y12.692
X22.423 Y12.535
X22.081 Y12.063
X21.962 Y11.906
X21.641 Y11.592
X21.477 Y11.435
X21.308 Y11.278
X21.137 Y11.121
X21.019 Y11.014
X20.945 Y10.964
X20.231 Y10.493
X20.077 Y10.408
X19.92 Y10.329
X19.763 Y10.25
X19.134 Y9.982
X18.977 Y9.916
X18.663 Y9.832
X18.192 Y9.724
X18.113 Y9.707
X17.721 Y9.636
X17.564 Y9.611
X16.935 Y9.583
X16.621 Y9.57
X16.464 Y9.568
X15.438 Y9.707
X15.364 Y9.721
X14.87 Y9.864
X14.736 Y9.907
X14.383 Y10.022
X14.265 Y10.064
X13.794 Y10.286
X13.696 Y10.336
X13.322 Y10.537
X13.165 Y10.626
X12.694 Y10.968
X12.537 Y11.09
X12.105 Y11.435
X12.066 Y11.476
X11.961 Y11.592
X11.549 Y12.063
X11.428 Y12.22
X11.123 Y12.637
X11.088 Y12.692
X10.806 Y13.163
X10.727 Y13.32
X10.582 Y13.634
X10.512 Y13.791
X10.335 Y14.262
X10.319 Y14.315
G2 X10.515 Y14.694 I0.307 J0.082
G1 X10.571 Y14.705 Z-0.795
X10.626 Y14.714 Z-0.779
X10.685 Y14.699 Z-0.747
X10.737 Y14.686 Z-0.702
X10.777 Y14.676 Z-0.647
X10.799 Y14.662 Z-0.595
X10.812 Y14.654 Z-0.54
X10.816 Y14.651 Z-0.483
G0 Z5.
X7.357 Y6.396
Z-0.165
G1 Z-0.482 F330.
X7.361 Y6.403 Z-0.553
X7.374 Y6.422 Z-0.62
X7.395 Y6.454 Z-0.68
X7.423 Y6.496 Z-0.731
X7.456 Y6.546 Z-0.769
X7.493 Y6.602 Z-0.792
X7.532 Y6.661 Z-0.8
G2 X8.643 Y8.008 I6.771 J-4.457
G1 X8.754 Y8.109
X8.904 Y8.121
X9.097 Y8.116
X9.297 Y8.095
X9.448 Y8.063
X9.588 Y8.001
X9.713 Y7.911
X10.338 Y7.351
X10.495 Y7.228
X10.809 Y7.013
X10.966 Y6.914
X12.066 Y6.323
X12.38 Y6.162
X12.537 Y6.099
X12.851 Y5.993
X13.016 Y5.938
X13.984 Y5.624
X14.461 Y5.496
X14.5 Y5.491
X14.893 Y5.457
X15.364 Y5.419
X15.521 Y5.414
X15.836 Y5.431
X15.993 Y5.441
X16.464 Y5.488
X16.621 Y5.49
X16.935 Y5.489
X17.092 Y5.485
X17.564 Y5.452
X18.054 Y5.415
X18.074
X18.506 Y5.472
X18.663 Y5.497
X19.606 Y5.657
X20.077 Y5.739
X20.234 Y5.783
X20.391 Y5.837
X20.63 Y5.938
X21.49 Y6.305
X21.648 Y6.373
X22.079 Y6.566
X22.119 Y6.586
X22.433 Y6.787
X22.747 Y6.993
X23.532 Y7.512
X23.69 Y7.625
X23.925 Y7.823
X24.004 Y7.904
X24.367 Y8.294
X24.51 Y8.451
X24.632 Y8.586
X24.789 Y8.81
X24.962 Y9.079
X25.103 Y9.3
X25.165 Y9.393
X25.326 Y9.629
X25.402 Y9.707
X25.574 Y9.876
X25.732 Y10.043
X26.046 Y10.375
X26.147 Y10.493
X26.203 Y10.569
X26.36 Y10.829
X26.438 Y10.964
X26.988 Y11.959
X27.145 Y12.251
X27.213 Y12.377
X27.266 Y12.535
X27.361 Y12.849
X27.406 Y13.006
X27.71 Y14.105
X27.784 Y14.419
X27.805 Y14.576
X27.85 Y15.048
X27.935 Y15.99
X27.96 Y16.481
X27.959 Y16.5
X27.903 Y16.932
X27.835 Y17.404
X27.804 Y17.561
X27.724 Y17.875
X27.673 Y18.032
X27.513 Y18.503
X27.408 Y18.974
X27.377 Y19.131
X27.302 Y19.604
X27.231 Y20.074
X27.209 Y20.152
X27.182 Y20.231
X27.055 Y20.545
X26.665 Y21.487
X26.599 Y21.644
X26.395 Y22.096
X26.203 Y22.377
X26.166 Y22.43
X25.367 Y23.529
X25.26 Y23.669
X25.246 Y23.686
X25.102 Y23.843
X24.776 Y24.157
X24.161 Y24.746
X24.119 Y24.786
X23.775 Y25.1
X23.69 Y25.171
X23.532 Y25.268
X23.061 Y25.547
X22.904 Y25.639
X22.741 Y25.728
X22.59 Y25.801
X22.276 Y25.921
X22.119 Y25.979
X21.648 Y26.13
X21.579 Y26.158
X21.49 Y26.212
X21.019 Y26.504
X20.705 Y26.69
X20.548 Y26.78
X20.077 Y26.956
X19.92 Y27.002
X18.663 Y27.364
X18.506 Y27.405
X18.13 Y27.456
X18.035 Y27.468
X16.621 Y27.531
X16.464 Y27.534
X16.15 Y27.514
X15.993 Y27.502
X14.49 Y27.299
X14.422 Y27.283
X14.108 Y27.198
X13.947 Y27.142
X13.479 Y26.961
X13.008 Y26.751
X12.851 Y26.659
X12.537 Y26.47
X12.38 Y26.38
X11.982 Y26.159
X11.945 Y26.142
X11.909 Y26.131
X11.595 Y26.009
X11.279 Y25.885
X10.885 Y25.728
X10.809 Y25.683
X10.641 Y25.571
X9.975 Y25.1
X9.311 Y24.629
X9.146 Y24.471
X8.924 Y24.258
X8.829 Y24.157
X7.869 Y23.058
X7.825 Y22.994
X7.661 Y22.744
X7.559 Y22.587
X6.882 Y21.454
X6.814 Y21.33
X6.725 Y21.146
X6.674 Y21.016
X6.524 Y20.545
X6.379 Y20.074
X6.346 Y19.917
X6.254 Y19.128
X6.223 Y18.974
X6.093 Y18.503
X5.902 Y17.875
X5.856 Y17.718
X5.815 Y17.561
X5.799 Y17.404
X5.768 Y16.932
X5.714 Y15.99
X5.696 Y15.48
Y15.46
X5.757 Y15.048
X5.784 Y14.891
X5.955 Y13.948
X6.046 Y13.477
X6.097 Y13.318
X6.208 Y13.006
X6.266 Y12.849
X6.62 Y11.906
X6.831 Y11.424
X6.837 Y11.412
X7.242 Y10.807
X7.353 Y10.643
X7.511 Y10.434
X7.603 Y10.336
X7.825 Y10.104
X7.982 Y9.943
X8.054 Y9.864
X8.331 Y9.55
X8.396 Y9.472
X8.453 Y9.376
X8.544 Y9.236
X8.767 Y8.906
X8.861 Y8.765
X8.924 Y8.677
X9.13 Y8.451
X9.238 Y8.335
X9.713 Y7.911
G2 X9.743 Y7.485 I-0.22 J-0.229
G1 X9.7 Y7.452 Z-0.795
X9.658 Y7.42 Z-0.781
X9.619 Y7.39 Z-0.758
X9.568 Y7.379 Z-0.72
X9.526 Y7.371 Z-0.673
X9.493 Y7.364 Z-0.619
X9.47 Y7.365 Z-0.552
X9.463 Y7.366 Z-0.483
G0 Z5.
X16.294 Y29.586
Z0.035
G1 Z-0.282 F330.
X16.296 Y29.579 Z-0.353
X16.301 Y29.556 Z-0.42
X16.311 Y29.519 Z-0.48
X16.323 Y29.471 Z-0.531
X16.338 Y29.412 Z-0.569
X16.355 Y29.347 Z-0.592
X16.372 Y29.279 Z-0.6
G2 X16.621 Y27.55 I-7.852 J-2.011
G1 Y27.4
X16.552 Y27.268
X16.464 Y27.146
X16.363 Y27.035
X16.253 Y26.933
X16.136 Y26.838
X16.014 Y26.752
X15.887 Y26.671
X15.758 Y26.595
X15.627 Y26.522
X15.496 Y26.45
X15.363 Y26.38
X15.106 Y26.249
X14.411 Y25.901
X13.803 Y25.574
X13.671 Y25.503
X13.537 Y25.435
X13.403 Y25.368
X13.268 Y25.302
X13.12 Y25.231
X12.494 Y24.936
X11.882 Y24.613
X11.29 Y24.255
X10.721 Y23.863
X10.194 Y23.415
X9.697 Y22.933
X9.246 Y22.409
X8.835 Y21.853
X8.459 Y21.272
X8.154 Y20.652
X7.935 Y19.996
X7.753 Y19.328
X7.567 Y18.662
X7.394 Y17.993
X7.277 Y17.311
X7.195 Y16.624
X7.182 Y15.932
X7.229 Y15.242
X7.322 Y14.557
X7.479 Y13.884
X7.676 Y13.22
X7.938 Y12.58
X8.272 Y11.975
X8.67 Y11.409
X8.763 Y11.283
X8.942 Y11.037
X9.346 Y10.476
X9.772 Y9.93
X10.238 Y9.419
X10.732 Y8.935
X11.272 Y8.504
X11.845 Y8.116
X12.446 Y7.773
X13.074 Y7.484
X13.718 Y7.232
X14.386 Y7.051
X15.071 Y6.955
X15.762 Y6.92
X16.156 Y6.904
X16.846 Y6.871
X17.538 Y6.867
X18.228 Y6.916
X18.915 Y6.996
X19.587 Y7.159
X20.246 Y7.371
X20.886 Y7.633
X21.501 Y7.948
X22.099 Y8.296
X22.651 Y8.713
X23.147 Y9.195
X23.474 Y9.578
X23.576 Y9.695
X23.793 Y9.943
X24.254 Y10.459
X24.691 Y10.995
X25.085 Y11.564
X25.452 Y12.15
X25.747 Y12.775
X25.995 Y13.421
X26.193 Y14.084
X26.332 Y14.761
X26.434 Y15.445
X26.458 Y16.136
X26.396 Y16.825
X26.276 Y17.506
X26.199 Y17.919
X26.078 Y18.599
X25.922 Y19.273
X25.719 Y19.935
X25.481 Y20.584
X25.169 Y21.201
X24.815 Y21.796
X24.413 Y22.358
X23.966 Y22.886
X23.492 Y23.39
X22.96 Y23.832
X22.376 Y24.202
X22.167 Y24.309
X22.033 Y24.377
X21.891 Y24.452
X21.727 Y24.54
X21.472 Y24.679
X20.867 Y25.014
X20.243 Y25.313
X19.6 Y25.566
X18.943 Y25.783
X18.257 Y25.874
X17.581 Y25.729
X17.255 Y25.613
X17.094 Y25.55
X16.934 Y25.485
G2 X16.538 Y25.646 I-0.109 J0.298
G1 X16.527 Y25.693 Z-0.596
X16.517 Y25.739 Z-0.585
X16.507 Y25.783 Z-0.566
Y25.784
X16.52 Y25.834 Z-0.533
X16.53 Y25.876 Z-0.491
X16.539 Y25.911 Z-0.441
X16.545 Y25.935 Z-0.385
X16.552 Y25.946 Z-0.334
X16.554 Y25.95 Z-0.283
G0 Z5.
X4.159 Y4.762
Z1.502
G2 X6.805 Y6.21 Z1.337 I1.323 J0.724 F220.
X4.159 Y4.762 Z1.171 I-1.323 J-0.724
X6.805 Y6.21 Z1.006 I1.323 J0.724
X4.159 Y4.762 Z0.84 I-1.323 J-0.724
X6.805 Y6.21 Z0.675 I1.323 J0.724
X4.159 Y4.762 Z0.509 I-1.323 J-0.724
X6.805 Y6.21 Z0.344 I1.323 J0.724
X4.159 Y4.762 Z0.178 I-1.323 J-0.724
X6.805 Y6.21 Z0.013 I1.323 J0.724
X4.159 Y4.762 Z-0.153 I-1.323 J-0.724
X6.805 Y6.21 Z-0.318 I1.323 J0.724
X4.159 Y4.762 Z-0.483 I-1.323 J-0.724
X6.805 Y6.21 Z-0.649 I1.323 J0.724
X4.159 Y4.762 Z-0.814 I-1.323 J-0.724
X6.805 Y6.21 Z-0.98 I1.323 J0.724
X4.159 Y4.762 Z-1.145 I-1.323 J-0.724
X6.805 Y6.21 Z-1.311 I1.323 J0.724
X4.159 Y4.762 Z-1.476 I-1.323 J-0.724
X6.805 Y6.21 Z-1.642 I1.323 J0.724
X4.159 Y4.762 Z-1.807 I-1.323 J-0.724
X6.805 Y6.21 Z-1.972 I1.323 J0.724
X6.99 Y5.486 Z-1.999 I-1.323 J-0.724
X3.974 I-1.508 J0.
X6.99 I1.508 J0.
G1 X7.009 Y4.795 F330.
X7.034 Y4.712
X7.059 Y4.564
X7.054 Y4.414
X7.025 Y4.267
X6.976 Y4.125
X6.91 Y3.991
X6.829 Y3.865
X6.735 Y3.748
X6.63 Y3.641
X6.515 Y3.544
X6.392 Y3.458
X6.262 Y3.383
X6.127 Y3.318
X5.982 Y3.264
X5.831 Y3.22
X5.672 Y3.187
X5.509 Y3.167
X5.341 Y3.161
X5.17 Y3.167
X4.998 Y3.188
X4.826 Y3.223
X4.655 Y3.272
X4.487 Y3.336
X4.323 Y3.413
X4.165 Y3.504
X4.013 Y3.608
X3.869 Y3.725
X3.735 Y3.854
X3.61 Y3.994
X3.497 Y4.144
X3.395 Y4.303
X3.307 Y4.47
X3.232 Y4.645
X3.17 Y4.825
X3.124 Y5.01
X3.093 Y5.199
X3.076 Y5.39
X3.075 Y5.582
X3.09 Y5.774
X3.12 Y5.964
X3.165 Y6.151
X3.225 Y6.334
X3.299 Y6.512
X3.388 Y6.684
X3.49 Y6.848
X3.605 Y7.003
X3.733 Y7.148
X3.871 Y7.283
X4.02 Y7.407
X4.179 Y7.518
X4.346 Y7.616
X4.52 Y7.7
X4.701 Y7.77
X4.886 Y7.826
X5.076 Y7.866
X5.268 Y7.891
X5.462 Y7.901
X5.655 Y7.895
X5.848 Y7.873
X6.038 Y7.836
X6.225 Y7.784
X6.407 Y7.717
X6.583 Y7.636
X6.752 Y7.54
X6.913 Y7.432
X7.064 Y7.311
X7.206 Y7.178
X7.336 Y7.034
X7.454 Y6.881
X7.56 Y6.717
X7.668 Y6.517
X7.816 Y6.182
X7.943 Y5.815
X8.018 Y5.525
X8.064 Y5.266
X8.086 Y5.026
X8.089 Y4.8
X8.075 Y4.585
X8.044 Y4.376
X7.996 Y4.172
X7.933 Y3.973
X7.854 Y3.78
X7.76 Y3.594
X7.651 Y3.416
X7.527 Y3.246
X7.388 Y3.085
X7.235 Y2.933
X7.068 Y2.793
X6.888 Y2.665
X6.696 Y2.55
X6.583 Y2.494
X6.478 Y2.452
X6.368 Y2.426
X6.255 Y2.417
X4.997
X4.84 Y2.426
X4.683 Y2.437
X4.432 Y2.482
X4.369 Y2.497
X4.055 Y2.597
X3.898 Y2.668
X3.741 Y2.748
X3.584 Y2.846
X3.427 Y2.957
X3.243 Y3.111
X3.112 Y3.242
X2.955 Y3.428
X2.846 Y3.582
X2.748 Y3.739
X2.667 Y3.896
X2.596 Y4.053
X2.495 Y4.367
X2.484 Y4.412
X2.435 Y4.681
X2.423 Y4.838
X2.414 Y4.995
Y6.095
X2.427 Y6.343
X2.45 Y6.523
X2.491 Y6.712
X2.549 Y6.906
X2.624 Y7.099
X2.718 Y7.292
X2.831 Y7.485
X2.964 Y7.674
X3.115 Y7.856
X3.285 Y8.03
X3.472 Y8.193
X3.674 Y8.343
X3.89 Y8.477
X4.119 Y8.595
X4.358 Y8.695
X4.608 Y8.777
X4.865 Y8.838
X5.128 Y8.879
X5.395 Y8.899
X5.664 Y8.898
X5.933 Y8.875
X6.2 Y8.83
X6.464 Y8.763
X6.722 Y8.676
X6.972 Y8.568
X7.214 Y8.44
X7.444 Y8.292
X7.663 Y8.127
X7.716 Y8.08
X7.823 Y7.96
X7.903 Y7.82
X7.95 Y7.666
X7.986 Y7.508
X8.032 Y7.351
X8.087 Y7.194
X8.15 Y7.037
X8.217 Y6.88
X8.296 Y6.712
X8.378 Y6.566
X8.453 Y6.456
X8.487 Y6.409
X8.655 Y6.15
X8.753 Y5.969
X8.84 Y5.772
X8.913 Y5.562
X8.971 Y5.34
X9.013 Y5.105
X9.036 Y4.858
X9.04 Y4.604
X9.023 Y4.344
X8.984 Y4.082
X8.923 Y3.82
X8.841 Y3.56
X8.737 Y3.304
X8.61 Y3.055
X8.463 Y2.813
X8.397 Y2.722
X8.233 Y2.559
X8.026 Y2.454
X7.798 Y2.417
X6.255
G2 X5.99 Y2.891 I0.011 J0.317
G1 X6.056 Y3.008
X7.881 Y6.23
X7.96 Y6.37
G2 X8.487 Y6.409 I0.276 J-0.156
G1 X8.61 Y6.239
X8.767 Y6.075
X8.904 Y5.938
X9.085 Y5.781
X9.238 Y5.662
X9.353 Y5.565
X9.453 Y5.453
X9.541 Y5.331
X9.616 Y5.202
X9.683 Y5.059
X9.743 Y4.901
X9.793 Y4.725
X9.834 Y4.526
X9.858 Y4.318
X9.867 Y4.089
X9.857 Y3.839
X9.825 Y3.583
X9.771 Y3.32
X9.707 Y3.099
X9.621 Y2.873
X9.606 Y2.84
X9.491 Y2.667
X9.332 Y2.532
X9.143 Y2.446
X8.937 Y2.417
X7.798
G2 X7.521 Y2.869 I0.011 J0.317
G1 X7.588 Y3.013
X8.67 Y5.327
X8.768 Y5.536
G2 X9.238 Y5.662 I0.288 J-0.135
G1 X9.288 Y5.624
X9.395 Y5.547
X9.762 Y5.31
X9.867 Y5.243
X9.914 Y5.217
X10.042 Y5.138
X10.158 Y5.043
X10.26 Y4.934
X10.35 Y4.814
X10.429 Y4.686
X10.498 Y4.547
X10.561 Y4.39
X10.614 Y4.219
X10.657 Y4.027
X10.686 Y3.822
X10.699 Y3.617
X10.695 Y3.432
X10.675 Y3.235
X10.645 Y3.07
X10.602 Y2.91
X10.495 Y2.711
X10.332 Y2.553
X10.128 Y2.452
X9.904 Y2.417
X8.937
G2 X8.65 Y2.846 I0.011 J0.317
G1 X8.715 Y3.018
X9.386 Y4.808
X9.474 Y5.045
G2 X9.914 Y5.217 I0.297 J-0.111
G1 X10.338 Y4.985
X10.738 Y4.769
X10.867 Y4.691
X10.983 Y4.596
X11.086 Y4.487
X11.177 Y4.368
X11.256 Y4.24
X11.324 Y4.107
X11.383 Y3.964
X11.433 Y3.808
X11.466 Y3.662
X11.488 Y3.513
X11.498 Y3.355
X11.496 Y3.205
X11.481 Y3.055
X11.473 Y3.016
X11.407 Y2.823
X11.291 Y2.656
X11.134 Y2.527
X10.947 Y2.445
X10.746 Y2.417
X9.904
G2 X9.62 Y2.85 I0.011 J0.317
G1 X9.685 Y3.017
X10.208 Y4.358
X10.302 Y4.599
G2 X10.738 Y4.769 I0.296 J-0.115
G1 X10.901 Y4.681
X11.28 Y4.487
X11.437 Y4.409
X11.49 Y4.386
X11.624 Y4.319
X11.745 Y4.231
X11.853 Y4.127
X11.948 Y4.01
X12.029 Y3.884
X12.097 Y3.75
X12.15 Y3.61
X12.189 Y3.465
X12.213 Y3.317
X12.222 Y3.167
X12.22 Y3.128
X12.177 Y2.907
X12.068 Y2.708
X11.906 Y2.552
X11.703 Y2.452
X11.48 Y2.417
X10.746
G2 X10.468 Y2.866 I0.011 J0.317
G1 X10.535 Y3.014
X10.959 Y3.948
X11.083 Y4.222
G2 X11.49 Y4.386 I0.289 J-0.131
G1 X11.752 Y4.271
X11.909 Y4.208
X12.152 Y4.125
X12.291 Y4.069
X12.42 Y3.992
X12.534 Y3.894
X12.632 Y3.781
X12.714 Y3.655
X12.779 Y3.52
X12.826 Y3.378
X12.856 Y3.231
X12.857 Y3.219
X12.845 Y3.016
X12.779 Y2.823
X12.663 Y2.656
X12.506 Y2.527
X12.32 Y2.445
X12.118 Y2.417
X11.48
G2 X11.21 Y2.882 I0.011 J0.317
G1 X11.277 Y3.01
X11.618 Y3.662
X11.779 Y3.969
G2 X12.152 Y4.125 I0.281 J-0.147
G1 X12.38 Y4.047
X12.831 Y3.896
X12.97 Y3.841
X13.096 Y3.759
X13.203 Y3.654
X13.291 Y3.532
X13.358 Y3.398
X13.36 Y3.392
X13.398 Y3.162
X13.363 Y2.932
X13.258 Y2.725
X13.094 Y2.56
X12.887 Y2.454
X12.657 Y2.417
X12.118
G2 X11.871 Y2.919 I0.011 J0.317
G1 X11.93 Y3.001
X12.255 Y3.457
X12.482 Y3.776
G2 X12.831 Y3.896 I0.258 J-0.184
G1 X13.008 Y3.838
X13.328 Y3.739
X13.374 Y3.729
X13.519 Y3.69
X13.643 Y3.606
X13.77 Y3.41
X13.828 Y3.184
X13.808 Y2.952
X13.714 Y2.738
X13.556 Y2.567
X13.351 Y2.456
X13.121 Y2.417
X12.657
G2 X12.438 Y2.954 I0.011 J0.317
G1 X12.477 Y2.994
X12.763 Y3.294
X13.088 Y3.636
G2 X13.374 Y3.729 I0.23 J-0.219
G1 X13.479 Y3.706
X13.762 Y3.668
X13.909 Y3.641
X14.039 Y3.566
X14.147 Y3.461
X14.234 Y3.274
X14.26 Y3.07
X14.222 Y2.867
X14.125 Y2.685
X13.977 Y2.541
X13.793 Y2.449
X13.589 Y2.417
X13.121
G2 X12.904 Y2.955 I0.011 J0.317
G1 X12.941 Y2.994
X13.155 Y3.214
X13.502 Y3.573
G2 X13.762 Y3.668 I0.228 J-0.221
G1 X13.794 Y3.664
X13.951 Y3.648
X14.108 Y3.645
X14.155 Y3.649
X14.305 Y3.653
X14.439 Y3.585
X14.553 Y3.488
X14.654 Y3.303
X14.691 Y3.095
X14.662 Y2.887
X14.569 Y2.698
X14.422 Y2.547
X14.234 Y2.451
X14.026 Y2.417
X13.589
G2 X13.374 Y2.958 I0.011 J0.317
G1 X13.409 Y2.994
X13.565 Y3.151
X13.965 Y3.556
X14.006 Y3.591
X14.052 Y3.619
X14.102 Y3.638
X14.155 Y3.649
X14.265 Y3.657
X14.422 Y3.678
X14.469 Y3.687
X14.618 Y3.707
X14.764 Y3.671
X14.895 Y3.598
X15.021 Y3.439
X15.095 Y3.25
X15.109 Y3.047
X15.064 Y2.849
X14.962 Y2.674
X14.813 Y2.536
X14.63 Y2.448
X14.429 Y2.417
X14.026
G2 X13.787 Y2.93 I0.011 J0.317
G1 X13.841 Y2.999
X13.94 Y3.125
X14.289 Y3.573
X14.326 Y3.612
X14.37 Y3.645
X14.418 Y3.67
X14.469 Y3.687
X14.579 Y3.708
X14.714 Y3.739
X14.817 Y3.771
X14.962 Y3.809
X15.11 Y3.787
X15.248 Y3.729
X15.37 Y3.641
X15.49 Y3.468
X15.555 Y3.268
X15.56 Y3.058
X15.505 Y2.855
X15.394 Y2.676
X15.237 Y2.536
X15.046 Y2.448
X14.838 Y2.417
X14.429
G2 X14.175 Y2.908 I0.011 J0.317
G1 X14.237 Y3.004
X14.34 Y3.162
X14.657 Y3.646
X14.701 Y3.699
X14.755 Y3.741
X14.817 Y3.771
X14.893 Y3.795
X15.197 Y3.896
X15.341 Y3.936
X15.491 Y3.929
X15.634 Y3.882
X15.763 Y3.807
X15.877 Y3.709
X15.972 Y3.593
X16.047 Y3.463
X16.059 Y3.434
X16.108 Y3.234
X16.101 Y3.028
X16.037 Y2.832
X15.921 Y2.662
X15.764 Y2.53
X15.575 Y2.446
X15.371 Y2.417
X14.838
G2 X14.568 Y2.883 I0.011 J0.317
G1 X14.635 Y3.01
X14.767 Y3.257
X15.027 Y3.747
X15.058 Y3.795
X15.098 Y3.837
X15.145 Y3.871
X15.197 Y3.896
X15.364 Y3.957
X15.558 Y4.053
X15.695 Y4.113
X15.844 Y4.128
X15.993 Y4.11
X16.135 Y4.062
X16.267 Y3.991
X16.386 Y3.899
X16.49 Y3.791
X16.577 Y3.669
X16.647 Y3.536
X16.699 Y3.396
X16.733 Y3.249
X16.734 Y3.235
X16.727 Y3.029
X16.663 Y2.833
X16.548 Y2.662
X16.39 Y2.53
X16.202 Y2.446
X15.997 Y2.417
X15.371
G2 X15.08 Y2.83 I0.011 J0.317
G1 X15.14 Y3.022
X15.244 Y3.353
X15.406 Y3.869
X15.43 Y3.925
X15.464 Y3.976
X15.507 Y4.019
X15.558 Y4.053
X15.873 Y4.21
X15.993 Y4.272
X16.126 Y4.342
X16.274 Y4.368
X16.423 Y4.363
X16.57 Y4.332
X16.711 Y4.279
X16.843 Y4.208
X16.964 Y4.12
X17.074 Y4.018
X17.17 Y3.903
X17.253 Y3.778
X17.321 Y3.644
X17.372 Y3.503
X17.409 Y3.357
X17.427 Y3.209
X17.428 Y3.175
X17.396 Y2.942
X17.292 Y2.731
X17.128 Y2.563
X16.919 Y2.455
X16.687 Y2.417
X15.997
G2 X15.693 Y2.773 I0.011 J0.317
G1 X15.725 Y3.03
X15.787 Y3.542
X15.848 Y4.043
G2 X15.993 Y4.272 I0.315 J-0.038
G1 X16.154 Y4.367
X16.23 Y4.409
X16.307 Y4.438
X16.539 Y4.512
X16.621 Y4.525
X16.778 Y4.542
X16.935 Y4.532
X17.005 Y4.524
X17.092 Y4.508
X17.348 Y4.406
X17.482 Y4.339
X17.607 Y4.255
X17.72 Y4.157
X17.823 Y4.048
X17.912 Y3.927
X17.988 Y3.798
X18.05 Y3.661
X18.098 Y3.519
X18.129 Y3.372
X18.146 Y3.223
X18.147 Y3.163
X18.111 Y2.933
X18.007 Y2.725
X17.843 Y2.56
X17.635 Y2.454
X17.406 Y2.417
X16.687
G2 X16.391 Y2.815 I0.011 J0.317
G1 X16.446 Y3.024
X16.7 Y3.994
X16.769 Y4.259
G2 X17.169 Y4.482 I0.307 J-0.08
G1 X17.249 Y4.454
X17.406 Y4.398
X17.467 Y4.367
X17.721 Y4.222
X18.192 Y3.983
X18.326 Y3.915
X18.442 Y3.821
X18.541 Y3.708
X18.623 Y3.583
X18.687 Y3.447
X18.731 Y3.303
X18.734 Y3.288
X18.74 Y3.073
X18.685 Y2.866
X18.572 Y2.682
X18.412 Y2.539
X18.217 Y2.448
X18.004 Y2.417
X17.406
G2 X17.156 Y2.916 I0.011 J0.317
G1 X17.216 Y3.002
X17.61 Y3.569
X17.819 Y3.868
G2 X18.192 Y3.983 I0.261 J-0.181
G1 X18.4 Y3.896
X18.506 Y3.858
X18.663 Y3.807
X18.711 Y3.793
X18.853 Y3.746
X18.978 Y3.663
X19.084 Y3.557
X19.179 Y3.353
X19.208 Y3.13
X19.168 Y2.908
X19.062 Y2.71
X18.901 Y2.553
X18.699 Y2.452
X18.477 Y2.417
X18.004
G2 X17.771 Y2.937 I0.011 J0.317
G1 X17.821 Y2.997
X18.117 Y3.355
X18.392 Y3.687
G2 X18.711 Y3.793 I0.245 J-0.202
G1 X18.91 Y3.739
X18.977 Y3.722
X19.134 Y3.691
X19.182 Y3.687
X19.33 Y3.665
X19.454 Y3.581
X19.577 Y3.389
X19.632 Y3.167
X19.612 Y2.939
X19.519 Y2.731
X19.364 Y2.563
X19.163 Y2.455
X18.937 Y2.417
X18.477
G2 X18.27 Y2.966 I0.011 J0.317
G1 X18.298 Y2.992
X18.562 Y3.24
X18.946 Y3.601
G2 X19.182 Y3.687 I0.217 J-0.231
G1 X19.291 Y3.677
X19.535 Y3.659
X19.684 Y3.641
X19.818 Y3.574
X19.93 Y3.475
X20.026 Y3.29
X20.06 Y3.084
X20.028 Y2.878
X19.934 Y2.692
X19.787 Y2.545
X19.602 Y2.45
X19.396 Y2.417
X18.937
G2 X18.718 Y2.953 I0.011 J0.317
G1 X18.757 Y2.994
X18.938 Y3.186
X19.293 Y3.56
G2 X19.535 Y3.659 I0.231 J-0.218
G1 X19.606 Y3.654
X19.763 Y3.664
X19.888 Y3.677
X20.038 Y3.685
X20.179 Y3.634
X20.303 Y3.55
X20.426 Y3.364
X20.481 Y3.149
X20.464 Y2.928
X20.375 Y2.724
X20.225 Y2.56
X20.029 Y2.454
X19.81 Y2.417
X19.396
G2 X19.163 Y2.938 I0.011 J0.317
G1 X19.213 Y2.997
X19.334 Y3.143
X19.687 Y3.566
X19.729 Y3.607
X19.777 Y3.64
X19.831 Y3.664
X19.888 Y3.677
X20.077 Y3.696
X20.234 Y3.722
X20.272 Y3.731
X20.42 Y3.759
X20.563 Y3.716
X20.693 Y3.64
X20.824 Y3.476
X20.9 Y3.28
X20.915 Y3.07
X20.868 Y2.865
X20.763 Y2.683
X20.609 Y2.54
X20.419 Y2.449
X20.211 Y2.417
X19.81
G2 X19.57 Y2.929 I0.011 J0.317
G1 X19.625 Y2.999
X19.75 Y3.16
X20.106 Y3.62
X20.153 Y3.669
X20.209 Y3.706
X20.272 Y3.731
X20.548 Y3.801
X20.595 Y3.815
X20.741 Y3.852
X20.89 Y3.836
X21.031 Y3.783
X21.155 Y3.7
X21.262 Y3.594
X21.27 Y3.583
X21.371 Y3.376
X21.404 Y3.149
X21.365 Y2.922
X21.259 Y2.718
X21.095 Y2.557
X20.89 Y2.453
X20.663 Y2.417
X20.211
G2 X19.951 Y2.9 I0.011 J0.317
G1 X20.016 Y3.006
X20.133 Y3.198
X20.427 Y3.68
X20.46 Y3.725
X20.499 Y3.763
X20.545 Y3.793
X20.595 Y3.815
X20.705 Y3.849
X21.019 Y3.952
X21.163 Y3.996
X21.312 Y3.985
X21.455 Y3.941
X21.586 Y3.866
X21.702 Y3.771
X21.799 Y3.657
X21.88 Y3.531
X21.94 Y3.393
X21.95 Y3.358
X21.977 Y3.133
X21.934 Y2.91
X21.827 Y2.71
X21.664 Y2.553
X21.461 Y2.452
X21.236 Y2.417
X20.663
G2 X20.39 Y2.877 I0.011 J0.317
G1 X20.458 Y3.011
X20.604 Y3.303
X20.854 Y3.8
X20.885 Y3.849
X20.923 Y3.891
X20.968 Y3.926
X21.019 Y3.952
X21.176 Y4.009
X21.42 Y4.108
X21.561 Y4.157
X21.711 Y4.167
X21.859 Y4.144
X22.001 Y4.095
X22.132 Y4.022
X22.251 Y3.93
X22.355 Y3.823
X22.442 Y3.701
X22.514 Y3.569
X22.568 Y3.429
X22.603 Y3.283
X22.607 Y3.251
X22.604 Y3.042
X22.543 Y2.843
X22.428 Y2.668
X22.269 Y2.533
X22.079 Y2.447
X21.872 Y2.417
X21.236
G2 X20.942 Y2.82 I0.011 J0.317
G1 X20.998 Y3.024
X21.107 Y3.415
X21.243 Y3.903
G2 X21.42 Y4.108 I0.306 J-0.085
G1 X21.67 Y4.21
X21.891 Y4.305
X22.032 Y4.357
X22.18 Y4.378
X22.33 Y4.369
X22.476 Y4.334
X22.614 Y4.277
X22.744 Y4.201
X22.863 Y4.11
X22.97 Y4.005
X23.064 Y3.888
X23.144 Y3.761
X23.208 Y3.626
X23.258 Y3.484
X23.291 Y3.338
X23.307 Y3.189
Y3.162
X23.272 Y2.932
X23.167 Y2.725
X23.003 Y2.56
X22.796 Y2.454
X22.566 Y2.417
X21.872
G2 X21.568 Y2.77 I0.011 J0.317
G1 X21.597 Y3.031
X21.659 Y3.594
X21.71 Y4.052
G2 X21.891 Y4.305 I0.316 J-0.035
G1 X22.119 Y4.402
X22.433 Y4.539
X22.573 Y4.592
X22.721 Y4.617
X22.871 Y4.615
X23.019 Y4.588
X23.161 Y4.542
X23.297 Y4.477
X23.424 Y4.398
X23.541 Y4.305
X23.649 Y4.2
X23.745 Y4.085
X23.83 Y3.961
X23.901 Y3.829
X23.96 Y3.691
X24.005 Y3.548
X24.035 Y3.401
X24.051 Y3.252
X24.052 Y3.102
X24.05 Y3.083
X23.997 Y2.873
X23.885 Y2.687
X23.724 Y2.542
X23.527 Y2.449
X23.313 Y2.417
X22.566
G2 X22.26 Y2.733 I0.011 J0.317
G1 X22.258 Y3.032
X22.255 Y3.824
X22.253 Y4.251
G2 X22.433 Y4.539 I0.317 J0.001
G1 X22.59 Y4.608
X22.749 Y4.681
X22.904 Y4.757
X22.991 Y4.801
X23.127 Y4.863
X23.274 Y4.895
X23.424 Y4.901
X23.573 Y4.886
X23.719 Y4.85
X23.859 Y4.798
X23.993 Y4.731
X24.12 Y4.65
X24.238 Y4.558
X24.347 Y4.455
X24.447 Y4.343
X24.538 Y4.224
X24.618 Y4.097
X24.688 Y3.964
X24.745 Y3.826
X24.791 Y3.683
X24.825 Y3.537
X24.845 Y3.388
X24.852 Y3.238
X24.846 Y3.088
X24.841 Y3.055
X24.782 Y2.852
X24.668 Y2.674
X24.509 Y2.535
X24.317 Y2.447
X24.107 Y2.417
X23.313
G2 X23.008 Y2.703 I0.011 J0.317
G1 X22.975 Y3.031
X22.871 Y4.078
X22.829 Y4.493
G2 X22.991 Y4.801 I0.316 J0.032
G1 X23.063 Y4.838
X23.218 Y4.926
X23.501 Y5.105
X23.631 Y5.179
X23.774 Y5.225
X23.922 Y5.247
X24.072 Y5.248
X24.221 Y5.23
X24.367 Y5.195
X24.508 Y5.145
X24.645 Y5.082
X24.774 Y5.007
X24.898 Y4.921
X25.017 Y4.823
X25.133 Y4.711
X25.242 Y4.586
X25.343 Y4.452
X25.434 Y4.306
X25.516 Y4.148
X25.579 Y4.
X25.63 Y3.845
X25.669 Y3.683
X25.693 Y3.535
X25.704 Y3.386
X25.703 Y3.231
X25.69 Y3.082
X25.681 Y3.029
X25.617 Y2.833
X25.502 Y2.662
X25.344 Y2.53
X25.155 Y2.446
X24.951 Y2.417
X24.107
G2 X23.808 Y2.67 I0.011 J0.317
G1 X23.734 Y3.025
X23.453 Y4.375
X23.369 Y4.778
G2 X23.501 Y5.105 I0.311 J0.065
G1 X23.69 Y5.225
X24.062 Y5.467
X24.192 Y5.542
X24.331 Y5.597
X24.478 Y5.629
X24.627 Y5.641
X24.777 Y5.634
X24.926 Y5.612
X25.071 Y5.575
X25.213 Y5.526
X25.351 Y5.464
X25.494 Y5.385
X25.634 Y5.292
X25.77 Y5.186
X25.904 Y5.063
X26.032 Y4.924
X26.152 Y4.772
X26.261 Y4.607
X26.358 Y4.432
X26.442 Y4.247
X26.508 Y4.062
X26.555 Y3.889
X26.59 Y3.7
X26.607 Y3.535
X26.611 Y3.377
X26.601 Y3.208
X26.581 Y3.06
X26.567 Y2.997
X26.498 Y2.81
X26.381 Y2.648
X26.225 Y2.523
X26.042 Y2.444
X25.844 Y2.417
X24.951
G2 X24.658 Y2.646 I0.011 J0.317
G1 X24.549 Y3.018
X24.048 Y4.743
X23.939 Y5.118
G2 X24.062 Y5.467 I0.305 J0.089
G1 X24.161 Y5.531
X24.475 Y5.738
X24.535 Y5.781
X24.632 Y5.861
X24.748 Y5.956
X24.884 Y6.019
X25.028 Y6.061
X25.176 Y6.084
X25.326 Y6.09
X25.476 Y6.08
X25.624 Y6.056
X25.769 Y6.02
X25.923 Y5.968
X26.08 Y5.901
X26.236 Y5.818
X26.397 Y5.716
X26.558 Y5.594
X26.714 Y5.455
X26.862 Y5.3
X27.001 Y5.13
X27.13 Y4.942
X27.245 Y4.743
X27.343 Y4.534
X27.426 Y4.315
X27.49 Y4.092
X27.531 Y3.891
X27.557 Y3.68
X27.564 Y3.497
X27.557 Y3.325
X27.536 Y3.147
X27.505 Y2.995
X27.492 Y2.952
X27.416 Y2.778
X27.298 Y2.628
X27.146 Y2.514
X26.97 Y2.442
X26.781 Y2.417
X25.844
G2 X25.554 Y2.632 I0.011 J0.317
G1 X25.424 Y3.013
X24.703 Y5.123
X24.561 Y5.539
G2 X24.632 Y5.861 I0.3 J0.103
G1 X24.711 Y5.938
X24.946 Y6.189
X25.004 Y6.252
X25.034 Y6.289
X25.134 Y6.401
X25.258 Y6.485
X25.394 Y6.549
X25.536 Y6.595
X25.684 Y6.624
X25.833 Y6.638
X25.983
X26.132 Y6.626
X26.295 Y6.599
X26.467 Y6.556
X26.64 Y6.498
X26.821 Y6.421
X27.009 Y6.322
X27.194 Y6.204
X27.376 Y6.067
X27.557 Y5.907
X27.732 Y5.724
X27.899 Y5.52
X28.051 Y5.3
X28.186 Y5.065
X28.302 Y4.82
X28.398 Y4.569
X28.472 Y4.313
X28.525 Y4.057
X28.553 Y3.829
X28.562 Y3.601
X28.555 Y3.406
X28.532 Y3.221
X28.496 Y3.041
X28.471 Y2.954
X28.395 Y2.779
X28.277 Y2.629
X28.125 Y2.514
X27.948 Y2.442
X27.759 Y2.417
X26.781
G2 X26.502 Y2.605 I0.011 J0.317
G1 X26.326 Y2.999
X25.181 Y5.561
X24.998 Y5.97
G2 X25.034 Y6.289 I0.29 J0.13
G1 X25.13 Y6.409
X25.26 Y6.613
X25.326 Y6.723
X25.338 Y6.749
X25.407 Y6.883
X25.513 Y6.989
X25.634 Y7.077
X25.766 Y7.148
X25.905 Y7.204
X26.05 Y7.245
X26.197 Y7.273
X26.35 Y7.289
X26.517 Y7.292
X26.69 Y7.282
X26.877 Y7.255
X27.076 Y7.21
X27.277 Y7.148
X27.488 Y7.063
X27.708 Y6.954
X27.928 Y6.821
X28.143 Y6.667
X28.357 Y6.486
X28.566 Y6.278
X28.764 Y6.046
X28.949 Y5.791
X29.115 Y5.518
X29.258 Y5.233
X29.378 Y4.938
X29.472 Y4.642
X29.539 Y4.347
X29.582 Y4.054
X29.598 Y3.799
X29.594 Y3.548
X29.575 Y3.348
X29.539 Y3.145
X29.493 Y2.969
X29.476 Y2.921
X29.384 Y2.742
X29.247 Y2.594
X29.075 Y2.488
X28.88 Y2.433
X28.873 Y2.432
X28.716 Y2.422
X28.559 Y2.418
X27.759 Y2.417
G2 X27.492 Y2.582 I0.011 J0.317
G1 X27.272 Y2.983
X25.595 Y6.036
X25.354 Y6.476
G2 X25.338 Y6.749 I0.278 J0.153
G1 X25.539 Y7.194
X25.559 Y7.25
X25.615 Y7.389
X25.696 Y7.515
X25.797 Y7.626
X25.912 Y7.722
X26.038 Y7.804
X26.172 Y7.872
X26.311 Y7.927
X26.456 Y7.97
X26.619 Y8.005
X26.788 Y8.027
X26.979 Y8.036
X27.183 Y8.029
X27.393 Y8.006
X27.622 Y7.961
X27.863 Y7.894
X28.104 Y7.805
X28.355 Y7.689
X28.614 Y7.543
X28.875 Y7.366
X29.129 Y7.163
X29.374 Y6.933
X29.61 Y6.672
X29.832 Y6.383
X30.034 Y6.071
X30.212 Y5.74
X30.364 Y5.395
X30.486 Y5.045
X30.576 Y4.695
X30.636 Y4.356
X30.666 Y4.031
X30.669 Y3.755
X30.662 Y3.653
X30.634 Y3.492
X30.57 Y3.342
X30.475 Y3.209
X30.444 Y3.174
X30.377 Y3.111
X30.287 Y3.031
X30.13 Y2.913
X29.973 Y2.804
X29.816 Y2.716
X29.658 Y2.638
X29.501 Y2.575
X29.344 Y2.522
X29.186 Y2.482
X29.03 Y2.454
X28.88 Y2.433
G2 X28.584 Y2.57 I-0.033 J0.316
G1 X28.336 Y2.937
X25.88 Y6.563
X25.599 Y6.978
G2 X25.559 Y7.25 I0.263 J0.178
G1 X25.594 Y7.351
X25.637 Y7.508
X25.671 Y7.666
X25.701 Y7.823
X25.736 Y7.968
X25.798 Y8.105
X25.881 Y8.23
X25.98 Y8.343
X26.091 Y8.443
X26.212 Y8.532
X26.341 Y8.609
X26.476 Y8.676
X26.634 Y8.738
X26.803 Y8.789
X26.99 Y8.83
X27.199 Y8.859
X27.417 Y8.871
X27.652 Y8.865
X27.909 Y8.838
X28.175 Y8.788
X28.45 Y8.713
X28.741 Y8.607
X29.043 Y8.47
X29.347 Y8.301
X29.643 Y8.104
X29.94 Y7.87
X30.231 Y7.599
X30.512 Y7.293
X30.774 Y6.956
X31.013 Y6.592
X31.113 Y6.41
X31.163 Y6.297
X31.194 Y6.177
X31.204 Y6.054
Y4.995
X31.195 Y4.838
X31.184 Y4.681
X31.155 Y4.524
X31.124 Y4.367
X31.072 Y4.2
X31.02 Y4.053
X30.951 Y3.896
X30.915 Y3.817
X30.87 Y3.739
X30.758 Y3.559
X30.66 Y3.425
X30.528 Y3.268
X30.475 Y3.209
G2 X30.019 Y3.207 I-0.229 J0.22
G1 X29.826 Y3.405
X26.13 Y7.2
X25.787 Y7.552
G2 X25.701 Y7.823 I0.227 J0.222
G1 X25.761 Y8.137
X25.818 Y8.451
X25.838 Y8.529
X25.909 Y8.72
X25.926 Y8.765
X25.945 Y8.804
X26.046 Y8.964
X26.088 Y9.022
X26.203 Y9.138
X26.264 Y9.194
X26.36 Y9.259
X26.517 Y9.362
X26.583 Y9.393
X26.674 Y9.428
X26.831 Y9.49
X26.965 Y9.55
X27.104 Y9.605
X27.288 Y9.658
X27.499 Y9.701
X27.728 Y9.728
X27.972 Y9.737
X28.245 Y9.725
X28.533 Y9.69
X28.83 Y9.629
X29.15 Y9.536
X29.487 Y9.407
X29.829 Y9.244
X30.167 Y9.049
X30.512 Y8.811
X30.856 Y8.529
X30.977 Y8.413
X31.1 Y8.258
X31.177 Y8.076
X31.204 Y7.879
Y6.054
G2 X30.682 Y5.823 I-0.317 J0.011
G1 X30.625 Y5.871
X27.021 Y8.922
X26.901 Y9.024
G2 X26.965 Y9.55 I0.205 J0.242
G1 X27.31 Y9.707
X27.459 Y9.782
X27.605 Y9.864
X27.774 Y9.973
X27.844 Y10.022
X27.931 Y10.085
X28.055 Y10.169
X28.19 Y10.235
X28.33 Y10.288
X28.476 Y10.328
X28.648 Y10.361
X28.83 Y10.381
X29.046 Y10.387
X29.272 Y10.375
X29.528 Y10.341
X29.806 Y10.281
X30.097 Y10.193
X30.424 Y10.065
X30.717 Y9.922
X30.84 Y9.849
X30.991 Y9.731
X31.107 Y9.579
X31.179 Y9.402
X31.204 Y9.212
Y7.879
G2 X30.704 Y7.631 I-0.317 J0.011
G1 X30.62 Y7.69
X28.106 Y9.464
X27.945 Y9.578
G2 X27.931 Y10.085 I0.183 J0.259
G1 X28.056 Y10.179
X28.088 Y10.203
X28.327 Y10.418
X28.402 Y10.515
X28.458 Y10.589
X28.554 Y10.704
X28.67 Y10.8
X28.796 Y10.88
X28.931 Y10.946
X29.071 Y11.
X29.228 Y11.045
X29.398 Y11.08
X29.596 Y11.104
X29.809 Y11.112
X30.04 Y11.103
X30.26 Y11.076
X30.477 Y11.032
X30.662 Y10.979
X30.725 Y10.955
X30.92 Y10.845
X31.073 Y10.683
X31.17 Y10.482
X31.204 Y10.262
Y9.212
G2 X30.735 Y8.944 I-0.317 J0.011
G1 X30.612 Y9.011
X28.785 Y10.008
X28.565 Y10.128
G2 X28.458 Y10.589 I0.152 J0.279
G1 X28.623 Y10.807
X28.716 Y10.933
X28.735 Y10.964
X28.821 Y11.121
X28.837 Y11.153
X28.909 Y11.285
X29.003 Y11.401
X29.113 Y11.504
X29.233 Y11.593
X29.363 Y11.669
X29.498 Y11.733
X29.64 Y11.787
X29.799 Y11.832
X29.954 Y11.863
X30.106 Y11.881
X30.274 Y11.888
X30.424 Y11.881
X30.572 Y11.862
X30.62 Y11.852
X30.808 Y11.784
X30.971 Y11.667
X31.097 Y11.511
X31.177 Y11.327
X31.204 Y11.128
Y10.262
G2 X30.762 Y9.981 I-0.317 J0.011
G1 X30.606 Y10.048
X29.262 Y10.622
X29.003 Y10.733
G2 X28.837 Y11.153 I0.125 J0.292
G1 X28.898 Y11.278
X28.97 Y11.435
X29.128 Y11.836
X29.189 Y11.972
X29.273 Y12.097
X29.373 Y12.209
X29.485 Y12.308
X29.608 Y12.394
X29.739 Y12.468
X29.876 Y12.528
X30.019 Y12.574
X30.165 Y12.607
X30.314 Y12.626
X30.464 Y12.63
X30.512 Y12.627
X30.729 Y12.579
X30.922 Y12.469
X31.074 Y12.307
X31.171 Y12.107
X31.204 Y11.888
Y11.128
G2 X30.767 Y10.845 I-0.317 J0.011
G1 X30.605 Y10.911
X29.588 Y11.323
X29.308 Y11.436
G2 X29.128 Y11.836 I0.119 J0.294
G1 X29.156 Y11.906
X29.258 Y12.22
X29.305 Y12.377
X29.344 Y12.52
X29.391 Y12.662
X29.466 Y12.792
X29.559 Y12.91
X29.667 Y13.014
X29.787 Y13.104
X29.917 Y13.178
X30.055 Y13.238
X30.199 Y13.281
X30.346 Y13.308
X30.408 Y13.312
X30.61 Y13.3
X30.801 Y13.233
X30.967 Y13.117
X31.095 Y12.96
X31.176 Y12.774
X31.204 Y12.574
Y11.888
G2 X30.758 Y11.608 I-0.317 J0.011
G1 X30.607 Y11.675
X29.84 Y12.016
X29.524 Y12.156
G2 X29.344 Y12.52 I0.129 J0.29
G1 X29.535 Y13.21
X29.582 Y13.353
X29.654 Y13.484
X29.748 Y13.602
X29.858 Y13.703
X29.982 Y13.788
X30.116 Y13.855
X30.258 Y13.904
X30.313 Y13.916
X30.531 Y13.928
X30.743 Y13.876
X30.931 Y13.765
X31.078 Y13.603
X31.172 Y13.406
X31.204 Y13.19
Y12.574
G2 X30.738 Y12.304 I-0.317 J0.011
G1 X30.612 Y12.371
X30.019 Y12.684
X29.695 Y12.856
G2 X29.535 Y13.21 I0.149 J0.281
G1 X29.565 Y13.32
X29.607 Y13.477
X29.692 Y13.839
X29.734 Y13.983
X29.806 Y14.114
X29.901 Y14.23
X30.016 Y14.327
X30.145 Y14.404
X30.284 Y14.462
X30.507 Y14.482
X30.725 Y14.436
X30.919 Y14.326
X31.073 Y14.164
X31.17 Y13.963
X31.204 Y13.743
Y13.19
G2 X30.713 Y12.935 I-0.317 J0.011
G1 X30.618 Y12.998
X30.173 Y13.288
X29.831 Y13.511
G2 X29.692 Y13.839 I0.173 J0.266
G1 X29.718 Y13.948
X29.784 Y14.388
X29.814 Y14.535
X29.885 Y14.667
X29.981 Y14.782
X30.099 Y14.876
X30.304 Y14.954
X30.524 Y14.969
X30.738 Y14.919
X30.927 Y14.808
X31.076 Y14.646
X31.171 Y14.448
X31.204 Y14.231
Y13.743
G2 X30.695 Y13.501 I-0.317 J0.011
G1 X30.622 Y13.556
X30.271 Y13.822
X29.908 Y14.098
G2 X29.784 Y14.388 I0.192 J0.253
G1 X29.789 Y14.419
X29.816 Y14.663
X29.836 Y14.859
X29.859 Y15.007
X29.925 Y15.142
X30.019 Y15.258
X30.222 Y15.373
X30.45 Y15.418
X30.681 Y15.389
X30.891 Y15.289
X31.059 Y15.127
X31.167 Y14.92
X31.204 Y14.691
Y14.231
G2 X30.687 Y13.995 I-0.317 J0.011
G1 X30.623 Y14.046
X30.326 Y14.287
X29.953 Y14.59
G2 X29.836 Y14.859 I0.2 J0.247
G1 X29.883 Y15.33
X29.905 Y15.478
X29.975 Y15.611
X30.139 Y15.745
X30.335 Y15.824
X30.546 Y15.841
X30.752 Y15.795
X30.936 Y15.69
X31.08 Y15.536
X31.172 Y15.346
X31.204 Y15.136
Y14.691
G2 X30.676 Y14.464 I-0.317 J0.011
G1 X30.626 Y14.509
X30.361 Y14.743
X29.989 Y15.072
G2 X29.883 Y15.33 I0.21 J0.238
G1 X29.899 Y15.519
X29.91 Y15.723
X29.925 Y15.873
X29.989 Y16.008
X30.083 Y16.125
X30.275 Y16.233
X30.491 Y16.276
X30.71 Y16.248
X30.909 Y16.152
X31.067 Y15.999
X31.169 Y15.804
X31.204 Y15.586
Y15.136
